; G-Code generated by Simplify3D(R) Version 4.1.2
; May 16, 2020 at 5:39:00 PM
; Settings Summary
;   processName,Calibration Cube
;   applyToModels,Prusa_Enclosure_PSU_Holder
;   profileName,Anet A8
;   profileVersion,2020-05-16 10:01:08
;   baseProfile,
;   printMaterial,PETG
;   printQuality,Medium
;   printExtruders,
;   extruderName,Primary Extruder
;   extruderToolheadNumber,0
;   extruderDiameter,0.4
;   extruderAutoWidth,1
;   extruderWidth,0.48
;   extrusionMultiplier,0.9
;   extruderUseRetract,1
;   extruderRetractionDistance,2.5
;   extruderExtraRestartDistance,-0.4
;   extruderRetractionZLift,0
;   extruderRetractionSpeed,1800
;   extruderUseCoasting,0
;   extruderCoastingDistance,0.2
;   extruderUseWipe,0
;   extruderWipeDistance,5
;   primaryExtruder,0
;   layerHeight,0.2
;   topSolidLayers,3
;   bottomSolidLayers,3
;   perimeterOutlines,2
;   printPerimetersInsideOut,1
;   startPointOption,2
;   startPointOriginX,0
;   startPointOriginY,0
;   sequentialIslands,0
;   spiralVaseMode,0
;   firstLayerHeightPercentage,90
;   firstLayerWidthPercentage,100
;   firstLayerUnderspeed,0.5
;   useRaft,0
;   raftExtruder,0
;   raftTopLayers,3
;   raftBaseLayers,2
;   raftOffset,3
;   raftSeparationDistance,0.14
;   raftTopInfill,100
;   aboveRaftSpeedMultiplier,0.3
;   useSkirt,1
;   skirtExtruder,0
;   skirtLayers,1
;   skirtOutlines,5
;   skirtOffset,4
;   usePrimePillar,0
;   primePillarExtruder,999
;   primePillarWidth,12
;   primePillarLocation,7
;   primePillarSpeedMultiplier,1
;   useOozeShield,0
;   oozeShieldExtruder,999
;   oozeShieldOffset,2
;   oozeShieldOutlines,1
;   oozeShieldSidewallShape,1
;   oozeShieldSidewallAngle,30
;   oozeShieldSpeedMultiplier,1
;   infillExtruder,0
;   internalInfillPattern,Rectilinear
;   externalInfillPattern,Rectilinear
;   infillPercentage,30
;   outlineOverlapPercentage,15
;   infillExtrusionWidthPercentage,100
;   minInfillLength,5
;   infillLayerInterval,1
;   internalInfillAngles,45,-45
;   overlapInternalInfillAngles,0
;   externalInfillAngles,45,-45
;   generateSupport,0
;   supportExtruder,0
;   supportInfillPercentage,30
;   supportExtraInflation,0
;   supportBaseLayers,0
;   denseSupportExtruder,0
;   denseSupportLayers,0
;   denseSupportInfillPercentage,70
;   supportLayerInterval,1
;   supportHorizontalPartOffset,0.3
;   supportUpperSeparationLayers,1
;   supportLowerSeparationLayers,1
;   supportType,0
;   supportGridSpacing,4
;   maxOverhangAngle,45
;   supportAngles,0
;   temperatureName,Primary Extruder,Heated Bed
;   temperatureNumber,0,0
;   temperatureSetpointCount,1,1
;   temperatureSetpointLayers,1,1
;   temperatureSetpointTemperatures,230,70
;   temperatureStabilizeAtStartup,1,1
;   temperatureHeatedBed,0,1
;   fanLayers,1,2,4
;   fanSpeeds,0,50,100
;   blipFanToFullPower,0
;   adjustSpeedForCooling,1
;   minSpeedLayerTime,15
;   minCoolingSpeedSlowdown,20
;   increaseFanForCooling,0
;   minFanLayerTime,45
;   maxCoolingFanSpeed,100
;   increaseFanForBridging,0
;   bridgingFanSpeed,100
;   use5D,1
;   relativeEdistances,0
;   allowEaxisZeroing,1
;   independentExtruderAxes,0
;   includeM10123,0
;   stickySupport,1
;   applyToolheadOffsets,0
;   gcodeXoffset,0
;   gcodeYoffset,0
;   gcodeZoffset,0
;   overrideMachineDefinition,1
;   machineTypeOverride,0
;   strokeXoverride,220
;   strokeYoverride,220
;   strokeZoverride,240
;   originOffsetXoverride,0
;   originOffsetYoverride,0
;   originOffsetZoverride,0
;   homeXdirOverride,-1
;   homeYdirOverride,-1
;   homeZdirOverride,-1
;   flipXoverride,1
;   flipYoverride,-1
;   flipZoverride,1
;   toolheadOffsets,0,0|0,0|0,0|0,0|0,0|0,0
;   overrideFirmwareConfiguration,1
;   firmwareTypeOverride,RepRap (Marlin/Repetier/Sprinter)
;   GPXconfigOverride,r2
;   baudRateOverride,115200
;   overridePrinterModels,1
;   printerModelsOverride
;   startingGcode,M107 ; fan off,G28 ; home all axes,G29 ; run auto bed leveling,M500 ; store level values in EEPROM,G1 X0 Y20 Z0.2 F3000 ; get ready to prime,G92 E0 ; reset extrusion distance,G1 X200 E10 F600 ; prime nozzle
;   layerChangeGcode,
;   retractionGcode,
;   toolChangeGcode,
;   endingGcode,M104 S0 ; turn off extruder,M140 S0 ; turn off bed,G91 ; use relative coordinates for jogging,G1 Z20 F1000 ; raise Z by 20mm at 1000 mm/min,G90 ; switch back to absolute coordinates,G1 X0 Y200 F1000 ; prepare for part removal,M84 ; disable motors,M107 ; turn off fan
;   exportFileFormat,gcode
;   celebration,0
;   celebrationSong,Random Song
;   postProcessing,
;   defaultSpeed,3000
;   outlineUnderspeed,0.5
;   solidInfillUnderspeed,0.8
;   supportUnderspeed,0.8
;   rapidXYspeed,4800
;   rapidZspeed,1000
;   minBridgingArea,50
;   bridgingExtraInflation,0
;   bridgingExtrusionMultiplier,1
;   bridgingSpeedMultiplier,1
;   useFixedBridgingAngle,0
;   fixedBridgingAngle,0
;   applyBridgingToPerimeters,0
;   filamentDiameters,1.75|1.75|1.75|1.75|1.75|1.75
;   filamentPricesPerKg,46|46|46|46|46|46
;   filamentDensities,1.25|1.25|1.25|1.25|1.25|1.25
;   useMinPrintHeight,0
;   minPrintHeight,0
;   useMaxPrintHeight,0
;   maxPrintHeight,0
;   useDiaphragm,0
;   diaphragmLayerInterval,20
;   robustSlicing,1
;   mergeAllIntoSolid,0
;   onlyRetractWhenCrossingOutline,1
;   retractBetweenLayers,1
;   useRetractionMinTravel,0
;   retractionMinTravel,3
;   retractWhileWiping,0
;   onlyWipeOutlines,1
;   avoidCrossingOutline,0
;   maxMovementDetourFactor,3
;   toolChangeRetractionDistance,12
;   toolChangeExtraRestartDistance,-0.5
;   toolChangeRetractionSpeed,600
;   externalThinWallType,0
;   internalThinWallType,2
;   thinWallAllowedOverlapPercentage,10
;   singleExtrusionMinLength,1
;   singleExtrusionMinPrintingWidthPercentage,50
;   singleExtrusionMaxPrintingWidthPercentage,200
;   singleExtrusionEndpointExtension,0.2
;   horizontalSizeCompensation,0
G90
M82
M106 S0
M140 S70
M190 S70
M104 S230 T0
M109 S230 T0
M107 ; fan off
G28 ; home all axes
G29 ; run auto bed leveling
M500 ; store level values in EEPROM
G1 X0 Y20 Z0.2 F3000 ; get ready to prime
G92 E0 ; reset extrusion distance
G1 X200 E10 F600 ; prime nozzle
; process Calibration Cube
; layer 1, Z = 0.180
T0
G92 E0.0000
G1 E-2.5000 F1800
; feature skirt
; tool H0.180 W0.480
G1 Z0.180 F1000
G1 X98.970 Y51.412 F4800
G1 E-0.4000 F1800
G92 E0.0000
G1 X99.611 Y50.480 E0.0366 F1500
G1 X106.417 Y43.673 E0.3477
G1 X110.343 Y43.036 E0.4763
G1 X122.777 Y49.253 E0.9257
G1 X124.617 Y52.231 E1.0389
G1 X124.617 Y75.571 E1.7935
G1 X125.992 Y74.197 E1.8563
G1 X161.275 Y74.197 E2.9970
G1 X164.883 Y77.805 E3.1619
G1 X164.883 Y92.908 E3.6502
G1 X161.275 Y96.517 E3.8152
G1 X125.992 Y96.517 E4.9558
G1 X124.617 Y95.142 E5.0187
G1 X124.617 Y117.136 E5.7297
G1 X143.679 Y136.198 E6.6012
G1 X144.617 Y138.462 E6.6804
G1 X144.617 Y160.077 E7.3792
G1 X141.009 Y163.685 E7.5442
G1 X78.527 Y163.685 E9.5642
G1 X78.527 Y165.746 E9.6308
G1 X78.107 Y167.313 E9.6832
G1 X73.626 Y175.074 E9.9730
G1 X70.768 Y176.725 E10.0797
G1 X60.966 Y176.725 E10.3965
G1 X58.108 Y175.074 E10.5033
G1 X53.627 Y167.313 E10.7930
G1 X53.207 Y165.746 E10.8454
G1 X53.207 Y154.788 E11.1997
G1 X53.476 Y153.520 E11.2416
G1 X98.970 Y51.412 E14.8555
G92 E0.0000
G1 E-2.5000 F1800
G1 X99.391 Y51.647 F4800
G1 E-0.4000 F1800
G92 E0.0000
G1 X99.982 Y50.788 E0.0337 F1500
G1 X106.647 Y44.122 E0.3385
G1 X110.267 Y43.535 E0.4570
G1 X122.441 Y49.622 E0.8970
G1 X124.137 Y52.367 E1.0014
G1 X124.137 Y76.730 E1.7890
G1 X126.190 Y74.677 E1.8829
G1 X161.076 Y74.677 E3.0107
G1 X164.403 Y78.004 E3.1628
G1 X164.403 Y92.710 E3.6382
G1 X161.076 Y96.037 E3.7903
G1 X126.190 Y96.037 E4.9181
G1 X124.137 Y93.984 E5.0120
G1 X124.137 Y117.334 E5.7669
G1 X143.272 Y136.470 E6.6418
G1 X144.137 Y138.557 E6.7148
G1 X144.137 Y159.878 E7.4041
G1 X140.810 Y163.205 E7.5562
G1 X78.047 Y163.205 E9.5853
G1 X78.047 Y165.683 E9.6654
G1 X77.660 Y167.128 E9.7137
G1 X73.275 Y174.723 E9.9972
G1 X70.639 Y176.245 E10.0956
G1 X61.095 Y176.245 E10.4042
G1 X58.459 Y174.723 E10.5026
G1 X54.074 Y167.128 E10.7861
G1 X53.687 Y165.683 E10.8345
G1 X53.687 Y154.838 E11.1851
G1 X53.935 Y153.669 E11.2237
G1 X99.391 Y51.647 E14.8345
G92 E0.0000
G1 E-2.5000 F1800
G1 X99.811 Y51.883 F4800
G1 E-0.4000 F1800
G92 E0.0000
G1 X100.352 Y51.096 E0.0309 F1500
G1 X106.877 Y44.571 E0.3292
G1 X110.191 Y44.034 E0.4377
G1 X122.104 Y49.990 E0.8683
G1 X123.657 Y52.503 E0.9638
G1 X123.657 Y77.889 E1.7845
G1 X126.389 Y75.157 E1.9094
G1 X160.877 Y75.157 E3.0244
G1 X163.923 Y78.203 E3.1636
G1 X163.923 Y92.511 E3.6262
G1 X160.877 Y95.557 E3.7655
G1 X126.389 Y95.557 E4.8804
G1 X123.657 Y92.825 E5.0053
G1 X123.657 Y117.533 E5.8041
G1 X142.865 Y136.742 E6.6823
G1 X143.657 Y138.653 E6.7492
G1 X143.657 Y159.679 E7.4289
G1 X140.611 Y162.725 E7.5682
G1 X77.567 Y162.725 E9.6064
G1 X77.567 Y165.620 E9.6999
G1 X77.213 Y166.943 E9.7442
G1 X72.924 Y174.371 E10.0215
G1 X70.510 Y175.765 E10.1116
G1 X61.224 Y175.765 E10.4118
G1 X58.810 Y174.371 E10.5019
G1 X54.521 Y166.943 E10.7792
G1 X54.167 Y165.620 E10.8235
G1 X54.167 Y154.889 E11.1704
G1 X54.394 Y153.819 E11.2058
G1 X99.811 Y51.883 E14.8136
G92 E0.0000
G1 E-2.5000 F1800
G1 X100.232 Y52.119 F4800
G1 E-0.4000 F1800
G92 E0.0000
G1 X100.723 Y51.404 E0.0280 F1500
G1 X107.107 Y45.020 E0.3199
G1 X110.115 Y44.532 E0.4184
G1 X121.767 Y50.358 E0.8396
G1 X123.177 Y52.640 E0.9263
G1 X123.177 Y117.732 E3.0306
G1 X142.459 Y137.013 E3.9122
G1 X143.177 Y138.748 E3.9729
G1 X143.177 Y159.480 E4.6431
G1 X140.412 Y162.245 E4.7696
G1 X77.087 Y162.245 E6.8168
G1 X77.087 Y165.557 E6.9238
G1 X76.765 Y166.757 E6.9640
G1 X72.572 Y174.020 E7.2351
G1 X70.382 Y175.285 E7.3169
G1 X61.352 Y175.285 E7.6088
G1 X59.162 Y174.020 E7.6906
G1 X54.969 Y166.757 E7.9617
G1 X54.647 Y165.557 E8.0019
G1 X54.647 Y154.939 E8.3451
G1 X54.853 Y153.968 E8.3772
G1 X100.232 Y52.119 E11.9819
G92 E0.0000
G1 E-2.5000 F1800
G1 X100.652 Y52.354 F4800
G1 E-0.4000 F1800
G92 E0.0000
G1 X101.094 Y51.713 E0.0252 F1500
G1 X107.337 Y45.469 E0.3106
G1 X110.039 Y45.031 E0.3991
G1 X121.431 Y50.727 E0.8109
G1 X122.697 Y52.776 E0.8887
G1 X122.697 Y117.931 E2.9951
G1 X142.052 Y137.285 E3.8800
G1 X142.697 Y138.844 E3.9345
G1 X142.697 Y159.282 E4.5953
G1 X140.213 Y161.765 E4.7088
G1 X76.607 Y161.765 E6.7652
G1 X76.607 Y165.494 E6.8857
G1 X76.318 Y166.572 E6.9218
G1 X72.221 Y173.668 E7.1867
G1 X70.253 Y174.805 E7.2601
G1 X61.481 Y174.805 E7.5437
G1 X59.513 Y173.668 E7.6172
G1 X55.416 Y166.572 E7.8821
G1 X55.127 Y165.494 E7.9182
G1 X55.127 Y154.989 E8.2578
G1 X55.312 Y154.117 E8.2866
G1 X100.652 Y52.354 E11.8883
G92 E0.0000
G1 E-2.5000 F1800
G1 X126.588 Y75.637 F4800
G1 E-0.4000 F1800
G92 E0.0000
G1 X160.678 Y75.637 E1.1021 F1500
G1 X163.443 Y78.402 E1.2285
G1 X163.443 Y92.312 E1.6782
G1 X160.678 Y95.077 E1.8046
G1 X126.588 Y95.077 E2.9067
G1 X123.823 Y92.312 E3.0331
G1 X123.823 Y78.402 E3.4828
G1 X126.588 Y75.637 E3.6092
G92 E0.0000
G1 E-2.5000 F1800
G1 X126.787 Y76.117 F4800
G1 E-0.4000 F1800
G92 E0.0000
G1 X160.479 Y76.117 E1.0892 F1500
G1 X162.963 Y78.601 E1.2028
G1 X162.963 Y92.113 E1.6396
G1 X160.479 Y94.597 E1.7532
G1 X126.787 Y94.597 E2.8424
G1 X124.303 Y92.113 E2.9560
G1 X124.303 Y78.601 E3.3928
G1 X126.787 Y76.117 E3.5064
G92 E0.0000
G1 E-2.5000 F1800
; feature inner perimeter
G1 X117.737 Y54.425 F4800
G1 E-0.4000 F1800
G92 E0.0000
G1 X117.737 Y119.985 E2.1195 F1125
G1 X137.737 Y139.985 E3.0339
G1 X137.737 Y156.805 E3.5776
G1 X71.647 Y156.805 E5.7143
G1 X71.647 Y164.743 E5.9709
G1 X68.701 Y169.845 E6.1613
G1 X63.033 Y169.845 E6.3446
G1 X60.087 Y164.743 E6.5350
G1 X60.087 Y155.589 E6.8310
G1 X104.970 Y54.850 E10.3964
G1 X109.509 Y50.311 E10.6039
G1 X117.737 Y54.425 E10.9013
; feature outer perimeter
G1 X118.217 Y54.129 F4800
G92 E0.0000
G1 X118.217 Y119.786 E2.1226 F750
G1 X138.217 Y139.786 E3.0370
G1 X138.217 Y157.285 E3.6028
G1 X72.127 Y157.285 E5.7394
G1 X72.127 Y164.871 E5.9846
G1 X68.978 Y170.325 E6.1882
G1 X62.756 Y170.325 E6.3894
G1 X59.607 Y164.871 E6.5929
G1 X59.607 Y155.486 E6.8963
G1 X104.568 Y54.574 E10.4679
G1 X109.414 Y49.727 E10.6895
G1 X118.217 Y54.129 E11.0076
; feature inner perimeter
G1 X66.687 Y162.868 F4800
G92 E0.0000
G1 X66.273 Y162.750 E0.0139 F1125
G1 X65.867 Y162.712 E0.0271
G1 X65.461 Y162.750 E0.0403
G1 X65.047 Y162.868 E0.0542
G1 X64.649 Y163.075 E0.0687
G1 X64.294 Y163.363 E0.0835
G1 X64.006 Y163.718 E0.0983
G1 X63.800 Y164.115 E0.1127
G1 X63.681 Y164.529 E0.1266
G1 X63.644 Y164.935 E0.1398
G1 X63.681 Y165.342 E0.1530
G1 X63.800 Y165.756 E0.1669
G1 X64.006 Y166.153 E0.1814
G1 X64.294 Y166.508 E0.1962
G1 X64.649 Y166.796 E0.2110
G1 X65.047 Y167.002 E0.2255
G1 X65.460 Y167.121 E0.2394
G1 X65.867 Y167.158 E0.2526
G1 X66.273 Y167.121 E0.2658
G1 X66.687 Y167.002 E0.2797
G1 X67.085 Y166.796 E0.2941
G1 X67.439 Y166.508 E0.3089
G1 X67.728 Y166.153 E0.3237
G1 X67.934 Y165.756 E0.3382
G1 X68.053 Y165.342 E0.3521
G1 X68.090 Y164.935 E0.3653
G1 X68.053 Y164.529 E0.3785
G1 X67.934 Y164.115 E0.3924
G1 X67.728 Y163.718 E0.4069
G1 X67.439 Y163.363 E0.4217
G1 X67.085 Y163.075 E0.4364
G1 X66.687 Y162.868 E0.4509
; feature outer perimeter
G1 X66.508 Y163.317 F4800
G92 E0.0000
G1 X66.184 Y163.224 E0.0109 F750
G1 X65.867 Y163.194 E0.0212
G1 X65.550 Y163.224 E0.0315
G1 X65.225 Y163.317 E0.0424
G1 X64.914 Y163.478 E0.0538
G1 X64.636 Y163.704 E0.0653
G1 X64.410 Y163.982 E0.0769
G1 X64.248 Y164.294 E0.0883
G1 X64.155 Y164.618 E0.0992
G1 X64.126 Y164.935 E0.1095
G1 X64.155 Y165.253 E0.1198
G1 X64.248 Y165.577 E0.1307
G1 X64.410 Y165.888 E0.1420
G1 X64.636 Y166.167 E0.1536
G1 X64.914 Y166.393 E0.1652
G1 X65.225 Y166.554 E0.1766
G1 X65.549 Y166.647 E0.1875
G1 X65.867 Y166.676 E0.1978
G1 X66.184 Y166.647 E0.2081
G1 X66.508 Y166.554 E0.2190
G1 X66.820 Y166.393 E0.2303
G1 X67.098 Y166.167 E0.2419
G1 X67.324 Y165.888 E0.2535
G1 X67.485 Y165.577 E0.2648
G1 X67.579 Y165.253 E0.2757
G1 X67.608 Y164.935 E0.2860
G1 X67.579 Y164.618 E0.2963
G1 X67.485 Y164.294 E0.3072
G1 X67.324 Y163.982 E0.3186
G1 X67.098 Y163.704 E0.3302
G1 X66.820 Y163.478 E0.3418
G1 X66.508 Y163.317 E0.3531
; feature solid layer
G1 X68.495 Y164.888 F4800
G92 E0.0000
G1 X70.141 Y166.534 E0.0753 F1200
G1 X69.893 Y166.965 E0.0913
G1 X68.431 Y165.503 E0.1582
G1 X68.314 Y165.907 E0.1718
G1 X68.261 Y166.011 E0.1755
G1 X69.644 Y167.395 E0.2388
G1 X69.396 Y167.825 E0.2549
G1 X68.016 Y166.445 E0.3180
G1 X67.729 Y166.798 E0.3327
G1 X67.708 Y166.816 E0.3336
G1 X69.148 Y168.256 E0.3994
G1 X68.899 Y168.686 E0.4155
G1 X67.333 Y167.120 E0.4871
G1 X67.309 Y167.139 E0.4881
G1 X66.891 Y167.356 E0.5033
G1 X68.651 Y169.116 E0.5838
G1 X68.466 Y169.437 E0.5957
G1 X68.292 Y169.437 E0.6014
G1 X66.373 Y167.517 E0.6891
G1 X66.349 Y167.524 E0.6899
G1 X65.867 Y167.568 E0.7055
G1 X65.732 Y167.556 E0.7099
G1 X67.613 Y169.437 E0.7959
G1 X66.934 Y169.437 E0.8178
G1 X64.866 Y167.368 E0.9124
G1 X63.540 Y169.437 F4800
G92 E0.0000
G1 X62.897 Y168.793 E0.0294 F1200
G1 X61.969 Y167.187 E0.0894
G1 X64.219 Y169.437 E0.1923
G1 X64.898 Y169.437 E0.2142
G1 X61.042 Y165.581 E0.3905
G1 X60.495 Y164.633 E0.4259
G1 X60.495 Y164.355 E0.4349
G1 X65.577 Y169.437 E0.6672
G1 X66.256 Y169.437 E0.6891
G1 X60.495 Y163.676 E0.9525
G1 X60.495 Y162.997 E0.9745
G1 X63.435 Y165.937 E1.1089
G1 X63.420 Y165.907 E1.1100
G1 X63.278 Y165.418 E1.1264
G1 X63.247 Y165.070 E1.1377
G1 X60.495 Y162.318 E1.2635
G1 X60.495 Y161.639 E1.2855
G1 X63.285 Y164.430 E1.4130
G1 X63.420 Y163.963 E1.4287
G1 X63.446 Y163.912 E1.4306
G1 X60.495 Y160.961 E1.5655
G1 X60.495 Y160.282 E1.5875
G1 X63.682 Y163.469 E1.7332
G1 X63.987 Y163.095 E1.7488
G1 X60.495 Y159.603 E1.9085
G1 X60.495 Y158.924 E1.9304
G1 X64.357 Y162.786 E2.1070
G1 X64.424 Y162.732 E2.1098
G1 X64.791 Y162.542 E2.1231
G1 X60.495 Y158.245 E2.3196
G1 X60.495 Y157.567 E2.3415
G1 X65.300 Y162.371 E2.5612
G1 X65.385 Y162.347 E2.5640
G1 X65.867 Y162.303 E2.5797
G1 X65.914 Y162.307 E2.5812
G1 X60.495 Y156.888 E2.8290
G1 X60.495 Y156.209 E2.8509
G1 X66.747 Y162.461 E3.1368
G1 X66.839 Y162.488 E3.1399
G1 X67.310 Y162.732 E3.1570
G1 X67.729 Y163.073 E3.1745
G1 X68.071 Y163.493 E3.1920
G1 X68.314 Y163.963 E3.2091
G1 X68.341 Y164.055 E3.2122
G1 X70.390 Y166.104 E3.3059
G1 X70.638 Y165.673 E3.3220
G1 X60.540 Y155.575 E3.7837
