; G-Code generated by Simplify3D(R) Version 4.1.2
; May 16, 2020 at 5:38:41 PM
; Settings Summary
;   processName,Calibration Cube
;   applyToModels,Prusa_Enclosure_Door_Knob
;   profileName,Anet A8
;   profileVersion,2020-05-16 10:01:08
;   baseProfile,
;   printMaterial,PETG
;   printQuality,Medium
;   printExtruders,
;   extruderName,Primary Extruder
;   extruderToolheadNumber,0
;   extruderDiameter,0.4
;   extruderAutoWidth,1
;   extruderWidth,0.48
;   extrusionMultiplier,0.9
;   extruderUseRetract,1
;   extruderRetractionDistance,2.5
;   extruderExtraRestartDistance,-0.4
;   extruderRetractionZLift,0
;   extruderRetractionSpeed,1800
;   extruderUseCoasting,0
;   extruderCoastingDistance,0.2
;   extruderUseWipe,0
;   extruderWipeDistance,5
;   primaryExtruder,0
;   layerHeight,0.2
;   topSolidLayers,3
;   bottomSolidLayers,3
;   perimeterOutlines,2
;   printPerimetersInsideOut,1
;   startPointOption,2
;   startPointOriginX,0
;   startPointOriginY,0
;   sequentialIslands,0
;   spiralVaseMode,0
;   firstLayerHeightPercentage,90
;   firstLayerWidthPercentage,100
;   firstLayerUnderspeed,0.5
;   useRaft,0
;   raftExtruder,0
;   raftTopLayers,3
;   raftBaseLayers,2
;   raftOffset,3
;   raftSeparationDistance,0.14
;   raftTopInfill,100
;   aboveRaftSpeedMultiplier,0.3
;   useSkirt,1
;   skirtExtruder,0
;   skirtLayers,1
;   skirtOutlines,5
;   skirtOffset,4
;   usePrimePillar,0
;   primePillarExtruder,999
;   primePillarWidth,12
;   primePillarLocation,7
;   primePillarSpeedMultiplier,1
;   useOozeShield,0
;   oozeShieldExtruder,999
;   oozeShieldOffset,2
;   oozeShieldOutlines,1
;   oozeShieldSidewallShape,1
;   oozeShieldSidewallAngle,30
;   oozeShieldSpeedMultiplier,1
;   infillExtruder,0
;   internalInfillPattern,Rectilinear
;   externalInfillPattern,Rectilinear
;   infillPercentage,30
;   outlineOverlapPercentage,15
;   infillExtrusionWidthPercentage,100
;   minInfillLength,5
;   infillLayerInterval,1
;   internalInfillAngles,45,-45
;   overlapInternalInfillAngles,0
;   externalInfillAngles,45,-45
;   generateSupport,0
;   supportExtruder,0
;   supportInfillPercentage,30
;   supportExtraInflation,0
;   supportBaseLayers,0
;   denseSupportExtruder,0
;   denseSupportLayers,0
;   denseSupportInfillPercentage,70
;   supportLayerInterval,1
;   supportHorizontalPartOffset,0.3
;   supportUpperSeparationLayers,1
;   supportLowerSeparationLayers,1
;   supportType,0
;   supportGridSpacing,4
;   maxOverhangAngle,45
;   supportAngles,0
;   temperatureName,Primary Extruder,Heated Bed
;   temperatureNumber,0,0
;   temperatureSetpointCount,1,1
;   temperatureSetpointLayers,1,1
;   temperatureSetpointTemperatures,230,70
;   temperatureStabilizeAtStartup,1,1
;   temperatureHeatedBed,0,1
;   fanLayers,1,2,4
;   fanSpeeds,0,50,100
;   blipFanToFullPower,0
;   adjustSpeedForCooling,1
;   minSpeedLayerTime,15
;   minCoolingSpeedSlowdown,20
;   increaseFanForCooling,0
;   minFanLayerTime,45
;   maxCoolingFanSpeed,100
;   increaseFanForBridging,0
;   bridgingFanSpeed,100
;   use5D,1
;   relativeEdistances,0
;   allowEaxisZeroing,1
;   independentExtruderAxes,0
;   includeM10123,0
;   stickySupport,1
;   applyToolheadOffsets,0
;   gcodeXoffset,0
;   gcodeYoffset,0
;   gcodeZoffset,0
;   overrideMachineDefinition,1
;   machineTypeOverride,0
;   strokeXoverride,220
;   strokeYoverride,220
;   strokeZoverride,240
;   originOffsetXoverride,0
;   originOffsetYoverride,0
;   originOffsetZoverride,0
;   homeXdirOverride,-1
;   homeYdirOverride,-1
;   homeZdirOverride,-1
;   flipXoverride,1
;   flipYoverride,-1
;   flipZoverride,1
;   toolheadOffsets,0,0|0,0|0,0|0,0|0,0|0,0
;   overrideFirmwareConfiguration,1
;   firmwareTypeOverride,RepRap (Marlin/Repetier/Sprinter)
;   GPXconfigOverride,r2
;   baudRateOverride,115200
;   overridePrinterModels,1
;   printerModelsOverride
;   startingGcode,M107 ; fan off,G28 ; home all axes,G29 ; run auto bed leveling,M500 ; store level values in EEPROM,G1 X0 Y20 Z0.2 F3000 ; get ready to prime,G92 E0 ; reset extrusion distance,G1 X200 E10 F600 ; prime nozzle
;   layerChangeGcode,
;   retractionGcode,
;   toolChangeGcode,
;   endingGcode,M104 S0 ; turn off extruder,M140 S0 ; turn off bed,G91 ; use relative coordinates for jogging,G1 Z20 F1000 ; raise Z by 20mm at 1000 mm/min,G90 ; switch back to absolute coordinates,G1 X0 Y200 F1000 ; prepare for part removal,M84 ; disable motors,M107 ; turn off fan
;   exportFileFormat,gcode
;   celebration,0
;   celebrationSong,Random Song
;   postProcessing,
;   defaultSpeed,3000
;   outlineUnderspeed,0.5
;   solidInfillUnderspeed,0.8
;   supportUnderspeed,0.8
;   rapidXYspeed,4800
;   rapidZspeed,1000
;   minBridgingArea,50
;   bridgingExtraInflation,0
;   bridgingExtrusionMultiplier,1
;   bridgingSpeedMultiplier,1
;   useFixedBridgingAngle,0
;   fixedBridgingAngle,0
;   applyBridgingToPerimeters,0
;   filamentDiameters,1.75|1.75|1.75|1.75|1.75|1.75
;   filamentPricesPerKg,46|46|46|46|46|46
;   filamentDensities,1.25|1.25|1.25|1.25|1.25|1.25
;   useMinPrintHeight,0
;   minPrintHeight,0
;   useMaxPrintHeight,0
;   maxPrintHeight,0
;   useDiaphragm,0
;   diaphragmLayerInterval,20
;   robustSlicing,1
;   mergeAllIntoSolid,0
;   onlyRetractWhenCrossingOutline,1
;   retractBetweenLayers,1
;   useRetractionMinTravel,0
;   retractionMinTravel,3
;   retractWhileWiping,0
;   onlyWipeOutlines,1
;   avoidCrossingOutline,0
;   maxMovementDetourFactor,3
;   toolChangeRetractionDistance,12
;   toolChangeExtraRestartDistance,-0.5
;   toolChangeRetractionSpeed,600
;   externalThinWallType,0
;   internalThinWallType,2
;   thinWallAllowedOverlapPercentage,10
;   singleExtrusionMinLength,1
;   singleExtrusionMinPrintingWidthPercentage,50
;   singleExtrusionMaxPrintingWidthPercentage,200
;   singleExtrusionEndpointExtension,0.2
;   horizontalSizeCompensation,0
G90
M82
M106 S0
M140 S70
M190 S70
M104 S230 T0
M109 S230 T0
M107 ; fan off
G28 ; home all axes
G29 ; run auto bed leveling
M500 ; store level values in EEPROM
G1 X0 Y20 Z0.2 F3000 ; get ready to prime
G92 E0 ; reset extrusion distance
G1 X200 E10 F600 ; prime nozzle
; process Calibration Cube
; layer 1, Z = 0.180
T0
G92 E0.0000
G1 E-2.5000 F1800
; feature skirt
; tool H0.180 W0.480
G1 Z0.180 F1000
G1 X85.478 Y87.597 F4800
G1 E-0.4000 F1800
G92 E0.0000
G1 X88.779 Y85.094 E0.1339 F1500
G1 X155.474 Y85.094 E2.2901
G1 X158.775 Y87.597 E2.4240
G1 X159.507 Y90.205 E2.5116
G1 X159.622 Y91.040 E2.5389
G1 X159.622 Y121.948 E3.5381
G1 X156.013 Y125.556 E3.7030
G1 X138.141 Y125.556 E4.2808
G1 X141.364 Y130.534 E4.4726
G1 X146.784 Y130.534 E4.6478
G1 X150.393 Y134.142 E4.8128
G1 X150.393 Y141.245 E5.0424
G1 X146.784 Y144.854 E5.2074
G1 X69.893 Y144.854 E7.6932
G1 X66.284 Y141.245 E7.8582
G1 X66.284 Y134.142 E8.0878
G1 X69.893 Y130.534 E8.2528
G1 X75.313 Y130.534 E8.4280
G1 X80.821 Y122.030 E8.7555
G1 X83.573 Y120.534 E8.8568
G1 X84.632 Y120.534 E8.8910
G1 X84.632 Y91.040 E9.8445
G1 X84.747 Y90.205 E9.8718
G1 X85.478 Y87.597 E9.9594
G92 E0.0000
G1 E-2.5000 F1800
G1 X85.897 Y87.882 F4800
G1 E-0.4000 F1800
G92 E0.0000
G1 X88.940 Y85.574 E0.1235 F1500
G1 X155.313 Y85.574 E2.2692
G1 X158.357 Y87.882 E2.3927
G1 X159.036 Y90.303 E2.4740
G1 X159.142 Y91.073 E2.4991
G1 X159.142 Y121.749 E3.4909
G1 X155.814 Y125.076 E3.6430
G1 X137.258 Y125.076 E4.2429
G1 X141.103 Y131.014 E4.4716
G1 X146.585 Y131.014 E4.6488
G1 X149.913 Y134.341 E4.8009
G1 X149.913 Y141.047 E5.0177
G1 X146.585 Y144.374 E5.1698
G1 X70.092 Y144.374 E7.6428
G1 X66.764 Y141.047 E7.7949
G1 X66.764 Y134.341 E8.0117
G1 X70.092 Y131.014 E8.1638
G1 X75.574 Y131.014 E8.3411
G1 X81.157 Y122.394 E8.6731
G1 X83.695 Y121.014 E8.7665
G1 X85.112 Y121.014 E8.8123
G1 X85.112 Y91.073 E9.7802
G1 X85.218 Y90.303 E9.8054
G1 X85.897 Y87.882 E9.8867
G92 E0.0000
G1 E-2.5000 F1800
G1 X86.315 Y88.167 F4800
G1 E-0.4000 F1800
G92 E0.0000
G1 X89.102 Y86.054 E0.1130 F1500
G1 X155.152 Y86.054 E2.2484
G1 X157.938 Y88.167 E2.3614
G1 X158.565 Y90.401 E2.4364
G1 X158.662 Y91.106 E2.4594
G1 X158.662 Y121.550 E3.4437
G1 X155.616 Y124.596 E3.5829
G1 X136.375 Y124.596 E4.2049
G1 X140.842 Y131.494 E4.4706
G1 X146.387 Y131.494 E4.6499
G1 X149.433 Y134.540 E4.7891
G1 X149.433 Y140.848 E4.9931
G1 X146.387 Y143.894 E5.1323
G1 X70.291 Y143.894 E7.5924
G1 X67.244 Y140.848 E7.7317
G1 X67.244 Y134.540 E7.9356
G1 X70.291 Y131.494 E8.0749
G1 X75.835 Y131.494 E8.2541
G1 X81.494 Y122.757 E8.5906
G1 X83.817 Y121.494 E8.6761
G1 X85.592 Y121.494 E8.7335
G1 X85.592 Y91.106 E9.7159
G1 X85.689 Y90.401 E9.7389
G1 X86.315 Y88.167 E9.8139
G92 E0.0000
G1 E-2.5000 F1800
G1 X86.734 Y88.452 F4800
G1 E-0.4000 F1800
G92 E0.0000
G1 X89.263 Y86.534 E0.1026 F1500
G1 X154.990 Y86.534 E2.2275
G1 X157.520 Y88.452 E2.3301
G1 X158.094 Y90.499 E2.3988
G1 X158.182 Y91.139 E2.4197
G1 X158.182 Y121.351 E3.3965
G1 X155.417 Y124.116 E3.5229
G1 X135.492 Y124.116 E4.1670
G1 X140.581 Y131.974 E4.4697
G1 X146.188 Y131.974 E4.6509
G1 X148.953 Y134.739 E4.7773
G1 X148.953 Y140.649 E4.9684
G1 X146.188 Y143.414 E5.0948
G1 X70.489 Y143.414 E7.5420
G1 X67.724 Y140.649 E7.6685
G1 X67.724 Y134.739 E7.8595
G1 X70.489 Y131.974 E7.9859
G1 X76.096 Y131.974 E8.1672
G1 X81.830 Y123.121 E8.5082
G1 X83.939 Y121.974 E8.5858
G1 X86.694 Y121.974 E8.6749
G1 X86.072 Y121.351 E8.7033
G1 X86.072 Y91.139 E9.6801
G1 X86.160 Y90.499 E9.7010
G1 X86.734 Y88.452 E9.7697
G92 E0.0000
G1 E-2.5000 F1800
G1 X87.152 Y88.737 F4800
G1 E-0.4000 F1800
G92 E0.0000
G1 X89.424 Y87.014 E0.0922 F1500
G1 X154.829 Y87.014 E2.2066
G1 X157.101 Y88.737 E2.2988
G1 X157.623 Y90.597 E2.3612
G1 X157.702 Y91.172 E2.3800
G1 X157.702 Y121.152 E3.3493
G1 X155.218 Y123.636 E3.4628
G1 X134.610 Y123.636 E4.1291
G1 X140.320 Y132.454 E4.4687
G1 X145.989 Y132.454 E4.6519
G1 X148.473 Y134.938 E4.7655
G1 X148.473 Y140.450 E4.9437
G1 X145.989 Y142.934 E5.0573
G1 X70.688 Y142.934 E7.4917
G1 X68.204 Y140.450 E7.6052
G1 X68.204 Y134.938 E7.7834
G1 X70.688 Y132.454 E7.8970
G1 X76.357 Y132.454 E8.0803
G1 X82.167 Y123.484 E8.4258
G1 X84.061 Y122.454 E8.4955
G1 X87.853 Y122.454 E8.6181
G1 X86.552 Y121.152 E8.6776
G1 X86.552 Y91.172 E9.6468
G1 X86.631 Y90.597 E9.6656
G1 X87.152 Y88.737 E9.7280
G92 E0.0000
G1 E-2.5000 F1800
; feature inner perimeter
G1 X91.512 Y91.974 F4800
G1 E-0.4000 F1800
G92 E0.0000
G1 X120.072 Y91.974 E0.9233 F1125
G1 X120.072 Y118.676 E1.7866
G1 X91.512 Y118.676 E2.7099
G1 X91.512 Y91.974 E3.5731
; feature outer perimeter
G1 X91.032 Y91.494 F4800
G92 E0.0000
G1 X120.552 Y91.494 E0.9543 F750
G1 X120.552 Y119.156 E1.8486
G1 X91.032 Y119.156 E2.8030
G1 X91.032 Y91.494 E3.6972
; feature solid layer
G1 X92.473 Y118.268 F4800
G92 E0.0000
G1 X91.920 Y117.715 E0.0253 F1200
G1 X91.920 Y117.036 E0.0472
G1 X93.152 Y118.268 E0.1036
G1 X93.831 Y118.268 E0.1255
G1 X91.920 Y116.357 E0.2129
G1 X91.920 Y115.679 E0.2348
G1 X94.509 Y118.268 E0.3532
G1 X95.188 Y118.268 E0.3752
G1 X91.920 Y115.000 E0.5246
G1 X91.920 Y114.321 E0.5465
G1 X95.867 Y118.268 E0.7270
G1 X96.546 Y118.268 E0.7489
G1 X91.920 Y113.642 E0.9605
G1 X91.920 Y112.963 E0.9824
G1 X97.225 Y118.268 E1.2249
G1 X97.903 Y118.268 E1.2469
G1 X91.920 Y112.284 E1.5205
G1 X91.920 Y111.606 E1.5424
G1 X98.582 Y118.268 E1.8470
G1 X99.261 Y118.268 E1.8690
G1 X91.920 Y110.927 E2.2046
G1 X91.920 Y110.248 E2.2266
G1 X99.940 Y118.268 E2.5932
G1 X100.619 Y118.268 E2.6152
G1 X91.920 Y109.569 E3.0129
G1 X91.920 Y108.890 E3.0348
G1 X101.298 Y118.268 E3.4636
G1 X101.976 Y118.268 E3.4855
G1 X91.920 Y108.211 E3.9453
G1 X91.920 Y107.533 E3.9673
G1 X102.655 Y118.268 E4.4581
G1 X103.334 Y118.268 E4.4801
G1 X91.920 Y106.854 E5.0019
G1 X91.920 Y106.175 E5.0239
G1 X104.013 Y118.268 E5.5768
G1 X104.692 Y118.268 E5.5987
G1 X91.920 Y105.496 E6.1826
G1 X91.920 Y104.817 E6.2046
G1 X105.371 Y118.268 E6.8195
G1 X106.049 Y118.268 E6.8415
G1 X91.920 Y104.139 E7.4875
G1 X91.920 Y103.460 E7.5094
G1 X106.728 Y118.268 E8.1865
G1 X107.407 Y118.268 E8.2084
G1 X91.920 Y102.781 E8.9165
G1 X91.920 Y102.102 E8.9385
G1 X108.086 Y118.268 E9.6776
G1 X108.765 Y118.268 E9.6995
G1 X91.920 Y101.423 E10.4697
G1 X91.920 Y100.744 E10.4916
G1 X109.443 Y118.268 E11.2928
G1 X110.122 Y118.268 E11.3147
G1 X91.920 Y100.066 E12.1469
G1 X91.920 Y99.387 E12.1689
G1 X110.801 Y118.268 E13.0321
G1 X111.480 Y118.268 E13.0541
G1 X91.920 Y98.708 E13.9484
G1 X91.920 Y98.029 E13.9703
G1 X112.159 Y118.268 E14.8957
G1 X112.838 Y118.268 E14.9176
G1 X91.920 Y97.350 E15.8740
G1 X91.920 Y96.671 E15.8959
G1 X113.516 Y118.268 E16.8833
G1 X114.195 Y118.268 E16.9053
G1 X91.920 Y95.993 E17.9237
G1 X91.920 Y95.314 E17.9456
G1 X114.874 Y118.268 E18.9951
G1 X115.553 Y118.268 E19.0170
G1 X91.920 Y94.635 E20.0975
G1 X91.920 Y93.956 E20.1195
G1 X116.232 Y118.268 E21.2310
G1 X116.911 Y118.268 E21.2530
G1 X91.920 Y93.277 E22.3956
G1 X91.920 Y92.599 E22.4175
G1 X117.589 Y118.268 E23.5911
G1 X118.268 Y118.268 E23.6131
G1 X92.382 Y92.382 E24.7966
G1 X93.061 Y92.382 E24.8185
G1 X118.947 Y118.268 E26.0020
G1 X119.626 Y118.268 E26.0240
G1 X93.740 Y92.382 E27.2075
G1 X94.419 Y92.382 E27.2294
G1 X119.664 Y117.627 E28.3836
G1 X119.664 Y116.948 E28.4056
G1 X95.097 Y92.382 E29.5287
G1 X95.776 Y92.382 E29.5507
G1 X119.664 Y116.270 E30.6428
G1 X119.664 Y115.591 E30.6647
G1 X96.455 Y92.382 E31.7258
G1 X97.134 Y92.382 E31.7478
G1 X119.664 Y114.912 E32.7778
G1 X119.664 Y114.233 E32.7998
G1 X97.813 Y92.382 E33.7988
G1 X98.492 Y92.382 E33.8208
G1 X119.664 Y113.554 E34.7887
G1 X119.664 Y112.876 E34.8107
G1 X99.170 Y92.382 E35.7476
G1 X99.849 Y92.382 E35.7696
G1 X119.664 Y112.197 E36.6755
G1 X119.664 Y111.518 E36.6974
G1 X100.528 Y92.382 E37.5723
G1 X101.207 Y92.382 E37.5943
G1 X119.664 Y110.839 E38.4381
G1 X119.664 Y110.160 E38.4601
G1 X101.886 Y92.382 E39.2729
G1 X102.565 Y92.382 E39.2948
G1 X119.664 Y109.481 E40.0766
G1 X119.664 Y108.803 E40.0985
G1 X103.243 Y92.382 E40.8493
G1 X103.922 Y92.382 E40.8712
G1 X119.664 Y108.124 E41.5909
G1 X119.664 Y107.445 E41.6129
G1 X104.601 Y92.382 E42.3015
G1 X105.280 Y92.382 E42.3235
G1 X119.664 Y106.766 E42.9811
G1 X119.664 Y106.087 E43.0031
G1 X105.959 Y92.382 E43.6297
G1 X106.637 Y92.382 E43.6516
G1 X119.664 Y105.408 E44.2472
G1 X119.664 Y104.730 E44.2691
G1 X107.316 Y92.382 E44.8336
G1 X107.995 Y92.382 E44.8556
G1 X119.664 Y104.051 E45.3891
G1 X119.664 Y103.372 E45.4110
G1 X108.674 Y92.382 E45.9135
G1 X109.353 Y92.382 E45.9354
G1 X119.664 Y102.693 E46.4068
G1 X119.664 Y102.014 E46.4288
G1 X110.032 Y92.382 E46.8692
G1 X110.710 Y92.382 E46.8911
G1 X119.664 Y101.336 E47.3004
G1 X119.664 Y100.657 E47.3224
G1 X111.389 Y92.382 E47.7007
G1 X112.068 Y92.382 E47.7226
G1 X119.664 Y99.978 E48.0699
G1 X119.664 Y99.299 E48.0919
G1 X112.747 Y92.382 E48.4081
G1 X113.426 Y92.382 E48.4300
G1 X119.664 Y98.620 E48.7152
G1 X119.664 Y97.941 E48.7372
G1 X114.105 Y92.382 E48.9914
G1 X114.783 Y92.382 E49.0133
G1 X119.664 Y97.263 E49.2364
G1 X119.664 Y96.584 E49.2584
G1 X115.462 Y92.382 E49.4505
G1 X116.141 Y92.382 E49.4724
G1 X119.664 Y95.905 E49.6335
G1 X119.664 Y95.226 E49.6554
G1 X116.820 Y92.382 E49.7855
G1 X117.499 Y92.382 E49.8074
G1 X119.664 Y94.547 E49.9064
G1 X119.664 Y93.868 E49.9283
G1 X118.177 Y92.382 E49.9963
G1 X118.856 Y92.382 E50.0182
G1 X119.664 Y93.190 E50.0551
G1 X119.664 Y92.511 E50.0771
G1 X119.535 Y92.382 E50.0830
G92 E0.0000
G1 E-2.5000 F1800
; feature inner perimeter
G1 X124.182 Y91.974 F4800
G1 E-0.4000 F1800
G92 E0.0000
G1 X152.742 Y91.974 E0.9233 F1125
G1 X152.742 Y118.676 E1.7866
G1 X124.182 Y118.676 E2.7099
G1 X124.182 Y91.974 E3.5731
; feature outer perimeter
G1 X123.702 Y91.494 F4800
G92 E0.0000
G1 X153.222 Y91.495 E0.9544 F750
G1 X153.222 Y119.156 E1.8486
G1 X123.702 Y119.156 E2.8030
G1 X123.702 Y91.494 E3.6972
; feature solid layer
G1 X125.056 Y118.268 F4800
G92 E0.0000
G1 X124.590 Y117.801 E0.0213 F1200
G1 X124.590 Y117.123 E0.0433
G1 X125.735 Y118.268 E0.0957
G1 X126.414 Y118.268 E0.1176
G1 X124.590 Y116.444 E0.2010
G1 X124.590 Y115.765 E0.2230
G1 X127.093 Y118.268 E0.3374
G1 X127.772 Y118.268 E0.3594
G1 X124.590 Y115.086 E0.5048
G1 X124.590 Y114.407 E0.5268
G1 X128.450 Y118.268 E0.7033
G1 X129.129 Y118.268 E0.7252
G1 X124.590 Y113.728 E0.9328
G1 X124.590 Y113.050 E0.9547
G1 X129.808 Y118.268 E1.1933
