; G-Code generated by Simplify3D(R) Version 4.1.2
; May 17, 2020 at 1:45:19 PM
; Settings Summary
;   processName,Calibration Cube
;   applyToModels,Spriya_-_Anet_A8_Fan_Duct
;   profileName,Anet A8 - Test (modified)
;   profileVersion,2020-05-17 12:50:22
;   baseProfile,Anet A8
;   printMaterial,PETG
;   printQuality,Medium
;   printExtruders,
;   extruderName,Primary Extruder
;   extruderToolheadNumber,0
;   extruderDiameter,0.4
;   extruderAutoWidth,1
;   extruderWidth,0.48
;   extrusionMultiplier,0.9
;   extruderUseRetract,1
;   extruderRetractionDistance,2.5
;   extruderExtraRestartDistance,-0.5
;   extruderRetractionZLift,0
;   extruderRetractionSpeed,1800
;   extruderUseCoasting,0
;   extruderCoastingDistance,0.2
;   extruderUseWipe,0
;   extruderWipeDistance,5
;   primaryExtruder,0
;   layerHeight,0.2
;   topSolidLayers,3
;   bottomSolidLayers,5
;   perimeterOutlines,2
;   printPerimetersInsideOut,1
;   startPointOption,1
;   startPointOriginX,0
;   startPointOriginY,0
;   sequentialIslands,0
;   spiralVaseMode,0
;   firstLayerHeightPercentage,90
;   firstLayerWidthPercentage,100
;   firstLayerUnderspeed,0.5
;   useRaft,0
;   raftExtruder,0
;   raftTopLayers,3
;   raftBaseLayers,2
;   raftOffset,3
;   raftSeparationDistance,0.14
;   raftTopInfill,100
;   aboveRaftSpeedMultiplier,0.3
;   useSkirt,1
;   skirtExtruder,0
;   skirtLayers,1
;   skirtOutlines,5
;   skirtOffset,4
;   usePrimePillar,0
;   primePillarExtruder,999
;   primePillarWidth,12
;   primePillarLocation,7
;   primePillarSpeedMultiplier,1
;   useOozeShield,0
;   oozeShieldExtruder,999
;   oozeShieldOffset,2
;   oozeShieldOutlines,1
;   oozeShieldSidewallShape,1
;   oozeShieldSidewallAngle,30
;   oozeShieldSpeedMultiplier,1
;   infillExtruder,0
;   internalInfillPattern,Rectilinear
;   externalInfillPattern,Rectilinear
;   infillPercentage,0
;   outlineOverlapPercentage,15
;   infillExtrusionWidthPercentage,100
;   minInfillLength,5
;   infillLayerInterval,1
;   internalInfillAngles,45,-45
;   overlapInternalInfillAngles,0
;   externalInfillAngles,45,-45
;   generateSupport,1
;   supportExtruder,0
;   supportInfillPercentage,30
;   supportExtraInflation,0
;   supportBaseLayers,0
;   denseSupportExtruder,0
;   denseSupportLayers,0
;   denseSupportInfillPercentage,70
;   supportLayerInterval,1
;   supportHorizontalPartOffset,0.3
;   supportUpperSeparationLayers,1
;   supportLowerSeparationLayers,1
;   supportType,0
;   supportGridSpacing,4
;   maxOverhangAngle,45
;   supportAngles,0
;   temperatureName,Primary Extruder,Heated Bed
;   temperatureNumber,0,0
;   temperatureSetpointCount,1,1
;   temperatureSetpointLayers,1,1
;   temperatureSetpointTemperatures,230,70
;   temperatureStabilizeAtStartup,1,1
;   temperatureHeatedBed,0,1
;   fanLayers,1,2,4
;   fanSpeeds,0,50,100
;   blipFanToFullPower,0
;   adjustSpeedForCooling,1
;   minSpeedLayerTime,15
;   minCoolingSpeedSlowdown,20
;   increaseFanForCooling,0
;   minFanLayerTime,45
;   maxCoolingFanSpeed,100
;   increaseFanForBridging,0
;   bridgingFanSpeed,100
;   use5D,1
;   relativeEdistances,0
;   allowEaxisZeroing,1
;   independentExtruderAxes,0
;   includeM10123,0
;   stickySupport,1
;   applyToolheadOffsets,0
;   gcodeXoffset,0
;   gcodeYoffset,0
;   gcodeZoffset,0
;   overrideMachineDefinition,1
;   machineTypeOverride,0
;   strokeXoverride,220
;   strokeYoverride,220
;   strokeZoverride,240
;   originOffsetXoverride,0
;   originOffsetYoverride,0
;   originOffsetZoverride,0
;   homeXdirOverride,-1
;   homeYdirOverride,-1
;   homeZdirOverride,-1
;   flipXoverride,1
;   flipYoverride,-1
;   flipZoverride,1
;   toolheadOffsets,0,0|0,0|0,0|0,0|0,0|0,0
;   overrideFirmwareConfiguration,1
;   firmwareTypeOverride,RepRap (Marlin/Repetier/Sprinter)
;   GPXconfigOverride,r2
;   baudRateOverride,115200
;   overridePrinterModels,1
;   printerModelsOverride
;   startingGcode,M107 ; fan off,G28 ; home all axes,G29 ; run auto bed leveling,M500 ; store level values in EEPROM,G1 X0 Y20 Z0.2 F3000 ; get ready to prime,G92 E0 ; reset extrusion distance,G1 X200 E10 F600 ; prime nozzle
;   layerChangeGcode,
;   retractionGcode,
;   toolChangeGcode,
;   endingGcode,M104 S0 ; turn off extruder,M140 S0 ; turn off bed,G91 ; use relative coordinates for jogging,G1 Z20 F1000 ; raise Z by 20mm at 1000 mm/min,G90 ; switch back to absolute coordinates,G1 X0 Y200 F1000 ; prepare for part removal,M84 ; disable motors,M107 ; turn off fan
;   exportFileFormat,gcode
;   celebration,0
;   celebrationSong,Random Song
;   postProcessing,
;   defaultSpeed,3000
;   outlineUnderspeed,0.5
;   solidInfillUnderspeed,0.8
;   supportUnderspeed,0.8
;   rapidXYspeed,4800
;   rapidZspeed,1000
;   minBridgingArea,50
;   bridgingExtraInflation,0
;   bridgingExtrusionMultiplier,1
;   bridgingSpeedMultiplier,1
;   useFixedBridgingAngle,0
;   fixedBridgingAngle,0
;   applyBridgingToPerimeters,0
;   filamentDiameters,1.75|1.75|1.75|1.75|1.75|1.75
;   filamentPricesPerKg,46|46|46|46|46|46
;   filamentDensities,1.25|1.25|1.25|1.25|1.25|1.25
;   useMinPrintHeight,0
;   minPrintHeight,0
;   useMaxPrintHeight,0
;   maxPrintHeight,0
;   useDiaphragm,0
;   diaphragmLayerInterval,20
;   robustSlicing,1
;   mergeAllIntoSolid,0
;   onlyRetractWhenCrossingOutline,1
;   retractBetweenLayers,1
;   useRetractionMinTravel,0
;   retractionMinTravel,3
;   retractWhileWiping,0
;   onlyWipeOutlines,1
;   avoidCrossingOutline,0
;   maxMovementDetourFactor,3
;   toolChangeRetractionDistance,12
;   toolChangeExtraRestartDistance,-0.5
;   toolChangeRetractionSpeed,600
;   externalThinWallType,0
;   internalThinWallType,2
;   thinWallAllowedOverlapPercentage,10
;   singleExtrusionMinLength,1
;   singleExtrusionMinPrintingWidthPercentage,50
;   singleExtrusionMaxPrintingWidthPercentage,200
;   singleExtrusionEndpointExtension,0.2
;   horizontalSizeCompensation,0
G90
M82
M106 S0
M140 S70
M190 S70
M104 S230 T0
M109 S230 T0
M107 ; fan off
G28 ; home all axes
G29 ; run auto bed leveling
M500 ; store level values in EEPROM
G1 X0 Y20 Z0.2 F3000 ; get ready to prime
G92 E0 ; reset extrusion distance
G1 X200 E10 F600 ; prime nozzle
; process Calibration Cube
; layer 1, Z = 0.180
T0
G92 E0.0000
G1 E-2.5000 F1800
; feature skirt
; tool H0.180 W0.480
G1 Z0.180 F1000
G1 X30.270 Y33.863 F4800
G1 E-0.5000 F1800
G92 E0.0000
G1 X30.270 Y24.717 E0.2957 F1500
G1 X33.598 Y21.390 E0.4478
G1 X42.743 Y21.390 E0.7434
G1 X46.070 Y24.717 E0.8956
G1 X46.070 Y33.863 E1.1912
G1 X42.743 Y37.190 E1.3434
G1 X33.598 Y37.190 E1.6390
G1 X30.270 Y33.863 E1.7911
G92 E0.0000
G1 E-2.5000 F1800
G1 X30.750 Y33.664 F4800
G1 E-0.5000 F1800
G92 E0.0000
G1 X30.750 Y24.916 E0.2828 F1500
G1 X33.797 Y21.870 E0.4221
G1 X42.544 Y21.870 E0.7049
G1 X45.590 Y24.916 E0.8441
G1 X45.590 Y33.664 E1.1270
G1 X42.544 Y36.710 E1.2662
G1 X33.797 Y36.710 E1.5490
G1 X30.750 Y33.664 E1.6883
G92 E0.0000
G1 E-2.5000 F1800
G1 X33.995 Y22.350 F4800
G1 E-0.5000 F1800
G92 E0.0000
G1 X42.346 Y22.350 E0.2700 F1500
G1 X45.110 Y25.115 E0.3964
G1 X45.110 Y33.465 E0.6663
G1 X42.346 Y36.230 E0.7927
G1 X33.995 Y36.230 E1.0627
G1 X31.230 Y33.465 E1.1891
G1 X31.230 Y25.115 E1.4590
G1 X33.995 Y22.350 E1.5855
G92 E0.0000
G1 E-2.5000 F1800
G1 X42.147 Y22.830 F4800
G1 E-0.5000 F1800
G92 E0.0000
G1 X44.630 Y25.314 E0.1136 F1500
G1 X44.630 Y33.266 E0.3707
G1 X42.147 Y35.750 E0.4842
G1 X34.194 Y35.750 E0.7413
G1 X31.710 Y33.266 E0.8549
G1 X31.710 Y25.314 E1.1120
G1 X34.194 Y22.830 E1.2255
G1 X42.147 Y22.830 E1.4826
G92 E0.0000
G1 E-2.5000 F1800
G1 X62.942 Y20.910 F4800
G1 E-0.5000 F1800
G92 E0.0000
G1 X66.550 Y24.518 E0.1650 F1500
G1 X66.550 Y34.061 E0.4735
G1 X62.942 Y37.670 E0.6385
G1 X49.399 Y37.670 E1.0763
G1 X46.170 Y34.441 E1.2239
G1 X42.942 Y37.670 E1.3715
G1 X33.399 Y37.670 E1.6800
G1 X29.790 Y34.061 E1.8450
G1 X29.790 Y24.518 E2.1535
G1 X33.399 Y20.910 E2.3185
G1 X42.942 Y20.910 E2.6270
G1 X46.170 Y24.138 E2.7746
G1 X49.399 Y20.910 E2.9222
G1 X62.942 Y20.910 E3.3601
G92 E0.0000
G1 E-2.5000 F1800
G1 X49.598 Y37.190 F4800
G1 E-0.5000 F1800
G92 E0.0000
G1 X46.270 Y33.863 E0.1521 F1500
G1 X46.270 Y24.717 E0.4478
G1 X49.598 Y21.390 E0.5999
G1 X62.743 Y21.390 E1.0249
G1 X66.070 Y24.717 E1.1770
G1 X66.070 Y33.863 E1.4727
G1 X62.743 Y37.190 E1.6248
G1 X49.598 Y37.190 E2.0498
G92 E0.0000
G1 E-2.5000 F1800
G1 X65.590 Y24.916 F4800
G1 E-0.5000 F1800
G92 E0.0000
G1 X65.590 Y33.664 E0.2828 F1500
G1 X62.544 Y36.710 E0.4221
G1 X49.797 Y36.710 E0.8342
G1 X46.750 Y33.664 E0.9735
G1 X46.750 Y24.916 E1.2563
G1 X49.797 Y21.870 E1.3955
G1 X62.544 Y21.870 E1.8077
G1 X65.590 Y24.916 E1.9469
G92 E0.0000
G1 E-2.5000 F1800
G1 X47.230 Y33.465 F4800
G1 E-0.5000 F1800
G92 E0.0000
G1 X47.230 Y25.115 E0.2700 F1500
G1 X49.995 Y22.350 E0.3964
G1 X62.346 Y22.350 E0.7956
G1 X65.110 Y25.115 E0.9220
G1 X65.110 Y33.465 E1.1920
G1 X62.346 Y36.230 E1.3184
G1 X49.995 Y36.230 E1.7177
G1 X47.230 Y33.465 E1.8441
G92 E0.0000
G1 E-2.5000 F1800
G1 X47.710 Y33.266 F4800
G1 E-0.5000 F1800
G92 E0.0000
G1 X47.710 Y25.314 E0.2571 F1500
G1 X50.194 Y22.830 E0.3707
G1 X62.147 Y22.830 E0.7571
G1 X64.630 Y25.314 E0.8706
G1 X64.630 Y33.266 E1.1277
G1 X62.147 Y35.750 E1.2413
G1 X50.194 Y35.750 E1.6277
G1 X47.710 Y33.266 E1.7412
G92 E0.0000
G1 E-2.5000 F1800
G1 X61.161 Y65.948 F4800
G1 E-0.5000 F1800
G92 E0.0000
G1 X57.551 Y69.563 E0.1651 F1500
G1 X54.044 Y69.563 E0.2785
G1 X52.317 Y69.046 E0.3368
G1 X50.348 Y67.753 E0.4129
G1 X31.640 Y56.375 E1.1208
G1 X30.747 Y56.375 E1.1497
G1 X27.132 Y52.723 E1.3159
G1 X27.233 Y42.708 E1.6396
G1 X30.792 Y39.150 E1.8023
G1 X39.483 Y39.067 E2.0833
G1 X39.498 Y39.067 E2.0838
G1 X57.500 Y38.981 E2.6658
G1 X61.128 Y42.587 E2.8312
G1 X61.161 Y65.948 E3.5864
G92 E0.0000
G1 E-2.5000 F1800
G1 X57.303 Y39.462 F4800
G1 E-0.5000 F1800
G92 E0.0000
G1 X60.649 Y42.787 E0.1525 F1500
G1 X60.681 Y65.750 E0.8948
G1 X57.352 Y69.083 E1.0471
G1 X54.114 Y69.083 E1.1518
G1 X52.522 Y68.607 E1.2055
G1 X50.605 Y67.348 E1.2797
G1 X31.775 Y55.895 E1.9922
G1 X30.948 Y55.895 E2.0189
G1 X27.614 Y52.527 E2.1721
G1 X27.711 Y42.908 E2.4831
G1 X30.992 Y39.628 E2.6331
G1 X39.487 Y39.547 E2.9077
G1 X39.500 Y39.547 E2.9082
G1 X57.303 Y39.462 E3.4837
G92 E0.0000
G1 E-2.5000 F1800
G1 X60.169 Y42.987 F4800
G1 E-0.5000 F1800
G92 E0.0000
G1 X60.200 Y65.551 E0.7295 F1500
G1 X57.153 Y68.603 E0.8689
G1 X54.185 Y68.603 E0.9649
G1 X52.727 Y68.167 E1.0140
G1 X50.862 Y66.942 E1.0862
G1 X31.909 Y55.415 E1.8033
G1 X31.148 Y55.415 E1.8279
G1 X28.096 Y52.332 E1.9682
G1 X28.189 Y43.109 E2.2664
G1 X31.193 Y40.106 E2.4037
G1 X39.491 Y40.027 E2.6720
G1 X39.503 Y40.027 E2.6724
G1 X57.106 Y39.943 E3.2415
G1 X60.169 Y42.987 E3.3811
G92 E0.0000
G1 E-2.5000 F1800
G1 X39.495 Y40.507 F4800
G1 E-0.5000 F1800
G92 E0.0000
G1 X39.506 Y40.507 E0.0004 F1500
G1 X56.909 Y40.424 E0.5630
G1 X59.689 Y43.187 E0.6897
G1 X59.720 Y65.353 E1.4063
G1 X56.954 Y68.123 E1.5328
G1 X54.255 Y68.123 E1.6201
G1 X52.932 Y67.727 E1.6648
G1 X51.118 Y66.536 E1.7349
G1 X32.044 Y54.935 E2.4566
G1 X31.348 Y54.935 E2.4791
G1 X28.578 Y52.137 E2.6064
G1 X28.667 Y43.310 E2.8918
G1 X31.394 Y40.584 E3.0165
G1 X39.495 Y40.507 E3.2784
G92 E0.0000
G1 E-2.5000 F1800
G1 X31.594 Y41.062 F4800
G1 E-0.5000 F1800
G92 E0.0000
G1 X39.499 Y40.987 E0.2556 F1500
G1 X39.509 Y40.987 E0.2559
G1 X56.712 Y40.905 E0.8121
G1 X59.210 Y43.387 E0.9259
G1 X59.240 Y65.155 E1.6296
G1 X56.755 Y67.643 E1.7433
G1 X54.325 Y67.643 E1.8218
G1 X53.137 Y67.287 E1.8619
G1 X51.374 Y66.130 E1.9301
G1 X32.178 Y54.455 E2.6564
G1 X31.548 Y54.455 E2.6768
G1 X29.060 Y51.941 E2.7912
G1 X29.145 Y43.511 E3.0637
G1 X31.594 Y41.062 E3.1757
G92 E0.0000
G1 E-2.5000 F1800
; feature inner perimeter
G1 X34.066 Y45.999 F4800
G1 E-0.5000 F1800
G92 E0.0000
G1 X39.542 Y45.946 E0.1771 F1125
G1 X54.253 Y45.877 E0.6526
G1 X54.276 Y62.089 E1.1768
G1 X34.040 Y49.782 E1.9425
G1 X34.066 Y45.999 E2.0648
; feature outer perimeter
G1 X33.588 Y45.615 F4800
G92 E0.0000
G1 X33.594 Y45.523 E0.0030 F750
G1 X39.536 Y45.467 E0.1951
G1 X54.732 Y45.395 E0.6864
G1 X54.757 Y62.992 E1.2553
G1 X53.769 Y62.343 E1.2935
G1 X33.558 Y50.051 E2.0582
G1 X33.588 Y45.615 E2.2016
; feature solid layer
G1 X35.306 Y50.074 F4800
G92 E0.0000
G1 X34.452 Y49.221 E0.0390 F1200
G1 X34.456 Y48.546 E0.0608
G1 X37.038 Y51.128 E0.1789
G1 X38.771 Y52.182 E0.2444
G1 X34.461 Y47.872 E0.4415
G1 X34.466 Y47.198 E0.4633
G1 X40.503 Y53.236 E0.7393
G1 X42.236 Y54.289 E0.8049
G1 X34.470 Y46.524 E1.1599
G1 X34.471 Y46.403 E1.1638
G1 X35.023 Y46.398 E1.1817
G1 X43.968 Y55.343 E1.5907
G1 X45.701 Y56.397 E1.6562
G1 X35.696 Y46.391 E2.1137
G1 X36.368 Y46.385 E2.1354
G1 X47.434 Y57.451 E2.6413
G1 X49.166 Y58.504 E2.7069
G1 X37.040 Y46.378 E3.2613
G1 X37.713 Y46.372 E3.2830
G1 X50.899 Y59.558 E3.8859
G1 X52.631 Y60.612 E3.9514
G1 X38.385 Y46.366 E4.6028
G1 X39.057 Y46.359 E4.6245
G1 X53.866 Y61.168 E5.3015
G1 X53.865 Y60.488 E5.3235
G1 X39.731 Y46.354 E5.9698
G1 X40.406 Y46.350 E5.9916
G1 X53.864 Y59.808 E6.6069
G1 X53.863 Y59.129 E6.6289
G1 X41.082 Y46.347 E7.2132
G1 X41.758 Y46.344 E7.2351
G1 X53.862 Y58.449 E7.7885
G1 X53.862 Y57.769 E7.8105
G1 X42.433 Y46.341 E8.3330
G1 X43.109 Y46.338 E8.3548
G1 X53.861 Y57.089 E8.8464
G1 X53.860 Y56.410 E8.8684
G1 X43.785 Y46.334 E9.3290
G1 X44.460 Y46.331 E9.3508
G1 X53.859 Y55.730 E9.7805
G1 X53.858 Y55.050 E9.8025
G1 X45.136 Y46.328 E10.2013
G1 X45.811 Y46.325 E10.2231
G1 X53.857 Y54.370 E10.5910
G1 X53.856 Y53.690 E10.6129
G1 X46.487 Y46.322 E10.9498
G1 X47.163 Y46.318 E10.9717
G1 X53.855 Y53.011 E11.2776
G1 X53.854 Y52.331 E11.2996
G1 X47.838 Y46.315 E11.5747
G1 X48.514 Y46.312 E11.5965
G1 X53.853 Y51.651 E11.8406
G1 X53.852 Y50.971 E11.8626
G1 X49.190 Y46.309 E12.0757
G1 X49.865 Y46.306 E12.0976
G1 X53.851 Y50.292 E12.2798
G1 X53.850 Y49.612 E12.3018
G1 X50.541 Y46.303 E12.4531
G1 X51.216 Y46.299 E12.4749
G1 X53.849 Y48.932 E12.5953
G1 X53.848 Y48.252 E12.6173
G1 X51.892 Y46.296 E12.7067
G1 X52.568 Y46.293 E12.7286
G1 X53.847 Y47.573 E12.7871
G1 X53.846 Y46.893 E12.8091
G1 X53.243 Y46.290 E12.8366
G92 E0.0000
G1 E-2.5000 F1800
; feature support
G1 X52.200 Y27.690 F4800
G1 E-0.5000 F1800
G92 E0.0000
G1 X60.140 Y27.690 E0.2567 F1200
G1 X60.140 Y29.290 E0.3084
G1 X52.200 Y29.290 E0.5651
G1 X52.200 Y30.890 E0.6168
G1 X60.140 Y30.890 E0.8735
G92 E0.0000
G1 E-2.5000 F1800
G1 X36.200 Y27.690 F4800
G1 E-0.5000 F1800
G92 E0.0000
G1 X40.140 Y27.690 E0.1274 F1200
G1 X40.140 Y29.290 E0.1791
G1 X36.200 Y29.290 E0.3065
G1 X36.200 Y30.890 E0.3582
G1 X40.140 Y30.890 E0.4856
G92 E0.0000
G1 E-2.5000 F1800
; layer 2, Z = 0.380
M106 S128
; feature inner perimeter
; tool H0.200 W0.480
G1 Z0.380 F1000
G1 X49.239 Y44.803 F4800
G1 E-0.5000 F1800
G92 E0.0000
G1 X54.249 Y44.789 E0.1800 F2250
G1 X54.260 Y45.389 E0.2015
G1 X54.276 Y62.227 E0.8064
G1 X49.066 Y58.806 E1.0302
G1 X34.039 Y49.666 E1.6620
G1 X34.071 Y45.427 E1.8143
G1 X34.099 Y44.948 E1.8315
G1 X49.239 Y44.803 E2.3754
; feature outer perimeter
G1 X49.236 Y44.323 F4800
G92 E0.0000
G1 X54.720 Y44.308 E0.1970 F1500
G1 X54.740 Y45.384 E0.2357
G1 X54.757 Y63.117 E0.8727
G1 X48.810 Y59.211 E1.1282
G1 X33.624 Y49.975 E1.7667
G1 X33.557 Y49.975 E1.7691
G1 X33.591 Y45.411 E1.9331
G1 X33.645 Y44.472 E1.9668
G1 X49.236 Y44.323 E2.5269
; feature solid layer
G1 X34.478 Y45.478 F4800
G92 E0.0000
G1 X34.605 Y45.351 E0.0065 F2400
G1 X35.291 Y45.345 E0.0311
G1 X34.473 Y46.162 E0.0726
G1 X34.468 Y46.846 E0.0972
G1 X35.976 Y45.338 E0.1738
G1 X36.662 Y45.332 E0.1984
G1 X34.463 Y47.530 E0.3101
G1 X34.458 Y48.214 E0.3347
G1 X37.347 Y45.325 E0.4814
G1 X38.032 Y45.318 E0.5061
G1 X34.453 Y48.898 E0.6879
G1 X34.449 Y49.438 E0.7073
G1 X34.538 Y49.492 E0.7111
G1 X38.718 Y45.312 E0.9234
G1 X39.403 Y45.305 E0.9480
G1 X34.960 Y49.749 E1.1737
G1 X35.382 Y50.005 E1.1915
G1 X40.089 Y45.299 E1.4306
G1 X40.774 Y45.292 E1.4552
G1 X35.804 Y50.262 E1.7077
G1 X36.226 Y50.519 E1.7254
G1 X41.459 Y45.286 E1.9913
G1 X42.145 Y45.279 E2.0159
G1 X36.648 Y50.775 E2.2951
G1 X37.070 Y51.032 E2.3128
G1 X42.830 Y45.272 E2.6054
G1 X43.516 Y45.266 E2.6301
G1 X37.493 Y51.289 E2.9360
G1 X37.915 Y51.546 E2.9538
G1 X44.201 Y45.259 E3.2731
G1 X44.886 Y45.253 E3.2977
G1 X38.337 Y51.802 E3.6305
G1 X38.759 Y52.059 E3.6482
