; G-Code generated by Simplify3D(R) Version 4.1.2
; May 17, 2020 at 1:29:24 PM
; Settings Summary
;   processName,Calibration Cube
;   applyToModels,Spriya_-_Anet_A8_Fan_Duct
;   profileName,Anet A8 - Test (modified)
;   profileVersion,2020-05-17 12:50:22
;   baseProfile,Anet A8
;   printMaterial,PETG
;   printQuality,Medium
;   printExtruders,
;   extruderName,Primary Extruder
;   extruderToolheadNumber,0
;   extruderDiameter,0.4
;   extruderAutoWidth,1
;   extruderWidth,0.48
;   extrusionMultiplier,0.9
;   extruderUseRetract,1
;   extruderRetractionDistance,2.5
;   extruderExtraRestartDistance,-0.5
;   extruderRetractionZLift,0
;   extruderRetractionSpeed,1800
;   extruderUseCoasting,0
;   extruderCoastingDistance,0.2
;   extruderUseWipe,0
;   extruderWipeDistance,5
;   primaryExtruder,0
;   layerHeight,0.2
;   topSolidLayers,3
;   bottomSolidLayers,5
;   perimeterOutlines,2
;   printPerimetersInsideOut,1
;   startPointOption,1
;   startPointOriginX,0
;   startPointOriginY,0
;   sequentialIslands,0
;   spiralVaseMode,0
;   firstLayerHeightPercentage,90
;   firstLayerWidthPercentage,100
;   firstLayerUnderspeed,0.5
;   useRaft,0
;   raftExtruder,0
;   raftTopLayers,3
;   raftBaseLayers,2
;   raftOffset,3
;   raftSeparationDistance,0.14
;   raftTopInfill,100
;   aboveRaftSpeedMultiplier,0.3
;   useSkirt,1
;   skirtExtruder,0
;   skirtLayers,1
;   skirtOutlines,5
;   skirtOffset,4
;   usePrimePillar,0
;   primePillarExtruder,999
;   primePillarWidth,12
;   primePillarLocation,7
;   primePillarSpeedMultiplier,1
;   useOozeShield,0
;   oozeShieldExtruder,999
;   oozeShieldOffset,2
;   oozeShieldOutlines,1
;   oozeShieldSidewallShape,1
;   oozeShieldSidewallAngle,30
;   oozeShieldSpeedMultiplier,1
;   infillExtruder,0
;   internalInfillPattern,Rectilinear
;   externalInfillPattern,Rectilinear
;   infillPercentage,0
;   outlineOverlapPercentage,15
;   infillExtrusionWidthPercentage,100
;   minInfillLength,5
;   infillLayerInterval,1
;   internalInfillAngles,45,-45
;   overlapInternalInfillAngles,0
;   externalInfillAngles,45,-45
;   generateSupport,1
;   supportExtruder,0
;   supportInfillPercentage,15
;   supportExtraInflation,0
;   supportBaseLayers,0
;   denseSupportExtruder,0
;   denseSupportLayers,0
;   denseSupportInfillPercentage,70
;   supportLayerInterval,1
;   supportHorizontalPartOffset,0.3
;   supportUpperSeparationLayers,1
;   supportLowerSeparationLayers,1
;   supportType,0
;   supportGridSpacing,4
;   maxOverhangAngle,45
;   supportAngles,0
;   temperatureName,Primary Extruder,Heated Bed
;   temperatureNumber,0,0
;   temperatureSetpointCount,1,1
;   temperatureSetpointLayers,1,1
;   temperatureSetpointTemperatures,230,70
;   temperatureStabilizeAtStartup,1,1
;   temperatureHeatedBed,0,1
;   fanLayers,1,2,4
;   fanSpeeds,0,50,100
;   blipFanToFullPower,0
;   adjustSpeedForCooling,1
;   minSpeedLayerTime,15
;   minCoolingSpeedSlowdown,20
;   increaseFanForCooling,0
;   minFanLayerTime,45
;   maxCoolingFanSpeed,100
;   increaseFanForBridging,0
;   bridgingFanSpeed,100
;   use5D,1
;   relativeEdistances,0
;   allowEaxisZeroing,1
;   independentExtruderAxes,0
;   includeM10123,0
;   stickySupport,1
;   applyToolheadOffsets,0
;   gcodeXoffset,0
;   gcodeYoffset,0
;   gcodeZoffset,0
;   overrideMachineDefinition,1
;   machineTypeOverride,0
;   strokeXoverride,220
;   strokeYoverride,220
;   strokeZoverride,240
;   originOffsetXoverride,0
;   originOffsetYoverride,0
;   originOffsetZoverride,0
;   homeXdirOverride,-1
;   homeYdirOverride,-1
;   homeZdirOverride,-1
;   flipXoverride,1
;   flipYoverride,-1
;   flipZoverride,1
;   toolheadOffsets,0,0|0,0|0,0|0,0|0,0|0,0
;   overrideFirmwareConfiguration,1
;   firmwareTypeOverride,RepRap (Marlin/Repetier/Sprinter)
;   GPXconfigOverride,r2
;   baudRateOverride,115200
;   overridePrinterModels,1
;   printerModelsOverride
;   startingGcode,M107 ; fan off,G28 ; home all axes,G29 ; run auto bed leveling,M500 ; store level values in EEPROM,G1 X0 Y20 Z0.2 F3000 ; get ready to prime,G92 E0 ; reset extrusion distance,G1 X200 E10 F600 ; prime nozzle
;   layerChangeGcode,
;   retractionGcode,
;   toolChangeGcode,
;   endingGcode,M104 S0 ; turn off extruder,M140 S0 ; turn off bed,G91 ; use relative coordinates for jogging,G1 Z20 F1000 ; raise Z by 20mm at 1000 mm/min,G90 ; switch back to absolute coordinates,G1 X0 Y200 F1000 ; prepare for part removal,M84 ; disable motors,M107 ; turn off fan
;   exportFileFormat,gcode
;   celebration,0
;   celebrationSong,Random Song
;   postProcessing,
;   defaultSpeed,3000
;   outlineUnderspeed,0.5
;   solidInfillUnderspeed,0.8
;   supportUnderspeed,0.8
;   rapidXYspeed,4800
;   rapidZspeed,1000
;   minBridgingArea,50
;   bridgingExtraInflation,0
;   bridgingExtrusionMultiplier,1
;   bridgingSpeedMultiplier,1
;   useFixedBridgingAngle,0
;   fixedBridgingAngle,0
;   applyBridgingToPerimeters,0
;   filamentDiameters,1.75|1.75|1.75|1.75|1.75|1.75
;   filamentPricesPerKg,46|46|46|46|46|46
;   filamentDensities,1.25|1.25|1.25|1.25|1.25|1.25
;   useMinPrintHeight,0
;   minPrintHeight,0
;   useMaxPrintHeight,0
;   maxPrintHeight,0
;   useDiaphragm,0
;   diaphragmLayerInterval,20
;   robustSlicing,1
;   mergeAllIntoSolid,0
;   onlyRetractWhenCrossingOutline,1
;   retractBetweenLayers,1
;   useRetractionMinTravel,0
;   retractionMinTravel,3
;   retractWhileWiping,0
;   onlyWipeOutlines,1
;   avoidCrossingOutline,0
;   maxMovementDetourFactor,3
;   toolChangeRetractionDistance,12
;   toolChangeExtraRestartDistance,-0.5
;   toolChangeRetractionSpeed,600
;   externalThinWallType,0
;   internalThinWallType,2
;   thinWallAllowedOverlapPercentage,10
;   singleExtrusionMinLength,1
;   singleExtrusionMinPrintingWidthPercentage,50
;   singleExtrusionMaxPrintingWidthPercentage,200
;   singleExtrusionEndpointExtension,0.2
;   horizontalSizeCompensation,0
G90
M82
M106 S0
M140 S70
M190 S70
M104 S230 T0
M109 S230 T0
M107 ; fan off
G28 ; home all axes
G29 ; run auto bed leveling
M500 ; store level values in EEPROM
G1 X0 Y20 Z0.2 F3000 ; get ready to prime
G92 E0 ; reset extrusion distance
G1 X200 E10 F600 ; prime nozzle
; process Calibration Cube
; layer 1, Z = 0.180
T0
G92 E0.0000
G1 E-2.5000 F1800
; feature skirt
; tool H0.180 W0.480
G1 Z0.180 F1000
G1 X54.978 Y158.335 F4800
G1 E-0.5000 F1800
G92 E0.0000
G1 X45.832 Y158.335 E0.2957 F1500
G1 X42.505 Y155.008 E0.4478
G1 X42.505 Y145.863 E0.7434
G1 X45.832 Y142.535 E0.8956
G1 X54.978 Y142.535 E1.1912
G1 X58.305 Y145.863 E1.3434
G1 X58.305 Y155.008 E1.6390
G1 X54.978 Y158.335 E1.7911
G92 E0.0000
G1 E-2.5000 F1800
G1 X46.031 Y143.015 F4800
G1 E-0.5000 F1800
G92 E0.0000
G1 X54.779 Y143.015 E0.2828 F1500
G1 X57.825 Y146.062 E0.4221
G1 X57.825 Y154.809 E0.7049
G1 X54.779 Y157.855 E0.8441
G1 X46.031 Y157.855 E1.1270
G1 X42.985 Y154.809 E1.2662
G1 X42.985 Y146.062 E1.5490
G1 X46.031 Y143.015 E1.6883
G92 E0.0000
G1 E-2.5000 F1800
G1 X57.345 Y146.260 F4800
G1 E-0.5000 F1800
G92 E0.0000
G1 X57.345 Y154.611 E0.2700 F1500
G1 X54.580 Y157.375 E0.3964
G1 X46.230 Y157.375 E0.6663
G1 X43.465 Y154.611 E0.7927
G1 X43.465 Y146.260 E1.0627
G1 X46.230 Y143.495 E1.1891
G1 X54.580 Y143.495 E1.4590
G1 X57.345 Y146.260 E1.5855
G92 E0.0000
G1 E-2.5000 F1800
G1 X43.945 Y146.459 F4800
G1 E-0.5000 F1800
G92 E0.0000
G1 X46.429 Y143.975 E0.1136 F1500
G1 X54.381 Y143.975 E0.3707
G1 X56.865 Y146.459 E0.4842
G1 X56.865 Y154.412 E0.7413
G1 X54.381 Y156.895 E0.8549
G1 X46.429 Y156.895 E1.1120
G1 X43.945 Y154.412 E1.2255
G1 X43.945 Y146.459 E1.4826
G92 E0.0000
G1 E-2.5000 F1800
G1 X42.982 Y177.521 F4800
G1 E-0.5000 F1800
G92 E0.0000
G1 X39.366 Y173.868 E0.1662 F1500
G1 X39.467 Y163.853 E0.4900
G1 X43.026 Y160.296 E0.6526
G1 X51.718 Y160.212 E0.9336
G1 X51.733 Y160.212 E0.9341
G1 X69.735 Y160.127 E1.5161
G1 X73.363 Y163.733 E1.6815
G1 X73.395 Y187.094 E2.4367
G1 X69.786 Y190.708 E2.6019
G1 X66.279 Y190.708 E2.7152
G1 X64.552 Y190.192 E2.7735
G1 X62.583 Y188.899 E2.8496
G1 X43.875 Y177.521 E3.5575
G1 X42.982 Y177.521 E3.5864
G92 E0.0000
G1 E-2.5000 F1800
G1 X51.735 Y160.692 F4800
G1 E-0.5000 F1800
G92 E0.0000
G1 X69.538 Y160.608 E0.5755 F1500
G1 X72.883 Y163.933 E0.7280
G1 X72.915 Y186.895 E1.4704
G1 X69.587 Y190.228 E1.6226
G1 X66.349 Y190.228 E1.7273
G1 X64.757 Y189.752 E1.7810
G1 X62.840 Y188.493 E1.8552
G1 X44.009 Y177.041 E2.5677
G1 X43.182 Y177.041 E2.5944
G1 X39.848 Y173.673 E2.7477
G1 X39.945 Y164.054 E3.0586
G1 X43.227 Y160.774 E3.2087
G1 X51.722 Y160.692 E3.4833
G1 X51.735 Y160.692 E3.4837
G92 E0.0000
G1 E-2.5000 F1800
G1 X64.961 Y189.312 F4800
G1 E-0.5000 F1800
G92 E0.0000
G1 X63.096 Y188.088 E0.0721 F1500
G1 X44.144 Y176.561 E0.7893
G1 X43.382 Y176.561 E0.8139
G1 X40.330 Y173.478 E0.9541
G1 X40.423 Y164.255 E1.2523
G1 X43.428 Y161.252 E1.3897
G1 X51.726 Y161.172 E1.6579
G1 X51.738 Y161.172 E1.6583
G1 X69.341 Y161.089 E2.2274
G1 X72.403 Y164.133 E2.3670
G1 X72.435 Y186.697 E3.0965
G1 X69.388 Y189.748 E3.2359
G1 X66.419 Y189.748 E3.3319
G1 X64.961 Y189.312 E3.3811
G92 E0.0000
G1 E-2.5000 F1800
G1 X71.924 Y164.333 F4800
G1 E-0.5000 F1800
G92 E0.0000
G1 X71.955 Y186.499 E0.7166 F1500
G1 X69.189 Y189.268 E0.8431
G1 X66.489 Y189.268 E0.9304
G1 X65.166 Y188.873 E0.9750
G1 X63.352 Y187.682 E1.0452
G1 X44.278 Y176.081 E1.7669
G1 X43.583 Y176.081 E1.7894
G1 X40.812 Y173.282 E1.9167
G1 X40.901 Y164.456 E2.2021
G1 X43.628 Y161.730 E2.3268
G1 X51.730 Y161.652 E2.5887
G1 X51.741 Y161.652 E2.5891
G1 X69.144 Y161.570 E3.1517
G1 X71.924 Y164.333 E3.2784
G92 E0.0000
G1 E-2.5000 F1800
G1 X71.474 Y186.300 F4800
G1 E-0.5000 F1800
G92 E0.0000
G1 X68.990 Y188.788 E0.1137 F1500
G1 X66.560 Y188.788 E0.1922
G1 X65.371 Y188.433 E0.2323
G1 X63.609 Y187.276 E0.3005
G1 X44.413 Y175.601 E1.0268
G1 X43.783 Y175.601 E1.0472
G1 X41.294 Y173.087 E1.1616
G1 X41.379 Y164.657 E1.4341
G1 X43.829 Y162.208 E1.5461
G1 X51.734 Y162.132 E1.8017
G1 X51.744 Y162.132 E1.8020
G1 X68.947 Y162.051 E2.3582
G1 X71.444 Y164.533 E2.4720
G1 X71.474 Y186.300 E3.1757
G92 E0.0000
G1 E-2.5000 F1800
G1 X61.633 Y158.815 F4800
G1 E-0.5000 F1800
G92 E0.0000
G1 X58.405 Y155.587 E0.1476 F1500
G1 X55.177 Y158.815 E0.2952
G1 X45.633 Y158.815 E0.6037
G1 X42.025 Y155.207 E0.7687
G1 X42.025 Y145.664 E1.0772
G1 X45.633 Y142.055 E1.2422
G1 X55.177 Y142.055 E1.5507
G1 X58.405 Y145.284 E1.6983
G1 X61.633 Y142.055 E1.8459
G1 X75.177 Y142.055 E2.2838
G1 X78.785 Y145.664 E2.4487
G1 X78.785 Y155.207 E2.7573
G1 X75.177 Y158.815 E2.9222
G1 X61.633 Y158.815 E3.3601
G92 E0.0000
G1 E-2.5000 F1800
G1 X58.505 Y145.863 F4800
G1 E-0.5000 F1800
G92 E0.0000
G1 X61.832 Y142.535 E0.1521 F1500
G1 X74.978 Y142.535 E0.5771
G1 X78.305 Y145.863 E0.7292
G1 X78.305 Y155.008 E1.0249
G1 X74.978 Y158.335 E1.1770
G1 X61.832 Y158.335 E1.6020
G1 X58.505 Y155.008 E1.7541
G1 X58.505 Y145.863 E2.0498
G92 E0.0000
G1 E-2.5000 F1800
G1 X77.825 Y146.062 F4800
G1 E-0.5000 F1800
G92 E0.0000
G1 X77.825 Y154.809 E0.2828 F1500
G1 X74.779 Y157.855 E0.4221
G1 X62.031 Y157.855 E0.8342
G1 X58.985 Y154.809 E0.9735
G1 X58.985 Y146.062 E1.2563
G1 X62.031 Y143.015 E1.3955
G1 X74.779 Y143.015 E1.8077
G1 X77.825 Y146.062 E1.9469
G92 E0.0000
G1 E-2.5000 F1800
G1 X62.230 Y143.495 F4800
G1 E-0.5000 F1800
G92 E0.0000
G1 X74.580 Y143.495 E0.3993 F1500
G1 X77.345 Y146.260 E0.5257
G1 X77.345 Y154.611 E0.7956
G1 X74.580 Y157.375 E0.9220
G1 X62.230 Y157.375 E1.3213
G1 X59.465 Y154.611 E1.4477
G1 X59.465 Y146.260 E1.7177
G1 X62.230 Y143.495 E1.8441
G92 E0.0000
G1 E-2.5000 F1800
G1 X59.945 Y154.412 F4800
G1 E-0.5000 F1800
G92 E0.0000
G1 X59.945 Y146.459 E0.2571 F1500
G1 X62.429 Y143.975 E0.3707
G1 X74.381 Y143.975 E0.7571
G1 X76.865 Y146.459 E0.8706
G1 X76.865 Y154.412 E1.1277
G1 X74.381 Y156.895 E1.2413
G1 X62.429 Y156.895 E1.6277
G1 X59.945 Y154.412 E1.7412
G92 E0.0000
G1 E-2.5000 F1800
; feature inner perimeter
G1 X66.510 Y183.235 F4800
G1 E-0.5000 F1800
G92 E0.0000
G1 X46.275 Y170.928 E0.7657 F1125
G1 X46.300 Y167.145 E0.8880
G1 X51.776 Y167.092 E1.0650
G1 X66.488 Y167.023 E1.5406
G1 X66.510 Y183.235 E2.0648
; feature outer perimeter
G1 X66.003 Y183.489 F4800
G92 E0.0000
G1 X45.793 Y171.197 E0.7647 F750
G1 X45.823 Y166.761 E0.9081
G1 X45.828 Y166.669 E0.9111
G1 X51.770 Y166.612 E1.1032
G1 X66.967 Y166.540 E1.5945
G1 X66.991 Y184.137 E2.1634
G1 X66.003 Y183.489 E2.2016
; feature solid layer
G1 X65.478 Y167.435 F4800
G92 E0.0000
G1 X66.081 Y168.038 E0.0276 F1200
G1 X66.082 Y168.718 E0.0495
G1 X64.802 Y167.439 E0.1081
G1 X64.127 Y167.442 E0.1299
G1 X66.083 Y169.398 E0.2193
G1 X66.084 Y170.078 E0.2413
G1 X63.451 Y167.445 E0.3617
G1 X62.775 Y167.448 E0.3835
G1 X66.085 Y170.758 E0.5348
G1 X66.086 Y171.437 E0.5568
G1 X62.100 Y167.451 E0.7390
G1 X61.424 Y167.455 E0.7609
G1 X66.087 Y172.117 E0.9741
G1 X66.088 Y172.797 E0.9960
G1 X60.748 Y167.458 E1.2401
G1 X60.073 Y167.461 E1.2620
G1 X66.088 Y173.477 E1.5370
G1 X66.089 Y174.156 E1.5590
G1 X59.397 Y167.464 E1.8650
G1 X58.722 Y167.467 E1.8868
G1 X66.090 Y174.836 E2.2237
G1 X66.091 Y175.516 E2.2457
G1 X58.046 Y167.470 E2.6135
G1 X57.370 Y167.474 E2.6353
G1 X66.092 Y176.196 E3.0341
G1 X66.093 Y176.875 E3.0561
G1 X56.695 Y167.477 E3.4858
G1 X56.019 Y167.480 E3.5076
G1 X66.094 Y177.555 E3.9683
G1 X66.095 Y178.235 E3.9902
G1 X55.343 Y167.483 E4.4818
G1 X54.668 Y167.486 E4.5036
G1 X66.096 Y178.915 E5.0261
G1 X66.097 Y179.594 E5.0481
G1 X53.992 Y167.490 E5.6016
G1 X53.317 Y167.493 E5.6234
G1 X66.098 Y180.274 E6.2078
G1 X66.099 Y180.954 E6.2297
G1 X52.641 Y167.496 E6.8450
G1 X51.965 Y167.499 E6.8669
G1 X66.100 Y181.634 E7.5131
G1 X66.101 Y182.314 E7.5351
G1 X51.292 Y167.505 E8.2121
G1 X50.620 Y167.511 E8.2339
G1 X64.866 Y181.757 E8.8852
G1 X63.133 Y180.704 E8.9508
G1 X49.947 Y167.518 E9.5536
G1 X49.275 Y167.524 E9.5754
G1 X61.401 Y179.650 E10.1298
G1 X59.668 Y178.596 E10.1953
G1 X48.602 Y167.531 E10.7012
G1 X47.930 Y167.537 E10.7230
G1 X57.936 Y177.542 E11.1804
G1 X56.203 Y176.489 E11.2460
G1 X47.258 Y167.543 E11.6550
G1 X46.705 Y167.549 E11.6728
G1 X46.705 Y167.669 E11.6767
G1 X54.470 Y175.435 E12.0318
G1 X52.738 Y174.381 E12.0973
G1 X46.700 Y168.343 E12.3734
G1 X46.696 Y169.018 E12.3952
G1 X51.005 Y173.328 E12.5922
G1 X49.273 Y172.274 E12.6578
G1 X46.691 Y169.692 E12.7758
G1 X46.686 Y170.366 E12.7976
G1 X47.540 Y171.220 E12.8366
G92 E0.0000
G1 E-2.5000 F1800
; feature support
G1 X52.375 Y150.435 F4800
G1 E-0.5000 F1800
G92 E0.0000
G1 X48.435 Y150.435 E0.1274 F1200
G92 E0.0000
G1 E-2.5000 F1800
G1 X72.375 Y150.435 F4800
G1 E-0.5000 F1800
G92 E0.0000
G1 X64.435 Y150.435 E0.2567 F1200
G92 E0.0000
G1 E-2.5000 F1800
; layer 2, Z = 0.380
M106 S128
; feature inner perimeter
; tool H0.200 W0.480
G1 Z0.380 F1000
G1 X46.273 Y170.812 F4800
G1 E-0.5000 F1800
G92 E0.0000
G1 X46.305 Y166.572 E0.1523 F2250
G1 X46.333 Y166.094 E0.1695
G1 X61.473 Y165.949 E0.7134
G1 X66.484 Y165.935 E0.8934
G1 X66.495 Y166.534 E0.9149
G1 X66.511 Y183.372 E1.5197
G1 X61.301 Y179.951 E1.7436
G1 X46.273 Y170.812 E2.3754
; feature outer perimeter
G1 X45.858 Y171.121 F4800
G92 E0.0000
G1 X45.791 Y171.121 E0.0024 F1500
G1 X45.825 Y166.557 E0.1664
G1 X45.880 Y165.618 E0.2001
G1 X61.471 Y165.469 E0.7602
G1 X66.955 Y165.453 E0.9572
G1 X66.975 Y166.530 E0.9959
G1 X66.992 Y184.262 E1.6329
G1 X61.044 Y180.357 E1.8884
G1 X45.858 Y171.121 E2.5269
; feature solid layer
G1 X46.713 Y166.624 F4800
G92 E0.0000
G1 X46.840 Y166.497 E0.0065 F2400
G1 X47.525 Y166.490 E0.0311
G1 X46.708 Y167.308 E0.0726
G1 X46.703 Y167.992 E0.0972
G1 X48.211 Y166.484 E0.1738
G1 X48.896 Y166.477 E0.1984
G1 X46.697 Y168.676 E0.3101
G1 X46.692 Y169.360 E0.3347
G1 X49.582 Y166.471 E0.4815
G1 X50.267 Y166.464 E0.5061
G1 X46.687 Y170.044 E0.6879
G1 X46.683 Y170.583 E0.7073
G1 X46.772 Y170.637 E0.7111
G1 X50.952 Y166.457 E0.9234
G1 X51.638 Y166.451 E0.9480
G1 X47.194 Y170.894 E1.1737
G1 X47.617 Y171.151 E1.1915
G1 X52.323 Y166.444 E1.4306
G1 X53.009 Y166.438 E1.4552
G1 X48.039 Y171.408 E1.7077
G1 X48.461 Y171.664 E1.7254
G1 X53.694 Y166.431 E1.9913
G1 X54.379 Y166.425 E2.0159
G1 X48.883 Y171.921 E2.2951
G1 X49.305 Y172.178 E2.3128
G1 X55.065 Y166.418 E2.6054
G1 X55.750 Y166.411 E2.6301
G1 X49.727 Y172.435 E2.9360
G1 X50.149 Y172.691 E2.9538
G1 X56.435 Y166.405 E3.2731
G1 X57.121 Y166.398 E3.2977
