; G-Code generated by Simplify3D(R) Version 4.1.2
; May 17, 2020 at 12:58:43 PM
; Settings Summary
;   processName,Calibration Cube
;   applyToModels,Spriya_-_Anet_A8_Fan_Duct
;   profileName,Anet A8 - Test (modified)
;   profileVersion,2020-05-17 12:50:22
;   baseProfile,Anet A8
;   printMaterial,PETG
;   printQuality,Medium
;   printExtruders,
;   extruderName,Primary Extruder
;   extruderToolheadNumber,0
;   extruderDiameter,0.4
;   extruderAutoWidth,1
;   extruderWidth,0.48
;   extrusionMultiplier,0.9
;   extruderUseRetract,1
;   extruderRetractionDistance,2.5
;   extruderExtraRestartDistance,-0.5
;   extruderRetractionZLift,0
;   extruderRetractionSpeed,1800
;   extruderUseCoasting,0
;   extruderCoastingDistance,0.2
;   extruderUseWipe,0
;   extruderWipeDistance,5
;   primaryExtruder,0
;   layerHeight,0.2
;   topSolidLayers,3
;   bottomSolidLayers,5
;   perimeterOutlines,2
;   printPerimetersInsideOut,1
;   startPointOption,1
;   startPointOriginX,0
;   startPointOriginY,0
;   sequentialIslands,0
;   spiralVaseMode,0
;   firstLayerHeightPercentage,90
;   firstLayerWidthPercentage,100
;   firstLayerUnderspeed,0.5
;   useRaft,0
;   raftExtruder,0
;   raftTopLayers,3
;   raftBaseLayers,2
;   raftOffset,3
;   raftSeparationDistance,0.14
;   raftTopInfill,100
;   aboveRaftSpeedMultiplier,0.3
;   useSkirt,1
;   skirtExtruder,0
;   skirtLayers,1
;   skirtOutlines,5
;   skirtOffset,4
;   usePrimePillar,0
;   primePillarExtruder,999
;   primePillarWidth,12
;   primePillarLocation,7
;   primePillarSpeedMultiplier,1
;   useOozeShield,0
;   oozeShieldExtruder,999
;   oozeShieldOffset,2
;   oozeShieldOutlines,1
;   oozeShieldSidewallShape,1
;   oozeShieldSidewallAngle,30
;   oozeShieldSpeedMultiplier,1
;   infillExtruder,0
;   internalInfillPattern,Rectilinear
;   externalInfillPattern,Rectilinear
;   infillPercentage,0
;   outlineOverlapPercentage,15
;   infillExtrusionWidthPercentage,100
;   minInfillLength,5
;   infillLayerInterval,1
;   internalInfillAngles,45,-45
;   overlapInternalInfillAngles,0
;   externalInfillAngles,45,-45
;   generateSupport,1
;   supportExtruder,0
;   supportInfillPercentage,15
;   supportExtraInflation,0
;   supportBaseLayers,0
;   denseSupportExtruder,0
;   denseSupportLayers,0
;   denseSupportInfillPercentage,70
;   supportLayerInterval,1
;   supportHorizontalPartOffset,0.3
;   supportUpperSeparationLayers,1
;   supportLowerSeparationLayers,1
;   supportType,0
;   supportGridSpacing,4
;   maxOverhangAngle,45
;   supportAngles,0
;   temperatureName,Primary Extruder,Heated Bed
;   temperatureNumber,0,0
;   temperatureSetpointCount,1,1
;   temperatureSetpointLayers,1,1
;   temperatureSetpointTemperatures,230,70
;   temperatureStabilizeAtStartup,1,1
;   temperatureHeatedBed,0,1
;   fanLayers,1,2,4
;   fanSpeeds,0,50,100
;   blipFanToFullPower,0
;   adjustSpeedForCooling,1
;   minSpeedLayerTime,15
;   minCoolingSpeedSlowdown,20
;   increaseFanForCooling,0
;   minFanLayerTime,45
;   maxCoolingFanSpeed,100
;   increaseFanForBridging,0
;   bridgingFanSpeed,100
;   use5D,1
;   relativeEdistances,0
;   allowEaxisZeroing,1
;   independentExtruderAxes,0
;   includeM10123,0
;   stickySupport,1
;   applyToolheadOffsets,0
;   gcodeXoffset,0
;   gcodeYoffset,0
;   gcodeZoffset,0
;   overrideMachineDefinition,1
;   machineTypeOverride,0
;   strokeXoverride,220
;   strokeYoverride,220
;   strokeZoverride,240
;   originOffsetXoverride,0
;   originOffsetYoverride,0
;   originOffsetZoverride,0
;   homeXdirOverride,-1
;   homeYdirOverride,-1
;   homeZdirOverride,-1
;   flipXoverride,1
;   flipYoverride,-1
;   flipZoverride,1
;   toolheadOffsets,0,0|0,0|0,0|0,0|0,0|0,0
;   overrideFirmwareConfiguration,1
;   firmwareTypeOverride,RepRap (Marlin/Repetier/Sprinter)
;   GPXconfigOverride,r2
;   baudRateOverride,115200
;   overridePrinterModels,1
;   printerModelsOverride
;   startingGcode,M107 ; fan off,G28 ; home all axes,G29 ; run auto bed leveling,M500 ; store level values in EEPROM,G1 X0 Y20 Z0.2 F3000 ; get ready to prime,G92 E0 ; reset extrusion distance,G1 X200 E10 F600 ; prime nozzle
;   layerChangeGcode,
;   retractionGcode,
;   toolChangeGcode,
;   endingGcode,M104 S0 ; turn off extruder,M140 S0 ; turn off bed,G91 ; use relative coordinates for jogging,G1 Z20 F1000 ; raise Z by 20mm at 1000 mm/min,G90 ; switch back to absolute coordinates,G1 X0 Y200 F1000 ; prepare for part removal,M84 ; disable motors,M107 ; turn off fan
;   exportFileFormat,gcode
;   celebration,0
;   celebrationSong,Random Song
;   postProcessing,
;   defaultSpeed,3000
;   outlineUnderspeed,0.5
;   solidInfillUnderspeed,0.8
;   supportUnderspeed,0.8
;   rapidXYspeed,4800
;   rapidZspeed,1000
;   minBridgingArea,50
;   bridgingExtraInflation,0
;   bridgingExtrusionMultiplier,1
;   bridgingSpeedMultiplier,1
;   useFixedBridgingAngle,0
;   fixedBridgingAngle,0
;   applyBridgingToPerimeters,0
;   filamentDiameters,1.75|1.75|1.75|1.75|1.75|1.75
;   filamentPricesPerKg,46|46|46|46|46|46
;   filamentDensities,1.25|1.25|1.25|1.25|1.25|1.25
;   useMinPrintHeight,0
;   minPrintHeight,0
;   useMaxPrintHeight,0
;   maxPrintHeight,0
;   useDiaphragm,0
;   diaphragmLayerInterval,20
;   robustSlicing,1
;   mergeAllIntoSolid,0
;   onlyRetractWhenCrossingOutline,1
;   retractBetweenLayers,1
;   useRetractionMinTravel,0
;   retractionMinTravel,3
;   retractWhileWiping,0
;   onlyWipeOutlines,1
;   avoidCrossingOutline,0
;   maxMovementDetourFactor,3
;   toolChangeRetractionDistance,12
;   toolChangeExtraRestartDistance,-0.5
;   toolChangeRetractionSpeed,600
;   externalThinWallType,0
;   internalThinWallType,2
;   thinWallAllowedOverlapPercentage,10
;   singleExtrusionMinLength,1
;   singleExtrusionMinPrintingWidthPercentage,50
;   singleExtrusionMaxPrintingWidthPercentage,200
;   singleExtrusionEndpointExtension,0.2
;   horizontalSizeCompensation,0
G90
M82
M106 S0
M140 S70
M190 S70
M104 S230 T0
M109 S230 T0
M107 ; fan off
G28 ; home all axes
G29 ; run auto bed leveling
M500 ; store level values in EEPROM
G1 X0 Y20 Z0.2 F3000 ; get ready to prime
G92 E0 ; reset extrusion distance
G1 X200 E10 F600 ; prime nozzle
; process Calibration Cube
; layer 1, Z = 0.180
T0
G92 E0.0000
G1 E-2.5000 F1800
; feature skirt
; tool H0.180 W0.480
G1 Z0.180 F1000
G1 X113.312 Y89.620 F4800
G1 E-0.5000 F1800
G92 E0.0000
G1 X119.137 Y83.842 E0.2653 F1500
G1 X121.321 Y82.916 E0.3419
G1 X124.424 Y82.852 E0.4423
G1 X127.422 Y84.603 E0.5545
G1 X129.286 Y88.075 E0.6819
G1 X129.277 Y88.125 E0.6836
G1 X130.380 Y89.228 E0.7340
G1 X130.380 Y110.772 E1.4305
G1 X126.772 Y114.380 E1.5954
G1 X126.380 Y114.380 E1.6081
G1 X126.380 Y134.772 E2.2673
G1 X122.772 Y138.380 E2.4323
G1 X93.228 Y138.380 E3.3874
G1 X89.620 Y134.772 E3.5524
G1 X89.620 Y113.228 E4.2488
G1 X90.848 Y112.000 E4.3050
G1 X89.620 Y110.772 E4.3612
G1 X89.620 Y89.228 E5.0576
G1 X90.723 Y88.126 E5.1081
G1 X90.714 Y88.076 E5.1097
G1 X92.578 Y84.604 E5.2371
G1 X95.576 Y82.852 E5.3493
G1 X98.740 Y82.917 E5.4517
G1 X101.018 Y83.935 E5.5323
G1 X102.523 Y85.547 E5.6036
G1 X109.992 Y92.817 E5.9406
G1 X108.036 Y94.885 E6.0326
G1 X109.620 Y96.468 E6.1050
G1 X109.620 Y93.228 E6.2098
G1 X113.228 Y89.620 E6.3747
G1 X113.312 Y89.620 E6.3774
G92 E0.0000
G1 E-2.5000 F1800
G1 X98.633 Y83.395 F4800
G1 E-0.5000 F1800
G92 E0.0000
G1 X100.734 Y84.333 E0.0744 F1500
G1 X102.180 Y85.883 E0.1429
G1 X109.318 Y92.831 E0.4649
G1 X107.367 Y94.894 E0.5567
G1 X109.900 Y97.427 E0.6726
G1 X109.900 Y98.100 E0.6943
G1 X110.100 Y98.100 E0.7008
G1 X110.100 Y93.427 E0.8518
G1 X113.427 Y90.100 E1.0040
G1 X113.510 Y90.100 E1.0066
G1 X119.410 Y84.247 E1.2753
G1 X121.423 Y83.394 E1.3460
G1 X124.299 Y83.334 E1.4390
G1 X127.063 Y84.950 E1.5425
G1 X128.785 Y88.157 E1.6602
G1 X128.763 Y88.290 E1.6645
G1 X129.900 Y89.427 E1.7165
G1 X129.900 Y110.573 E2.4001
G1 X126.573 Y113.900 E2.5523
G1 X125.900 Y113.900 E2.5740
G1 X125.900 Y134.573 E3.2423
G1 X122.573 Y137.900 E3.3945
G1 X93.427 Y137.900 E4.3367
G1 X90.100 Y134.573 E4.4888
G1 X90.100 Y113.427 E5.1724
G1 X91.527 Y112.000 E5.2377
G1 X90.100 Y110.573 E5.3029
G1 X90.100 Y89.427 E5.9865
G1 X91.237 Y88.290 E6.0386
G1 X91.215 Y88.158 E6.0429
G1 X92.937 Y84.950 E6.1606
G1 X95.701 Y83.334 E6.2641
G1 X98.633 Y83.395 E6.3589
G92 E0.0000
G1 E-2.5000 F1800
G1 X90.580 Y113.626 F4800
G1 E-0.5000 F1800
G92 E0.0000
G1 X92.206 Y112.000 E0.0743 F1500
G1 X90.580 Y110.374 E0.1487
G1 X90.580 Y89.626 E0.8194
G1 X91.752 Y88.454 E0.8730
G1 X91.716 Y88.240 E0.8801
G1 X93.296 Y85.296 E0.9881
G1 X95.826 Y83.817 E1.0828
G1 X98.526 Y83.873 E1.1701
G1 X100.449 Y84.732 E1.2382
G1 X101.837 Y86.219 E1.3040
G1 X108.644 Y92.845 E1.6111
G1 X106.697 Y94.903 E1.7027
G1 X109.420 Y97.626 E1.8272
G1 X109.420 Y98.580 E1.8580
G1 X110.580 Y98.580 E1.8955
G1 X110.580 Y93.626 E2.0557
G1 X113.626 Y90.580 E2.1949
G1 X113.708 Y90.580 E2.1976
G1 X119.682 Y84.653 E2.4696
G1 X121.526 Y83.872 E2.5344
G1 X124.173 Y83.817 E2.6200
G1 X126.704 Y85.296 E2.7147
G1 X128.284 Y88.240 E2.8227
G1 X128.248 Y88.454 E2.8298
G1 X129.420 Y89.626 E2.8834
G1 X129.420 Y110.374 E3.5541
G1 X126.374 Y113.420 E3.6934
G1 X125.420 Y113.420 E3.7242
G1 X125.420 Y134.374 E4.4016
G1 X122.374 Y137.420 E4.5409
G1 X93.626 Y137.420 E5.4703
G1 X90.580 Y134.374 E5.6096
G1 X90.580 Y113.626 E6.2803
G92 E0.0000
G1 E-2.5000 F1800
G1 X122.175 Y136.940 F4800
G1 E-0.5000 F1800
G92 E0.0000
G1 X93.825 Y136.940 E0.9165 F1500
G1 X91.060 Y134.175 E1.0429
G1 X91.060 Y113.825 E1.7008
G1 X92.885 Y112.000 E1.7843
G1 X91.060 Y110.175 E1.8677
G1 X91.060 Y89.825 E2.5256
G1 X92.267 Y88.618 E2.5808
G1 X92.216 Y88.322 E2.5905
G1 X93.655 Y85.642 E2.6888
G1 X95.952 Y84.300 E2.7748
G1 X98.419 Y84.351 E2.8546
G1 X100.164 Y85.131 E2.9164
G1 X101.494 Y86.555 E2.9794
G1 X107.970 Y92.859 E3.2716
G1 X105.888 Y95.060 E3.3695
G1 X106.175 Y95.060 E3.3788
G1 X108.940 Y97.825 E3.5052
G1 X108.940 Y99.060 E3.5452
G1 X111.060 Y99.060 E3.6137
G1 X111.060 Y93.825 E3.7829
G1 X113.825 Y91.060 E3.9094
G1 X113.905 Y91.060 E3.9120
G1 X119.955 Y85.059 E4.1874
G1 X121.628 Y84.350 E4.2462
G1 X124.048 Y84.300 E4.3244
G1 X126.345 Y85.642 E4.4104
G1 X127.784 Y88.322 E4.5088
G1 X127.733 Y88.618 E4.5185
G1 X128.940 Y89.825 E4.5737
G1 X128.940 Y110.175 E5.2316
G1 X126.175 Y112.940 E5.3580
G1 X124.940 Y112.940 E5.3979
G1 X124.940 Y134.175 E6.0844
G1 X122.175 Y136.940 E6.2108
G92 E0.0000
G1 E-2.5000 F1800
G1 X108.460 Y98.024 F4800
G1 E-0.5000 F1800
G92 E0.0000
G1 X108.460 Y99.540 E0.0490 F1500
G1 X109.976 Y99.540 E0.0980
G1 X110.000 Y99.564 E0.0991
G1 X110.024 Y99.540 E0.1002
G1 X111.540 Y99.540 E0.1492
G1 X111.540 Y94.024 E0.3276
G1 X114.024 Y91.540 E0.4411
G1 X114.103 Y91.540 E0.4437
G1 X120.227 Y85.465 E0.7226
G1 X121.730 Y84.828 E0.7753
G1 X123.923 Y84.783 E0.8462
G1 X125.986 Y85.988 E0.9235
G1 X127.283 Y88.404 E1.0121
G1 X127.219 Y88.783 E1.0245
G1 X128.460 Y90.024 E1.0813
G1 X128.460 Y109.976 E1.7263
G1 X125.976 Y112.460 E1.8399
G1 X124.460 Y112.460 E1.8889
G1 X124.460 Y133.976 E2.5845
G1 X121.976 Y136.460 E2.6981
G1 X94.024 Y136.460 E3.6017
G1 X91.540 Y133.976 E3.7153
G1 X91.540 Y114.024 E4.3603
G1 X93.564 Y112.000 E4.4529
G1 X91.540 Y109.976 E4.5454
G1 X91.540 Y90.024 E5.1904
G1 X92.781 Y88.783 E5.2472
G1 X92.717 Y88.404 E5.2596
G1 X94.014 Y85.988 E5.3482
G1 X96.077 Y84.783 E5.4255
G1 X98.312 Y84.829 E5.4977
G1 X99.880 Y85.529 E5.5533
G1 X101.151 Y86.891 E5.6135
G1 X107.296 Y92.873 E5.8907
G1 X104.773 Y95.540 E6.0094
G1 X105.976 Y95.540 E6.0483
G1 X108.460 Y98.024 E6.1619
G92 E0.0000
G1 E-2.5000 F1800
; feature support
G1 X119.970 Y131.200 F4800
G1 E-0.5000 F1800
G92 E0.0000
G1 X96.030 Y131.200 E0.7740 F1200
G1 X96.030 Y128.000 E0.8774
G1 X119.970 Y128.000 E1.6514
G1 X119.970 Y124.800 E1.7548
G1 X96.030 Y124.800 E2.5288
G1 X96.030 Y121.600 E2.6322
G1 X119.970 Y121.600 E3.4062
G1 X119.970 Y118.400 E3.5096
G1 X96.030 Y118.400 E4.2836
G1 X96.030 Y116.030 E4.3602
G1 X100.030 Y116.030 E4.4895
G1 X100.030 Y115.200 E4.5163
G1 X119.970 Y115.200 E5.1610
G1 X119.970 Y112.000 E5.2644
G1 X112.030 Y112.000 E5.5211
G1 X112.030 Y112.030 E5.5221
G1 X107.970 Y112.030 E5.6533
G1 X107.970 Y112.000 E5.6543
G1 X100.030 Y112.000 E5.9110
G1 X100.030 Y108.800 E6.0145
G1 X107.970 Y108.800 E6.2711
G1 X107.970 Y105.600 E6.3746
G1 X96.030 Y105.600 E6.7606
G1 X96.030 Y102.400 E6.8641
G1 X103.970 Y102.400 E7.1208
G1 X103.970 Y100.030 E7.1974
G1 X99.970 Y100.030 E7.3267
G1 X99.970 Y99.200 E7.3535
G1 X96.030 Y99.200 E7.4809
G1 X96.030 Y96.000 E7.5843
G1 X99.970 Y96.000 E7.7117
G1 X99.970 Y92.800 E7.8152
G1 X96.030 Y92.800 E7.9426
G92 E0.0000
G1 E-2.5000 F1800
G1 X112.030 Y108.800 F4800
G1 E-0.5000 F1800
G92 E0.0000
G1 X119.970 Y108.800 E0.2567 F1200
G1 X119.970 Y107.970 E0.2835
G1 X123.970 Y107.970 E0.4128
G1 X123.970 Y105.600 E0.4895
G1 X112.030 Y105.600 E0.8755
G1 X112.030 Y104.030 E0.9262
G1 X116.030 Y104.030 E1.0555
G1 X116.030 Y102.400 E1.1082
G1 X123.970 Y102.400 E1.3649
G1 X123.970 Y99.200 E1.4684
G1 X116.030 Y99.200 E1.7251
G1 X116.030 Y96.030 E1.8276
G1 X120.030 Y96.030 E1.9569
G1 X120.030 Y96.000 E1.9578
G1 X123.970 Y96.000 E2.0852
G1 X123.970 Y92.800 E2.1887
G1 X120.030 Y92.800 E2.3160
G92 E0.0000
G1 E-2.5000 F1800
; layer 2, Z = 0.380
M106 S128
; feature outer perimeter
; tool H0.200 W0.480
G1 Z0.380 F1000
G1 X122.327 Y89.275 F4800
G1 E-0.5000 F1800
G92 E0.0000
G1 X122.571 Y89.288 E0.0088 F849
G1 X119.098 Y92.478 E0.1782
G1 X122.327 Y89.275 E0.3415
G92 E0.0000
G1 E-2.5000 F1800
G1 X97.404 Y89.262 F4800
G1 E-0.5000 F1800
G92 E0.0000
G1 X97.660 Y89.267 E0.0092 F849
G1 X99.059 Y90.766 E0.0828
G1 X98.286 Y90.054 E0.1206
G1 X97.404 Y89.262 E0.1631
G92 E0.0000
G1 E-2.5000 F1800
; feature support
G1 X96.030 Y92.800 F4800
G1 E-0.5000 F1800
G92 E0.0000
G1 X99.970 Y92.800 E0.1415 F1358
G1 X99.970 Y96.000 E0.2565
G1 X96.030 Y96.000 E0.3980
G1 X96.030 Y99.200 E0.5130
G1 X99.970 Y99.200 E0.6545
G1 X99.970 Y100.030 E0.6843
G1 X103.970 Y100.030 E0.8280
G1 X103.970 Y102.400 E0.9131
G1 X96.030 Y102.400 E1.1983
G1 X96.030 Y105.600 E1.3133
G1 X107.970 Y105.600 E1.7422
G1 X107.970 Y108.800 E1.8571
G1 X100.030 Y108.800 E2.1423
G1 X100.030 Y112.000 E2.2573
G1 X107.970 Y112.000 E2.5425
G1 X107.970 Y112.030 E2.5436
G1 X112.030 Y112.030 E2.6894
G1 X112.030 Y112.000 E2.6905
G1 X119.970 Y112.000 E2.9757
G1 X119.970 Y115.200 E3.0906
G1 X100.030 Y115.200 E3.8069
G1 X100.030 Y116.030 E3.8367
G1 X96.030 Y116.030 E3.9804
G1 X96.030 Y118.400 E4.0655
G1 X119.970 Y118.400 E4.9255
G1 X119.970 Y121.600 E5.0404
G1 X96.030 Y121.600 E5.9004
G1 X96.030 Y124.800 E6.0153
G1 X119.970 Y124.800 E6.8753
G1 X119.970 Y128.000 E6.9902
G1 X96.030 Y128.000 E7.8502
G1 X96.030 Y131.200 E7.9651
G1 X119.970 Y131.200 E8.8251
G92 E0.0000
G1 E-2.5000 F1800
G1 X112.030 Y108.800 F4800
G1 E-0.5000 F1800
G92 E0.0000
G1 X119.970 Y108.800 E0.2852 F1358
G1 X119.970 Y107.970 E0.3150
G1 X123.970 Y107.970 E0.4587
G1 X123.970 Y105.600 E0.5438
G1 X112.030 Y105.600 E0.9727
G1 X112.030 Y104.030 E1.0291
G1 X116.030 Y104.030 E1.1728
G1 X116.030 Y102.400 E1.2314
G1 X123.970 Y102.400 E1.5166
G1 X123.970 Y99.200 E1.6315
G1 X116.030 Y99.200 E1.9167
G1 X116.030 Y96.368 E2.0185
G1 X116.398 Y96.030 E2.0364
G1 X120.030 Y96.030 E2.1669
G1 X120.030 Y96.000 E2.1680
G1 X123.970 Y96.000 E2.3095
G1 X123.970 Y92.800 E2.4244
G1 X120.030 Y92.800 E2.5660
G92 E0.0000
G1 E-2.5000 F1800
; layer 3, Z = 0.580
; feature outer perimeter
G1 Z0.580 F1000
G1 X122.722 Y89.381 F4800
G1 E-0.5000 F1800
G92 E0.0000
G1 X115.935 Y95.622 E0.3312 F958
G1 X115.134 Y96.339 E0.3698
G1 X115.191 Y96.180 E0.3758
G1 X121.286 Y89.923 E0.6896
G1 X122.008 Y89.259 E0.7249
G1 X122.676 Y89.296 E0.7489
G1 X122.722 Y89.381 E0.7523
G92 E0.0000
G1 E-2.5000 F1800
G1 X98.712 Y89.922 F4800
G1 E-0.5000 F1800
G92 E0.0000
G1 X102.040 Y93.486 E0.1752 F958
G1 X104.802 Y96.176 E0.3137
G1 X104.836 Y96.303 E0.3184
G1 X98.963 Y90.890 E0.6053
G1 X97.279 Y89.379 E0.6865
G1 X97.359 Y89.230 E0.6926
G1 X97.975 Y89.243 E0.7147
G1 X98.712 Y89.922 E0.7507
G92 E0.0000
G1 E-2.5000 F1800
; feature support
G1 X119.970 Y131.200 F4800
G1 E-0.5000 F1800
G92 E0.0000
G1 X96.030 Y131.200 E0.8599 F1533
G1 X96.030 Y128.000 E0.9749
G1 X119.970 Y128.000 E1.8348
G1 X119.970 Y124.800 E1.9498
