; G-Code generated by Simplify3D(R) Version 4.1.2
; May 26, 2020 at 3:18:57 PM
; Settings Summary
;   processName,Calibration Cube
;   applyToModels,Anet_A8_Chain_Bed_Protector_v2
;   profileName,Anet A8 (modified)
;   profileVersion,2020-05-17 12:50:12
;   baseProfile,
;   printMaterial,PETG
;   printQuality,Medium
;   printExtruders,
;   extruderName,Primary Extruder
;   extruderToolheadNumber,0
;   extruderDiameter,0.4
;   extruderAutoWidth,1
;   extruderWidth,0.48
;   extrusionMultiplier,0.9
;   extruderUseRetract,1
;   extruderRetractionDistance,2.5
;   extruderExtraRestartDistance,-0.75
;   extruderRetractionZLift,0
;   extruderRetractionSpeed,1800
;   extruderUseCoasting,1
;   extruderCoastingDistance,0.2
;   extruderUseWipe,0
;   extruderWipeDistance,5
;   primaryExtruder,0
;   layerHeight,0.2
;   topSolidLayers,3
;   bottomSolidLayers,3
;   perimeterOutlines,2
;   printPerimetersInsideOut,1
;   startPointOption,2
;   startPointOriginX,0
;   startPointOriginY,0
;   sequentialIslands,0
;   spiralVaseMode,0
;   firstLayerHeightPercentage,90
;   firstLayerWidthPercentage,100
;   firstLayerUnderspeed,0.5
;   useRaft,0
;   raftExtruder,0
;   raftTopLayers,3
;   raftBaseLayers,2
;   raftOffset,3
;   raftSeparationDistance,0.14
;   raftTopInfill,100
;   aboveRaftSpeedMultiplier,0.3
;   useSkirt,1
;   skirtExtruder,0
;   skirtLayers,1
;   skirtOutlines,3
;   skirtOffset,5
;   usePrimePillar,0
;   primePillarExtruder,999
;   primePillarWidth,12
;   primePillarLocation,7
;   primePillarSpeedMultiplier,1
;   useOozeShield,0
;   oozeShieldExtruder,999
;   oozeShieldOffset,2
;   oozeShieldOutlines,1
;   oozeShieldSidewallShape,1
;   oozeShieldSidewallAngle,30
;   oozeShieldSpeedMultiplier,1
;   infillExtruder,0
;   internalInfillPattern,Rectilinear
;   externalInfillPattern,Rectilinear
;   infillPercentage,50
;   outlineOverlapPercentage,15
;   infillExtrusionWidthPercentage,100
;   minInfillLength,5
;   infillLayerInterval,1
;   internalInfillAngles,45,-45
;   overlapInternalInfillAngles,0
;   externalInfillAngles,45,-45
;   generateSupport,1
;   supportExtruder,0
;   supportInfillPercentage,70
;   supportExtraInflation,0
;   supportBaseLayers,0
;   denseSupportExtruder,0
;   denseSupportLayers,0
;   denseSupportInfillPercentage,70
;   supportLayerInterval,1
;   supportHorizontalPartOffset,0.3
;   supportUpperSeparationLayers,1
;   supportLowerSeparationLayers,1
;   supportType,0
;   supportGridSpacing,4
;   maxOverhangAngle,45
;   supportAngles,0
;   temperatureName,Primary Extruder,Heated Bed
;   temperatureNumber,0,0
;   temperatureSetpointCount,1,1
;   temperatureSetpointLayers,1,1
;   temperatureSetpointTemperatures,225,70
;   temperatureStabilizeAtStartup,1,1
;   temperatureHeatedBed,0,1
;   fanLayers,1,2
;   fanSpeeds,0,100
;   blipFanToFullPower,0
;   adjustSpeedForCooling,1
;   minSpeedLayerTime,15
;   minCoolingSpeedSlowdown,20
;   increaseFanForCooling,0
;   minFanLayerTime,45
;   maxCoolingFanSpeed,100
;   increaseFanForBridging,0
;   bridgingFanSpeed,100
;   use5D,1
;   relativeEdistances,0
;   allowEaxisZeroing,1
;   independentExtruderAxes,0
;   includeM10123,0
;   stickySupport,1
;   applyToolheadOffsets,0
;   gcodeXoffset,0
;   gcodeYoffset,0
;   gcodeZoffset,0
;   overrideMachineDefinition,1
;   machineTypeOverride,0
;   strokeXoverride,220
;   strokeYoverride,220
;   strokeZoverride,240
;   originOffsetXoverride,0
;   originOffsetYoverride,0
;   originOffsetZoverride,0
;   homeXdirOverride,-1
;   homeYdirOverride,-1
;   homeZdirOverride,-1
;   flipXoverride,1
;   flipYoverride,-1
;   flipZoverride,1
;   toolheadOffsets,0,0|0,0|0,0|0,0|0,0|0,0
;   overrideFirmwareConfiguration,1
;   firmwareTypeOverride,RepRap (Marlin/Repetier/Sprinter)
;   GPXconfigOverride,r2
;   baudRateOverride,115200
;   overridePrinterModels,1
;   printerModelsOverride
;   startingGcode,M107 ; fan off,G28 ; home all axes,G29 ; run auto bed leveling,M500 ; store level values in EEPROM,G1 X0 Y20 Z0.2 F3000 ; get ready to prime on lower end,; G1 X0 Y190 Z0.2 F3000 ; get ready to prime on high end,G92 E0 ; reset extrusion distance,G1 X200 E10 F600 ; prime nozzle
;   layerChangeGcode,
;   retractionGcode,
;   toolChangeGcode,
;   endingGcode,M104 S0 ; turn off extruder,M140 S0 ; turn off bed,G91 ; use relative coordinates for jogging,G1 Z20 F1000 ; raise Z by 20mm at 1000 mm/min,G90 ; switch back to absolute coordinates,G1 X0 Y200 F1000 ; prepare for part removal,M84 ; disable motors,M107 ; turn off fan
;   exportFileFormat,gcode
;   celebration,0
;   celebrationSong,Random Song
;   postProcessing,
;   defaultSpeed,3200
;   outlineUnderspeed,0.55
;   solidInfillUnderspeed,0.8
;   supportUnderspeed,0.8
;   rapidXYspeed,4800
;   rapidZspeed,1000
;   minBridgingArea,50
;   bridgingExtraInflation,0
;   bridgingExtrusionMultiplier,1
;   bridgingSpeedMultiplier,1
;   useFixedBridgingAngle,0
;   fixedBridgingAngle,0
;   applyBridgingToPerimeters,0
;   filamentDiameters,1.75|1.75|1.75|1.75|1.75|1.75
;   filamentPricesPerKg,23.99|46|46|46|46|46
;   filamentDensities,1.25|1.25|1.25|1.25|1.25|1.25
;   useMinPrintHeight,0
;   minPrintHeight,0
;   useMaxPrintHeight,0
;   maxPrintHeight,0
;   useDiaphragm,0
;   diaphragmLayerInterval,20
;   robustSlicing,1
;   mergeAllIntoSolid,0
;   onlyRetractWhenCrossingOutline,1
;   retractBetweenLayers,1
;   useRetractionMinTravel,0
;   retractionMinTravel,3
;   retractWhileWiping,0
;   onlyWipeOutlines,1
;   avoidCrossingOutline,0
;   maxMovementDetourFactor,3
;   toolChangeRetractionDistance,12
;   toolChangeExtraRestartDistance,-0.5
;   toolChangeRetractionSpeed,600
;   externalThinWallType,0
;   internalThinWallType,2
;   thinWallAllowedOverlapPercentage,10
;   singleExtrusionMinLength,1
;   singleExtrusionMinPrintingWidthPercentage,50
;   singleExtrusionMaxPrintingWidthPercentage,200
;   singleExtrusionEndpointExtension,0.2
;   horizontalSizeCompensation,0
G90
M82
M106 S0
M140 S70
M190 S70
M104 S225 T0
M109 S225 T0
M107 ; fan off
G28 ; home all axes
G29 ; run auto bed leveling
M500 ; store level values in EEPROM
G1 X0 Y20 Z0.2 F3000 ; get ready to prime on lower end
; G1 X0 Y190 Z0.2 F3000 ; get ready to prime on high end
G92 E0 ; reset extrusion distance
G1 X200 E10 F600 ; prime nozzle
; process Calibration Cube
; layer 1, Z = 0.180
T0
G92 E0.0000
G1 E-2.5000 F1800
; feature skirt
; tool H0.180 W0.480
G1 Z0.180 F1000
G1 X104.923 Y93.006 F4800
G1 E-0.7500 F1800
G92 E0.0000
G1 X106.069 Y91.951 E0.0504 F1600
G1 X106.599 Y91.559 E0.0717
G1 X107.941 Y90.769 E0.1220
G1 X108.542 Y90.497 E0.1434
G1 X110.021 Y90.009 E0.1937
G1 X110.666 Y89.869 E0.2150
G1 X112.215 Y89.704 E0.2654
G1 X112.875 Y89.704 E0.2867
G1 X114.423 Y89.869 E0.3371
G1 X115.068 Y90.009 E0.3584
G1 X116.547 Y90.497 E0.4088
G1 X117.148 Y90.769 E0.4301
G1 X118.491 Y91.559 E0.4804
G1 X119.021 Y91.951 E0.5018
G1 X120.166 Y93.006 E0.5521
G1 X120.602 Y93.502 E0.5734
G1 X121.499 Y94.775 E0.6238
G1 X121.820 Y95.352 E0.6451
G1 X122.543 Y97.056 E0.7050
G1 X122.792 Y98.280 E0.7454
G1 X122.792 Y121.563 E1.4981
G1 X122.420 Y121.936 E1.5151
G1 X122.420 Y126.788 E1.6720
G1 X118.788 Y130.420 E1.8380
G1 X101.212 Y130.420 E2.4062
G1 X97.580 Y126.788 E2.5723
G1 X97.580 Y121.885 E2.7308
G1 X97.532 Y121.720 E2.7363
G1 X97.452 Y121.375 E2.7478
G1 X97.293 Y120.452 E2.7781
G1 X97.253 Y120.100 E2.7895
G1 X97.200 Y119.165 E2.8198
G1 X97.201 Y118.811 E2.8313
G1 X97.255 Y117.876 E2.8615
G1 X97.296 Y117.524 E2.8730
G1 X97.456 Y116.601 E2.9033
G1 X97.537 Y116.256 E2.9147
G1 X97.580 Y116.109 E2.9197
G1 X97.580 Y113.212 E3.0133
G1 X101.212 Y109.580 E3.1794
G1 X102.269 Y109.580 E3.2136
G1 X102.297 Y109.561 E3.2147
G1 X102.297 Y98.280 E3.5794
G1 X102.546 Y97.056 E3.6197
G1 X103.270 Y95.352 E3.6796
G1 X103.591 Y94.775 E3.7009
G1 X104.488 Y93.502 E3.7513
G1 X104.923 Y93.006 E3.7726
G92 E0.0000
G1 E-2.5000 F1800
G1 X105.267 Y93.342 F4800
G1 E-0.7500 F1800
G92 E0.0000
G1 X106.375 Y92.322 E0.0487 F1600
G1 X106.864 Y91.959 E0.0684
G1 X108.163 Y91.196 E0.1171
G1 X108.717 Y90.945 E0.1368
G1 X110.148 Y90.472 E0.1855
G1 X110.743 Y90.344 E0.2051
G1 X112.240 Y90.184 E0.2538
G1 X112.849 Y90.184 E0.2735
G1 X114.347 Y90.344 E0.3222
G1 X114.942 Y90.472 E0.3419
G1 X116.372 Y90.945 E0.3906
G1 X116.927 Y91.196 E0.4103
G1 X118.225 Y91.959 E0.4590
G1 X118.714 Y92.322 E0.4786
G1 X119.823 Y93.342 E0.5273
G1 X120.224 Y93.800 E0.5470
G1 X121.092 Y95.031 E0.5957
G1 X121.388 Y95.563 E0.6154
G1 X122.083 Y97.200 E0.6729
G1 X122.312 Y98.328 E0.7101
G1 X122.312 Y121.365 E1.4549
G1 X121.940 Y121.737 E1.4719
G1 X121.940 Y126.589 E1.6287
G1 X118.589 Y129.940 E1.7819
G1 X101.411 Y129.940 E2.3373
G1 X98.060 Y126.589 E2.4905
G1 X98.060 Y121.816 E2.6448
G1 X97.996 Y121.599 E2.6521
G1 X97.923 Y121.280 E2.6627
G1 X97.768 Y120.384 E2.6921
G1 X97.731 Y120.060 E2.7027
G1 X97.680 Y119.152 E2.7320
G1 X97.681 Y118.825 E2.7426
G1 X97.733 Y117.918 E2.7720
G1 X97.771 Y117.593 E2.7826
G1 X97.927 Y116.697 E2.8120
G1 X98.001 Y116.379 E2.8225
G1 X98.060 Y116.178 E2.8293
G1 X98.060 Y113.411 E2.9188
G1 X101.411 Y110.060 E3.0719
G1 X102.417 Y110.060 E3.1045
G1 X102.777 Y109.814 E3.1186
G1 X102.777 Y98.328 E3.4899
G1 X103.007 Y97.199 E3.5271
G1 X103.702 Y95.563 E3.5846
G1 X103.998 Y95.031 E3.6043
G1 X104.865 Y93.800 E3.6530
G1 X105.267 Y93.342 E3.6727
G92 E0.0000
G1 E-2.5000 F1800
G1 X105.611 Y93.678 F4800
G1 E-0.7500 F1800
G92 E0.0000
G1 X106.681 Y92.692 E0.0470 F1600
G1 X107.129 Y92.360 E0.0651
G1 X108.384 Y91.623 E0.1121
G1 X108.892 Y91.393 E0.1301
G1 X110.274 Y90.936 E0.1772
G1 X110.819 Y90.819 E0.1952
G1 X112.266 Y90.664 E0.2423
G1 X112.824 Y90.664 E0.2603
G1 X114.271 Y90.819 E0.3073
G1 X114.816 Y90.936 E0.3254
G1 X116.198 Y91.393 E0.3724
G1 X116.706 Y91.623 E0.3905
G1 X117.960 Y92.360 E0.4375
G1 X118.408 Y92.692 E0.4555
G1 X119.479 Y93.678 E0.5026
G1 X119.846 Y94.097 E0.5206
G1 X120.685 Y95.287 E0.5676
G1 X120.956 Y95.774 E0.5857
G1 X121.622 Y97.343 E0.6408
G1 X121.832 Y98.377 E0.6749
G1 X121.832 Y121.166 E1.4116
G1 X121.460 Y121.539 E1.4287
G1 X121.460 Y126.390 E1.5855
G1 X118.391 Y129.460 E1.7259
G1 X101.610 Y129.460 E2.2684
G1 X98.540 Y126.390 E2.4087
G1 X98.540 Y121.747 E2.5588
G1 X98.461 Y121.477 E2.5679
G1 X98.393 Y121.185 E2.5776
G1 X98.244 Y120.316 E2.6061
G1 X98.210 Y120.019 E2.6158
G1 X98.160 Y119.139 E2.6443
G1 X98.161 Y118.839 E2.6540
G1 X98.212 Y117.959 E2.6825
G1 X98.246 Y117.662 E2.6921
G1 X98.397 Y116.793 E2.7206
G1 X98.465 Y116.501 E2.7303
G1 X98.540 Y116.247 E2.7389
G1 X98.540 Y113.610 E2.8242
G1 X101.610 Y110.540 E2.9645
G1 X102.565 Y110.540 E2.9954
G1 X103.040 Y110.216 E3.0140
G1 X103.257 Y110.085 E3.0222
G1 X103.257 Y98.377 E3.4007
G1 X103.468 Y97.343 E3.4348
G1 X104.134 Y95.774 E3.4899
G1 X104.405 Y95.287 E3.5079
G1 X105.243 Y94.097 E3.5550
G1 X105.611 Y93.678 E3.5730
G92 E0.0000
G1 E-2.5000 F1800
; feature inner perimeter
G1 X109.910 Y97.822 F4800
G1 E-0.7500 F1800
G92 E0.0000
G1 X110.457 Y97.318 E0.0241 F1240
G1 X111.098 Y96.941 E0.0481
G1 X111.805 Y96.707 E0.0722
G1 X112.545 Y96.628 E0.0962
G1 X113.285 Y96.707 E0.1203
G1 X113.991 Y96.941 E0.1443
G1 X114.633 Y97.318 E0.1684
G1 X115.180 Y97.822 E0.1924
G1 X115.609 Y98.430 E0.2165
G1 X115.872 Y99.051 E0.2383
G1 X115.872 Y118.279 E0.8599
G1 X113.259 Y118.283 E0.9444
G1 X113.229 Y118.054 E0.9518
G1 X113.073 Y117.469 E0.9714
G1 X112.845 Y116.908 E0.9910
G1 X112.549 Y116.380 E1.0106
G1 X112.189 Y115.893 E1.0301
G1 X111.771 Y115.455 E1.0497
G1 X111.301 Y115.073 E1.0693
G1 X110.787 Y114.753 E1.0889
G1 X110.237 Y114.500 E1.1084
G1 X109.660 Y114.318 E1.1280
G1 X109.217 Y114.237 E1.1425
G1 X109.217 Y99.051 E1.6335
G1 X109.481 Y98.430 E1.6553
G1 X109.794 Y97.985 E1.6729
G1 X109.910 Y97.822 F1240
; feature outer perimeter
G1 X109.547 Y97.503 F4800
G92 E0.0000
G1 X110.169 Y96.930 E0.0274 F880
G1 X110.899 Y96.501 E0.0547
G1 X111.703 Y96.235 E0.0821
G1 X112.545 Y96.146 E0.1095
G1 X113.386 Y96.235 E0.1368
G1 X114.190 Y96.501 E0.1642
G1 X114.920 Y96.930 E0.1916
G1 X115.543 Y97.503 E0.2189
G1 X116.031 Y98.195 E0.2463
G1 X116.352 Y98.953 E0.2729
G1 X116.352 Y118.758 E0.9132
G1 X113.352 Y118.762 E1.0102
G1 X113.352 Y119.279 E1.0269
G1 X113.288 Y119.830 E1.0448
G1 X113.162 Y120.371 E1.0628
G1 X112.975 Y120.893 E1.0807
G1 X112.730 Y121.391 E1.0986
G1 X112.430 Y121.857 E1.1166
G1 X112.078 Y122.287 E1.1345
G1 X111.680 Y122.673 E1.1525
G1 X111.240 Y123.012 E1.1704
G1 X110.765 Y123.298 E1.1883
G1 X110.260 Y123.528 E1.2063
G1 X109.732 Y123.699 E1.2242
G1 X109.188 Y123.808 E1.2421
G1 X108.635 Y123.856 E1.2601
G1 X108.080 Y123.839 E1.2780
G1 X107.531 Y123.760 E1.2960
G1 X106.995 Y123.618 E1.3139
G1 X106.478 Y123.416 E1.3318
G1 X105.987 Y123.157 E1.3498
G1 X105.530 Y122.844 E1.3677
G1 X105.111 Y122.480 E1.3856
G1 X104.736 Y122.071 E1.4036
G1 X104.410 Y121.622 E1.4215
G1 X104.138 Y121.138 E1.4395
G1 X103.922 Y120.627 E1.4574
G1 X103.766 Y120.094 E1.4753
G1 X103.672 Y119.548 E1.4933
G1 X103.641 Y118.994 E1.5112
G1 X103.673 Y118.440 E1.5291
G1 X103.768 Y117.893 E1.5471
G1 X103.925 Y117.361 E1.5650
G1 X104.141 Y116.850 E1.5830
G1 X104.415 Y116.367 E1.6009
G1 X104.741 Y115.918 E1.6188
G1 X105.117 Y115.510 E1.6368
G1 X105.536 Y115.147 E1.6547
G1 X105.995 Y114.834 E1.6727
G1 X106.486 Y114.576 E1.6906
G1 X107.003 Y114.375 E1.7085
G1 X107.539 Y114.234 E1.7265
G1 X108.089 Y114.156 E1.7444
G1 X108.737 Y114.138 E1.7654
G1 X108.737 Y98.953 E2.2563
G1 X109.059 Y98.195 E2.2829
G1 X109.431 Y97.667 E2.3038
G1 X109.547 Y97.503 F880
G1 X108.463 Y114.657 F4800
G92 E0.0000
G1 X107.920 Y114.696 E0.0176 F880
G1 X107.385 Y114.803 E0.0352
G1 X106.868 Y114.976 E0.0529
G1 X106.377 Y115.212 E0.0705
G1 X105.919 Y115.508 E0.0881
G1 X105.502 Y115.859 E0.1057
G1 X105.133 Y116.260 E0.1234
G1 X104.816 Y116.703 E0.1410
G1 X104.557 Y117.183 E0.1586
G1 X104.361 Y117.692 E0.1762
G1 X104.230 Y118.221 E0.1938
G1 X104.166 Y118.762 E0.2115
G1 X104.171 Y119.307 E0.2291
G1 X104.244 Y119.847 E0.2467
G1 X104.384 Y120.374 E0.2643
G1 X104.589 Y120.879 E0.2819
G1 X104.856 Y121.355 E0.2996
G1 X105.180 Y121.793 E0.3172
G1 X105.556 Y122.187 E0.3348
G1 X105.979 Y122.531 E0.3524
G1 X106.442 Y122.819 E0.3701
G1 X106.937 Y123.047 E0.3877
G1 X107.457 Y123.211 E0.4053
G1 X107.993 Y123.308 E0.4229
G1 X108.538 Y123.338 E0.4405
G1 X109.081 Y123.299 E0.4582
G1 X109.616 Y123.192 E0.4758
G1 X110.133 Y123.020 E0.4934
G1 X110.624 Y122.783 E0.5110
G1 X111.082 Y122.487 E0.5287
G1 X111.499 Y122.136 E0.5463
G1 X111.868 Y121.736 E0.5639
G1 X112.185 Y121.292 E0.5815
G1 X112.444 Y120.812 E0.5991
G1 X112.640 Y120.304 E0.6168
G1 X112.771 Y119.775 E0.6344
G1 X112.835 Y119.233 E0.6520
G1 X112.830 Y118.688 E0.6696
G1 X112.757 Y118.148 E0.6873
G1 X112.617 Y117.621 E0.7049
G1 X112.412 Y117.116 E0.7225
G1 X112.145 Y116.641 E0.7401
G1 X111.821 Y116.203 E0.7577
G1 X111.445 Y115.808 E0.7754
G1 X111.022 Y115.465 E0.7930
G1 X110.559 Y115.176 E0.8106
G1 X110.064 Y114.949 E0.8282
G1 X109.544 Y114.785 E0.8458
G1 X109.008 Y114.687 E0.8635
G1 X108.663 Y114.668 E0.8746
G1 X108.463 Y114.657 F880
; feature solid layer
G1 X109.890 Y113.962 F4800
G92 E0.0000
G1 X109.625 Y113.698 E0.0121 F1280
G1 X109.625 Y113.019 E0.0340
G1 X111.029 Y114.423 E0.0982
G1 X111.538 Y114.740 E0.1176
G1 X112.048 Y115.155 E0.1388
G1 X112.502 Y115.630 E0.1601
G1 X112.892 Y116.158 E0.1813
G1 X113.057 Y116.451 E0.1922
G1 X114.479 Y117.873 E0.2572
G1 X115.157 Y117.872 E0.2791
G1 X109.625 Y112.341 E0.5320
G1 X109.625 Y111.662 E0.5539
G1 X115.464 Y117.501 E0.8209
G1 X115.464 Y116.822 E0.8428
G1 X109.625 Y110.983 E1.1098
G1 X109.625 Y110.304 E1.1317
G1 X115.464 Y116.143 E1.3987
G1 X115.464 Y115.464 E1.4206
G1 X109.625 Y109.625 E1.6876
G1 X109.625 Y108.946 E1.7095
G1 X115.464 Y114.785 E1.9765
G1 X115.464 Y114.107 E1.9984
G1 X109.625 Y108.268 E2.2654
G1 X109.625 Y107.589 E2.2873
G1 X115.464 Y113.428 E2.5543
G1 X115.464 Y112.749 E2.5762
G1 X109.625 Y106.910 E2.8432
G1 X109.625 Y106.231 E2.8651
G1 X115.464 Y112.070 E3.1321
G1 X115.464 Y111.391 E3.1540
G1 X109.625 Y105.552 E3.4209
G1 X109.625 Y104.874 E3.4429
G1 X115.464 Y110.712 E3.7098
G1 X115.464 Y110.034 E3.7318
G1 X109.625 Y104.195 E3.9987
G1 X109.625 Y103.516 E4.0207
G1 X115.464 Y109.355 E4.2876
G1 X115.464 Y108.676 E4.3096
