; G-Code generated by Simplify3D(R) Version 4.1.2
; May 26, 2020 at 3:16:49 PM
; Settings Summary
;   processName,Calibration Cube
;   applyToModels,Cable_Loop_Clip
;   profileName,Anet A8 (modified)
;   profileVersion,2020-05-17 12:50:12
;   baseProfile,
;   printMaterial,PETG
;   printQuality,Medium
;   printExtruders,
;   extruderName,Primary Extruder
;   extruderToolheadNumber,0
;   extruderDiameter,0.4
;   extruderAutoWidth,1
;   extruderWidth,0.48
;   extrusionMultiplier,0.9
;   extruderUseRetract,1
;   extruderRetractionDistance,2.5
;   extruderExtraRestartDistance,-0.75
;   extruderRetractionZLift,0
;   extruderRetractionSpeed,1800
;   extruderUseCoasting,1
;   extruderCoastingDistance,0.2
;   extruderUseWipe,0
;   extruderWipeDistance,5
;   primaryExtruder,0
;   layerHeight,0.2
;   topSolidLayers,3
;   bottomSolidLayers,3
;   perimeterOutlines,2
;   printPerimetersInsideOut,1
;   startPointOption,2
;   startPointOriginX,0
;   startPointOriginY,0
;   sequentialIslands,0
;   spiralVaseMode,0
;   firstLayerHeightPercentage,90
;   firstLayerWidthPercentage,100
;   firstLayerUnderspeed,0.5
;   useRaft,0
;   raftExtruder,0
;   raftTopLayers,3
;   raftBaseLayers,2
;   raftOffset,3
;   raftSeparationDistance,0.14
;   raftTopInfill,100
;   aboveRaftSpeedMultiplier,0.3
;   useSkirt,1
;   skirtExtruder,0
;   skirtLayers,1
;   skirtOutlines,3
;   skirtOffset,5
;   usePrimePillar,0
;   primePillarExtruder,999
;   primePillarWidth,12
;   primePillarLocation,7
;   primePillarSpeedMultiplier,1
;   useOozeShield,0
;   oozeShieldExtruder,999
;   oozeShieldOffset,2
;   oozeShieldOutlines,1
;   oozeShieldSidewallShape,1
;   oozeShieldSidewallAngle,30
;   oozeShieldSpeedMultiplier,1
;   infillExtruder,0
;   internalInfillPattern,Rectilinear
;   externalInfillPattern,Rectilinear
;   infillPercentage,50
;   outlineOverlapPercentage,15
;   infillExtrusionWidthPercentage,100
;   minInfillLength,5
;   infillLayerInterval,1
;   internalInfillAngles,45,-45
;   overlapInternalInfillAngles,0
;   externalInfillAngles,45,-45
;   generateSupport,0
;   supportExtruder,0
;   supportInfillPercentage,70
;   supportExtraInflation,0
;   supportBaseLayers,0
;   denseSupportExtruder,0
;   denseSupportLayers,0
;   denseSupportInfillPercentage,70
;   supportLayerInterval,1
;   supportHorizontalPartOffset,0.3
;   supportUpperSeparationLayers,1
;   supportLowerSeparationLayers,1
;   supportType,0
;   supportGridSpacing,4
;   maxOverhangAngle,45
;   supportAngles,0
;   temperatureName,Primary Extruder,Heated Bed
;   temperatureNumber,0,0
;   temperatureSetpointCount,1,1
;   temperatureSetpointLayers,1,1
;   temperatureSetpointTemperatures,225,70
;   temperatureStabilizeAtStartup,1,1
;   temperatureHeatedBed,0,1
;   fanLayers,1,2
;   fanSpeeds,0,100
;   blipFanToFullPower,0
;   adjustSpeedForCooling,1
;   minSpeedLayerTime,15
;   minCoolingSpeedSlowdown,20
;   increaseFanForCooling,0
;   minFanLayerTime,45
;   maxCoolingFanSpeed,100
;   increaseFanForBridging,0
;   bridgingFanSpeed,100
;   use5D,1
;   relativeEdistances,0
;   allowEaxisZeroing,1
;   independentExtruderAxes,0
;   includeM10123,0
;   stickySupport,1
;   applyToolheadOffsets,0
;   gcodeXoffset,0
;   gcodeYoffset,0
;   gcodeZoffset,0
;   overrideMachineDefinition,1
;   machineTypeOverride,0
;   strokeXoverride,220
;   strokeYoverride,220
;   strokeZoverride,240
;   originOffsetXoverride,0
;   originOffsetYoverride,0
;   originOffsetZoverride,0
;   homeXdirOverride,-1
;   homeYdirOverride,-1
;   homeZdirOverride,-1
;   flipXoverride,1
;   flipYoverride,-1
;   flipZoverride,1
;   toolheadOffsets,0,0|0,0|0,0|0,0|0,0|0,0
;   overrideFirmwareConfiguration,1
;   firmwareTypeOverride,RepRap (Marlin/Repetier/Sprinter)
;   GPXconfigOverride,r2
;   baudRateOverride,115200
;   overridePrinterModels,1
;   printerModelsOverride
;   startingGcode,M107 ; fan off,G28 ; home all axes,G29 ; run auto bed leveling,M500 ; store level values in EEPROM,G1 X0 Y20 Z0.2 F3000 ; get ready to prime on lower end,; G1 X0 Y190 Z0.2 F3000 ; get ready to prime on high end,G92 E0 ; reset extrusion distance,G1 X200 E10 F600 ; prime nozzle
;   layerChangeGcode,
;   retractionGcode,
;   toolChangeGcode,
;   endingGcode,M104 S0 ; turn off extruder,M140 S0 ; turn off bed,G91 ; use relative coordinates for jogging,G1 Z20 F1000 ; raise Z by 20mm at 1000 mm/min,G90 ; switch back to absolute coordinates,G1 X0 Y200 F1000 ; prepare for part removal,M84 ; disable motors,M107 ; turn off fan
;   exportFileFormat,gcode
;   celebration,0
;   celebrationSong,Random Song
;   postProcessing,
;   defaultSpeed,3200
;   outlineUnderspeed,0.55
;   solidInfillUnderspeed,0.8
;   supportUnderspeed,0.8
;   rapidXYspeed,4800
;   rapidZspeed,1000
;   minBridgingArea,50
;   bridgingExtraInflation,0
;   bridgingExtrusionMultiplier,1
;   bridgingSpeedMultiplier,1
;   useFixedBridgingAngle,0
;   fixedBridgingAngle,0
;   applyBridgingToPerimeters,0
;   filamentDiameters,1.75|1.75|1.75|1.75|1.75|1.75
;   filamentPricesPerKg,23.99|46|46|46|46|46
;   filamentDensities,1.25|1.25|1.25|1.25|1.25|1.25
;   useMinPrintHeight,0
;   minPrintHeight,0
;   useMaxPrintHeight,0
;   maxPrintHeight,0
;   useDiaphragm,0
;   diaphragmLayerInterval,20
;   robustSlicing,1
;   mergeAllIntoSolid,0
;   onlyRetractWhenCrossingOutline,1
;   retractBetweenLayers,1
;   useRetractionMinTravel,0
;   retractionMinTravel,3
;   retractWhileWiping,0
;   onlyWipeOutlines,1
;   avoidCrossingOutline,0
;   maxMovementDetourFactor,3
;   toolChangeRetractionDistance,12
;   toolChangeExtraRestartDistance,-0.5
;   toolChangeRetractionSpeed,600
;   externalThinWallType,0
;   internalThinWallType,2
;   thinWallAllowedOverlapPercentage,10
;   singleExtrusionMinLength,1
;   singleExtrusionMinPrintingWidthPercentage,50
;   singleExtrusionMaxPrintingWidthPercentage,200
;   singleExtrusionEndpointExtension,0.2
;   horizontalSizeCompensation,0
G90
M82
M106 S0
M140 S70
M190 S70
M104 S225 T0
M109 S225 T0
M107 ; fan off
G28 ; home all axes
G29 ; run auto bed leveling
M500 ; store level values in EEPROM
G1 X0 Y20 Z0.2 F3000 ; get ready to prime on lower end
; G1 X0 Y190 Z0.2 F3000 ; get ready to prime on high end
G92 E0 ; reset extrusion distance
G1 X200 E10 F600 ; prime nozzle
; process Calibration Cube
; layer 1, Z = 0.180
T0
G92 E0.0000
G1 E-2.5000 F1800
; feature skirt
; tool H0.180 W0.480
G1 Z0.180 F1000
G1 X95.687 Y95.297 F4800
G1 E-0.7500 F1800
G92 E0.0000
G1 X113.984 Y95.317 E0.5915 F948
G1 X114.369 Y95.341 E0.6040
G1 X115.765 Y95.518 E0.6495
G1 X116.052 Y95.568 E0.6589
G1 X116.859 Y95.748 E0.6856
G1 X117.141 Y95.825 E0.6951
G1 X118.480 Y96.261 E0.7406
G1 X118.843 Y96.404 E0.7532
G1 X120.161 Y97.024 E0.8003
G1 X120.502 Y97.212 E0.8129
G1 X121.733 Y97.993 E0.8600
G1 X122.048 Y98.222 E0.8726
G1 X123.171 Y99.151 E0.9197
G1 X123.455 Y99.417 E0.9323
G1 X124.452 Y100.480 E0.9794
G1 X124.701 Y100.780 E0.9920
G1 X125.529 Y101.919 E1.0376
G1 X125.689 Y102.164 E1.0470
G1 X126.110 Y102.875 E1.0737
G1 X126.246 Y103.133 E1.0832
G1 X126.846 Y104.407 E1.1287
G1 X126.989 Y104.770 E1.1413
G1 X127.440 Y106.155 E1.1884
G1 X127.537 Y106.533 E1.2010
G1 X127.810 Y107.964 E1.2481
G1 X127.859 Y108.351 E1.2607
G1 X127.950 Y109.805 E1.3078
G1 X127.950 Y110.195 E1.3204
G1 X127.862 Y111.601 E1.3660
G1 X127.829 Y111.891 E1.3754
G1 X127.700 Y112.707 E1.4021
G1 X127.641 Y112.993 E1.4116
G1 X127.303 Y114.310 E1.4555
G1 X127.217 Y114.589 E1.4650
G1 X126.937 Y115.367 E1.4917
G1 X126.825 Y115.637 E1.5011
G1 X126.226 Y116.911 E1.5467
G1 X126.038 Y117.253 E1.5593
G1 X125.257 Y118.483 E1.6064
G1 X125.028 Y118.798 E1.6190
G1 X124.099 Y119.921 E1.6661
G1 X123.832 Y120.205 E1.6787
G1 X122.806 Y121.169 E1.7242
G1 X122.584 Y121.359 E1.7336
G1 X121.931 Y121.865 E1.7603
G1 X121.692 Y122.033 E1.7698
G1 X120.502 Y122.788 E1.8153
G1 X120.161 Y122.976 E1.8279
G1 X118.887 Y123.575 E1.8735
G1 X118.617 Y123.687 E1.8829
G1 X117.885 Y123.950 E1.9081
G1 X117.700 Y124.011 E1.9143
G1 X116.953 Y124.227 E1.9395
G1 X116.669 Y124.296 E1.9489
G1 X115.286 Y124.560 E1.9945
G1 X114.899 Y124.608 E2.0071
G1 X113.542 Y124.694 E2.0510
G1 X113.347 Y124.700 E2.0573
G1 X95.682 Y124.700 E2.6284
G1 X92.050 Y121.068 E2.7945
G1 X92.050 Y110.932 E3.1222
G1 X92.982 Y110.000 E3.1648
G1 X92.050 Y109.068 E3.2074
G1 X92.050 Y98.930 E3.5351
G1 X95.687 Y95.297 E3.7013
G92 E0.0000
G1 E-2.5000 F1800
G1 X95.885 Y95.777 F4800
G1 E-0.7500 F1800
G92 E0.0000
G1 X113.968 Y95.797 E0.5846 F948
G1 X114.324 Y95.820 E0.5961
G1 X115.693 Y95.993 E0.6408
G1 X115.959 Y96.039 E0.6495
G1 X116.743 Y96.214 E0.6754
G1 X117.003 Y96.285 E0.6842
G1 X118.318 Y96.712 E0.7288
G1 X118.652 Y96.845 E0.7405
G1 X119.943 Y97.452 E0.7866
G1 X120.258 Y97.625 E0.7982
G1 X121.463 Y98.390 E0.8444
G1 X121.754 Y98.602 E0.8560
G1 X122.853 Y99.511 E0.9021
G1 X123.115 Y99.757 E0.9137
G1 X124.092 Y100.797 E0.9599
G1 X124.321 Y101.074 E0.9715
G1 X125.134 Y102.192 E1.0162
G1 X125.282 Y102.418 E1.0249
G1 X125.691 Y103.110 E1.0509
G1 X125.817 Y103.348 E1.0596
G1 X126.405 Y104.598 E1.1043
G1 X126.538 Y104.932 E1.1159
G1 X126.979 Y106.289 E1.1620
G1 X127.068 Y106.638 E1.1736
G1 X127.335 Y108.040 E1.2198
G1 X127.380 Y108.396 E1.2314
G1 X127.470 Y109.820 E1.2775
G1 X127.470 Y110.180 E1.2891
G1 X127.383 Y111.559 E1.3338
G1 X127.354 Y111.827 E1.3425
G1 X127.228 Y112.621 E1.3685
G1 X127.173 Y112.885 E1.3772
G1 X126.841 Y114.180 E1.4204
G1 X126.761 Y114.437 E1.4292
G1 X126.489 Y115.194 E1.4552
G1 X126.386 Y115.443 E1.4639
G1 X125.798 Y116.693 E1.5085
G1 X125.624 Y117.008 E1.5202
G1 X124.860 Y118.213 E1.5663
G1 X124.648 Y118.504 E1.5779
G1 X123.739 Y119.603 E1.6241
G1 X123.493 Y119.865 E1.6357
G1 X122.486 Y120.811 E1.6803
G1 X122.281 Y120.986 E1.6891
G1 X121.646 Y121.479 E1.7150
G1 X121.425 Y121.634 E1.7238
G1 X120.258 Y122.374 E1.7684
G1 X119.943 Y122.548 E1.7801
G1 X118.693 Y123.136 E1.8247
G1 X118.443 Y123.239 E1.8335
G1 X117.729 Y123.496 E1.8580
G1 X117.559 Y123.552 E1.8638
G1 X116.830 Y123.763 E1.8883
G1 X116.568 Y123.826 E1.8970
G1 X115.210 Y124.085 E1.9417
G1 X114.854 Y124.130 E1.9533
G1 X113.520 Y124.214 E1.9966
G1 X113.340 Y124.220 E2.0024
G1 X95.881 Y124.220 E2.5668
G1 X92.530 Y120.869 E2.7200
G1 X92.530 Y111.131 E3.0348
G1 X93.661 Y110.000 E3.0865
G1 X92.530 Y108.869 E3.1382
G1 X92.530 Y99.129 E3.4531
G1 X95.885 Y95.777 E3.6064
G92 E0.0000
G1 E-2.5000 F1800
G1 X96.084 Y96.258 F4800
G1 E-0.7500 F1800
G92 E0.0000
G1 X113.953 Y96.277 E0.5777 F948
G1 X114.278 Y96.298 E0.5882
G1 X115.622 Y96.467 E0.6320
G1 X115.865 Y96.510 E0.6400
G1 X116.627 Y96.680 E0.6653
G1 X116.866 Y96.745 E0.6732
G1 X118.155 Y97.164 E0.7171
G1 X118.461 Y97.286 E0.7277
G1 X119.725 Y97.880 E0.7729
G1 X120.014 Y98.039 E0.7835
G1 X121.193 Y98.787 E0.8287
G1 X121.460 Y98.981 E0.8393
G1 X122.536 Y99.871 E0.8845
G1 X122.776 Y100.097 E0.8951
G1 X123.732 Y101.115 E0.9403
G1 X123.942 Y101.369 E0.9509
G1 X124.739 Y102.465 E0.9948
G1 X124.874 Y102.672 E1.0027
G1 X125.272 Y103.344 E1.0280
G1 X125.387 Y103.562 E1.0360
G1 X125.964 Y104.789 E1.0798
G1 X126.086 Y105.095 E1.0904
G1 X126.517 Y106.423 E1.1356
G1 X126.599 Y106.743 E1.1462
G1 X126.861 Y108.115 E1.1914
G1 X126.902 Y108.441 E1.2021
G1 X126.990 Y109.835 E1.2472
G1 X126.990 Y110.165 E1.2579
G1 X126.905 Y111.518 E1.3017
G1 X126.878 Y111.764 E1.3097
G1 X126.755 Y112.535 E1.3349
G1 X126.705 Y112.776 E1.3429
G1 X126.379 Y114.049 E1.3854
G1 X126.306 Y114.286 E1.3934
G1 X126.041 Y115.020 E1.4186
G1 X125.947 Y115.248 E1.4266
G1 X125.370 Y116.475 E1.4704
G1 X125.211 Y116.764 E1.4811
G1 X124.463 Y117.943 E1.5262
G1 X124.269 Y118.209 E1.5369
G1 X123.379 Y119.286 E1.5820
G1 X123.153 Y119.526 E1.5927
G1 X122.165 Y120.454 E1.6365
G1 X121.977 Y120.614 E1.6445
G1 X121.360 Y121.093 E1.6697
G1 X121.158 Y121.235 E1.6777
G1 X120.014 Y121.961 E1.7216
G1 X119.725 Y122.120 E1.7322
G1 X118.498 Y122.697 E1.7760
G1 X118.270 Y122.792 E1.7840
G1 X117.574 Y123.042 E1.8079
G1 X117.418 Y123.093 E1.8132
G1 X116.707 Y123.299 E1.8372
G1 X116.467 Y123.357 E1.8451
G1 X115.135 Y123.611 E1.8890
G1 X114.809 Y123.652 E1.8996
G1 X113.497 Y123.735 E1.9421
G1 X113.332 Y123.740 E1.9474
G1 X96.080 Y123.740 E2.5052
G1 X93.010 Y120.670 E2.6455
G1 X93.010 Y111.330 E2.9475
G1 X94.340 Y110.000 E3.0083
G1 X93.010 Y108.670 E3.0691
G1 X93.010 Y99.328 E3.3711
G1 X96.084 Y96.258 E3.5116
G92 E0.0000
G1 E-2.5000 F1800
; feature outer perimeter
G1 X98.490 Y101.740 F4800
G1 E-0.7500 F1800
G92 E0.0000
G1 X113.246 Y101.740 E0.4771 F521
G1 X113.769 Y101.756 E0.4939
G1 X114.285 Y101.805 E0.5107
G1 X114.798 Y101.886 E0.5275
G1 X115.304 Y102.000 E0.5443
G1 X115.802 Y102.144 E0.5610
G1 X116.291 Y102.320 E0.5778
G1 X116.767 Y102.526 E0.5946
G1 X117.229 Y102.762 E0.6114
G1 X117.676 Y103.026 E0.6282
G1 X118.105 Y103.318 E0.6449
G1 X118.515 Y103.636 E0.6617
G1 X118.904 Y103.979 E0.6785
G1 X119.271 Y104.346 E0.6953
G1 X119.614 Y104.735 E0.7120
G1 X119.932 Y105.145 E0.7288
G1 X120.224 Y105.574 E0.7456
G1 X120.488 Y106.021 E0.7624
G1 X120.724 Y106.483 E0.7791
G1 X120.930 Y106.959 E0.7959
G1 X121.106 Y107.448 E0.8127
G1 X121.250 Y107.946 E0.8295
G1 X121.364 Y108.452 E0.8462
G1 X121.445 Y108.965 E0.8630
G1 X121.494 Y109.481 E0.8798
G1 X121.510 Y110.000 E0.8966
G1 X121.494 Y110.519 E0.9133
G1 X121.445 Y111.035 E0.9301
G1 X121.364 Y111.548 E0.9469
G1 X121.250 Y112.054 E0.9637
G1 X121.106 Y112.552 E0.9804
G1 X120.930 Y113.041 E0.9972
G1 X120.724 Y113.517 E1.0140
G1 X120.488 Y113.979 E1.0308
G1 X120.224 Y114.426 E1.0475
G1 X119.932 Y114.855 E1.0643
G1 X119.614 Y115.265 E1.0811
G1 X119.271 Y115.654 E1.0979
G1 X118.904 Y116.021 E1.1146
G1 X118.515 Y116.364 E1.1314
G1 X118.105 Y116.682 E1.1482
G1 X117.676 Y116.974 E1.1650
G1 X117.229 Y117.238 E1.1817
G1 X116.767 Y117.474 E1.1985
G1 X116.291 Y117.680 E1.2153
G1 X115.802 Y117.856 E1.2321
G1 X115.304 Y118.000 E1.2488
G1 X114.798 Y118.114 E1.2656
G1 X114.285 Y118.195 E1.2824
G1 X113.769 Y118.244 E1.2992
G1 X113.246 Y118.260 E1.3161
G1 X98.490 Y118.260 E1.7931
G1 X98.490 Y113.740 E1.9392
G1 X100.010 Y113.740 E1.9884
G1 X100.010 Y114.260 E2.0052
G1 X99.010 Y114.260 E2.0375
G1 X99.010 Y117.740 E2.1500
G1 X113.254 Y117.740 E2.6105
G1 X113.736 Y117.725 E2.6261
G1 X114.220 Y117.679 E2.6418
G1 X114.700 Y117.603 E2.6575
G1 X115.175 Y117.497 E2.6733
G1 X115.642 Y117.361 E2.6890
G1 X116.099 Y117.197 E2.7047
G1 X116.546 Y117.003 E2.7204
G1 X116.979 Y116.783 E2.7361
G1 X117.397 Y116.535 E2.7519
G1 X117.800 Y116.262 E2.7676
G1 X118.184 Y115.964 E2.7833
G1 X118.548 Y115.642 E2.7990
G1 X118.892 Y115.298 E2.8147
G1 X119.214 Y114.934 E2.8305
G1 X119.512 Y114.550 E2.8462
G1 X119.785 Y114.147 E2.8619
G1 X120.033 Y113.729 E2.8776
G1 X120.253 Y113.296 E2.8933
G1 X120.447 Y112.849 E2.9091
G1 X120.611 Y112.392 E2.9248
G1 X120.747 Y111.925 E2.9405
G1 X120.853 Y111.450 E2.9562
G1 X120.929 Y110.970 E2.9719
G1 X120.975 Y110.486 E2.9877
G1 X120.990 Y110.000 E3.0034
G1 X120.975 Y109.514 E3.0191
G1 X120.929 Y109.030 E3.0348
G1 X120.853 Y108.550 E3.0505
G1 X120.747 Y108.075 E3.0663
G1 X120.611 Y107.608 E3.0820
G1 X120.447 Y107.151 E3.0977
G1 X120.253 Y106.704 E3.1134
G1 X120.033 Y106.271 E3.1291
G1 X119.785 Y105.853 E3.1449
G1 X119.512 Y105.450 E3.1606
G1 X119.214 Y105.066 E3.1763
G1 X118.892 Y104.702 E3.1920
G1 X118.548 Y104.358 E3.2077
G1 X118.184 Y104.036 E3.2235
G1 X117.800 Y103.738 E3.2392
G1 X117.397 Y103.465 E3.2549
G1 X116.979 Y103.217 E3.2706
G1 X116.546 Y102.997 E3.2863
G1 X116.099 Y102.803 E3.3021
G1 X115.642 Y102.639 E3.3178
G1 X115.175 Y102.503 E3.3335
G1 X114.700 Y102.397 E3.3492
G1 X114.220 Y102.321 E3.3649
G1 X113.732 Y102.275 E3.3808
G1 X113.254 Y102.260 E3.3963
G1 X99.010 Y102.260 E3.8567
G1 X99.010 Y105.740 E3.9692
G1 X100.010 Y105.740 E4.0016
G1 X100.010 Y106.260 E4.0184
G1 X98.490 Y106.260 E4.0675
G1 X98.490 Y101.940 E4.2072
G1 X98.490 Y101.740 F521
G92 E0.0000
G1 E-2.5000 F1800
; layer 2, Z = 0.380
M106 S255
; tool H0.200 W0.480
G1 Z0.380 F1000
G1 E-0.7500 F1800
G92 E0.0000
G1 X113.246 Y101.740 E0.5301 F521
G1 X113.769 Y101.756 E0.5488
G1 X114.285 Y101.805 E0.5675
G1 X114.798 Y101.886 E0.5861
G1 X115.304 Y102.000 E0.6047
G1 X115.802 Y102.144 E0.6234
G1 X116.291 Y102.320 E0.6420
G1 X116.767 Y102.526 E0.6607
G1 X117.229 Y102.762 E0.6793
