; G-Code generated by Simplify3D(R) Version 4.1.2
; May 26, 2020 at 3:17:19 PM
; Settings Summary
;   processName,Calibration Cube
;   applyToModels,Cable_Loop_Clip,Cable_Loop_Clip(2),Cable_Loop_Clip(3),Cable_Loop_Clip(4),Cable_Loop_Clip(5),Cable_Loop_Clip(6),Cable_Loop_Clip(7),Cable_Loop_Clip(8),Cable_Loop_Clip(9),Cable_Loop_Clip(10)
;   profileName,Anet A8 (modified)
;   profileVersion,2020-05-17 12:50:12
;   baseProfile,
;   printMaterial,PETG
;   printQuality,Medium
;   printExtruders,
;   extruderName,Primary Extruder
;   extruderToolheadNumber,0
;   extruderDiameter,0.4
;   extruderAutoWidth,1
;   extruderWidth,0.48
;   extrusionMultiplier,0.9
;   extruderUseRetract,1
;   extruderRetractionDistance,2.5
;   extruderExtraRestartDistance,-0.75
;   extruderRetractionZLift,0
;   extruderRetractionSpeed,1800
;   extruderUseCoasting,1
;   extruderCoastingDistance,0.2
;   extruderUseWipe,0
;   extruderWipeDistance,5
;   primaryExtruder,0
;   layerHeight,0.2
;   topSolidLayers,3
;   bottomSolidLayers,3
;   perimeterOutlines,2
;   printPerimetersInsideOut,1
;   startPointOption,2
;   startPointOriginX,0
;   startPointOriginY,0
;   sequentialIslands,0
;   spiralVaseMode,0
;   firstLayerHeightPercentage,90
;   firstLayerWidthPercentage,100
;   firstLayerUnderspeed,0.5
;   useRaft,0
;   raftExtruder,0
;   raftTopLayers,3
;   raftBaseLayers,2
;   raftOffset,3
;   raftSeparationDistance,0.14
;   raftTopInfill,100
;   aboveRaftSpeedMultiplier,0.3
;   useSkirt,1
;   skirtExtruder,0
;   skirtLayers,1
;   skirtOutlines,3
;   skirtOffset,5
;   usePrimePillar,0
;   primePillarExtruder,999
;   primePillarWidth,12
;   primePillarLocation,7
;   primePillarSpeedMultiplier,1
;   useOozeShield,0
;   oozeShieldExtruder,999
;   oozeShieldOffset,2
;   oozeShieldOutlines,1
;   oozeShieldSidewallShape,1
;   oozeShieldSidewallAngle,30
;   oozeShieldSpeedMultiplier,1
;   infillExtruder,0
;   internalInfillPattern,Rectilinear
;   externalInfillPattern,Rectilinear
;   infillPercentage,50
;   outlineOverlapPercentage,15
;   infillExtrusionWidthPercentage,100
;   minInfillLength,5
;   infillLayerInterval,1
;   internalInfillAngles,45,-45
;   overlapInternalInfillAngles,0
;   externalInfillAngles,45,-45
;   generateSupport,0
;   supportExtruder,0
;   supportInfillPercentage,70
;   supportExtraInflation,0
;   supportBaseLayers,0
;   denseSupportExtruder,0
;   denseSupportLayers,0
;   denseSupportInfillPercentage,70
;   supportLayerInterval,1
;   supportHorizontalPartOffset,0.3
;   supportUpperSeparationLayers,1
;   supportLowerSeparationLayers,1
;   supportType,0
;   supportGridSpacing,4
;   maxOverhangAngle,45
;   supportAngles,0
;   temperatureName,Primary Extruder,Heated Bed
;   temperatureNumber,0,0
;   temperatureSetpointCount,1,1
;   temperatureSetpointLayers,1,1
;   temperatureSetpointTemperatures,225,70
;   temperatureStabilizeAtStartup,1,1
;   temperatureHeatedBed,0,1
;   fanLayers,1,2
;   fanSpeeds,0,100
;   blipFanToFullPower,0
;   adjustSpeedForCooling,1
;   minSpeedLayerTime,15
;   minCoolingSpeedSlowdown,20
;   increaseFanForCooling,0
;   minFanLayerTime,45
;   maxCoolingFanSpeed,100
;   increaseFanForBridging,0
;   bridgingFanSpeed,100
;   use5D,1
;   relativeEdistances,0
;   allowEaxisZeroing,1
;   independentExtruderAxes,0
;   includeM10123,0
;   stickySupport,1
;   applyToolheadOffsets,0
;   gcodeXoffset,0
;   gcodeYoffset,0
;   gcodeZoffset,0
;   overrideMachineDefinition,1
;   machineTypeOverride,0
;   strokeXoverride,220
;   strokeYoverride,220
;   strokeZoverride,240
;   originOffsetXoverride,0
;   originOffsetYoverride,0
;   originOffsetZoverride,0
;   homeXdirOverride,-1
;   homeYdirOverride,-1
;   homeZdirOverride,-1
;   flipXoverride,1
;   flipYoverride,-1
;   flipZoverride,1
;   toolheadOffsets,0,0|0,0|0,0|0,0|0,0|0,0
;   overrideFirmwareConfiguration,1
;   firmwareTypeOverride,RepRap (Marlin/Repetier/Sprinter)
;   GPXconfigOverride,r2
;   baudRateOverride,115200
;   overridePrinterModels,1
;   printerModelsOverride
;   startingGcode,M107 ; fan off,G28 ; home all axes,G29 ; run auto bed leveling,M500 ; store level values in EEPROM,G1 X0 Y20 Z0.2 F3000 ; get ready to prime on lower end,; G1 X0 Y190 Z0.2 F3000 ; get ready to prime on high end,G92 E0 ; reset extrusion distance,G1 X200 E10 F600 ; prime nozzle
;   layerChangeGcode,
;   retractionGcode,
;   toolChangeGcode,
;   endingGcode,M104 S0 ; turn off extruder,M140 S0 ; turn off bed,G91 ; use relative coordinates for jogging,G1 Z20 F1000 ; raise Z by 20mm at 1000 mm/min,G90 ; switch back to absolute coordinates,G1 X0 Y200 F1000 ; prepare for part removal,M84 ; disable motors,M107 ; turn off fan
;   exportFileFormat,gcode
;   celebration,0
;   celebrationSong,Random Song
;   postProcessing,
;   defaultSpeed,3200
;   outlineUnderspeed,0.55
;   solidInfillUnderspeed,0.8
;   supportUnderspeed,0.8
;   rapidXYspeed,4800
;   rapidZspeed,1000
;   minBridgingArea,50
;   bridgingExtraInflation,0
;   bridgingExtrusionMultiplier,1
;   bridgingSpeedMultiplier,1
;   useFixedBridgingAngle,0
;   fixedBridgingAngle,0
;   applyBridgingToPerimeters,0
;   filamentDiameters,1.75|1.75|1.75|1.75|1.75|1.75
;   filamentPricesPerKg,23.99|46|46|46|46|46
;   filamentDensities,1.25|1.25|1.25|1.25|1.25|1.25
;   useMinPrintHeight,0
;   minPrintHeight,0
;   useMaxPrintHeight,0
;   maxPrintHeight,0
;   useDiaphragm,0
;   diaphragmLayerInterval,20
;   robustSlicing,1
;   mergeAllIntoSolid,0
;   onlyRetractWhenCrossingOutline,1
;   retractBetweenLayers,1
;   useRetractionMinTravel,0
;   retractionMinTravel,3
;   retractWhileWiping,0
;   onlyWipeOutlines,1
;   avoidCrossingOutline,0
;   maxMovementDetourFactor,3
;   toolChangeRetractionDistance,12
;   toolChangeExtraRestartDistance,-0.5
;   toolChangeRetractionSpeed,600
;   externalThinWallType,0
;   internalThinWallType,2
;   thinWallAllowedOverlapPercentage,10
;   singleExtrusionMinLength,1
;   singleExtrusionMinPrintingWidthPercentage,50
;   singleExtrusionMaxPrintingWidthPercentage,200
;   singleExtrusionEndpointExtension,0.2
;   horizontalSizeCompensation,0
G90
M82
M106 S0
M140 S70
M190 S70
M104 S225 T0
M109 S225 T0
M107 ; fan off
G28 ; home all axes
G29 ; run auto bed leveling
M500 ; store level values in EEPROM
G1 X0 Y20 Z0.2 F3000 ; get ready to prime on lower end
; G1 X0 Y190 Z0.2 F3000 ; get ready to prime on high end
G92 E0 ; reset extrusion distance
G1 X200 E10 F600 ; prime nozzle
; process Calibration Cube
; layer 1, Z = 0.180
T0
G92 E0.0000
G1 E-2.5000 F1800
; feature skirt
; tool H0.180 W0.480
G1 Z0.180 F1000
G1 X63.550 Y65.930 F4800
G1 E-0.7500 F1800
G92 E0.0000
G1 X67.187 Y62.297 E0.1662 F1600
G1 X85.484 Y62.317 E0.7577
G1 X85.869 Y62.341 E0.7702
G1 X87.265 Y62.518 E0.8157
G1 X87.552 Y62.568 E0.8251
G1 X88.359 Y62.748 E0.8518
G1 X88.641 Y62.825 E0.8613
G1 X89.980 Y63.261 E0.9068
G1 X90.343 Y63.404 E0.9194
G1 X91.661 Y64.024 E0.9665
G1 X92.002 Y64.212 E0.9791
G1 X93.083 Y64.898 E1.0205
G1 X95.687 Y62.297 E1.1394
G1 X113.984 Y62.317 E1.7310
G1 X114.369 Y62.341 E1.7435
G1 X115.765 Y62.518 E1.7889
G1 X116.052 Y62.568 E1.7984
G1 X116.859 Y62.748 E1.8251
G1 X117.141 Y62.825 E1.8345
G1 X118.480 Y63.261 E1.8801
G1 X118.843 Y63.404 E1.8927
G1 X120.161 Y64.024 E1.9398
G1 X120.502 Y64.212 E1.9524
G1 X121.583 Y64.898 E1.9937
G1 X124.187 Y62.297 E2.1127
G1 X142.484 Y62.317 E2.7042
G1 X142.869 Y62.341 E2.7167
G1 X144.265 Y62.518 E2.7622
G1 X144.552 Y62.568 E2.7716
G1 X145.359 Y62.748 E2.7984
G1 X145.641 Y62.825 E2.8078
G1 X146.980 Y63.261 E2.8533
G1 X147.343 Y63.404 E2.8659
G1 X148.661 Y64.024 E2.9130
G1 X149.002 Y64.212 E2.9256
G1 X150.233 Y64.993 E2.9727
G1 X150.548 Y65.222 E2.9854
G1 X151.671 Y66.151 E3.0325
G1 X151.955 Y66.417 E3.0450
G1 X152.952 Y67.480 E3.0922
G1 X153.201 Y67.780 E3.1048
G1 X154.029 Y68.919 E3.1503
G1 X154.189 Y69.164 E3.1597
G1 X154.610 Y69.875 E3.1864
G1 X154.746 Y70.133 E3.1959
G1 X155.346 Y71.407 E3.2414
G1 X155.489 Y71.770 E3.2540
G1 X155.940 Y73.155 E3.3011
G1 X156.037 Y73.533 E3.3137
G1 X156.310 Y74.964 E3.3608
G1 X156.359 Y75.351 E3.3734
G1 X156.450 Y76.805 E3.4205
G1 X156.450 Y77.195 E3.4331
G1 X156.362 Y78.601 E3.4787
G1 X156.329 Y78.891 E3.4881
G1 X156.200 Y79.707 E3.5148
G1 X156.141 Y79.993 E3.5243
G1 X155.803 Y81.310 E3.5682
G1 X155.717 Y81.589 E3.5777
G1 X155.437 Y82.367 E3.6044
G1 X155.325 Y82.637 E3.6138
G1 X154.726 Y83.911 E3.6594
G1 X154.538 Y84.253 E3.6720
G1 X153.757 Y85.483 E3.7191
G1 X153.528 Y85.798 E3.7317
G1 X152.599 Y86.921 E3.7788
G1 X152.333 Y87.205 E3.7914
G1 X151.487 Y87.999 E3.8289
G1 X151.671 Y88.151 E3.8366
G1 X151.955 Y88.417 E3.8492
G1 X152.952 Y89.480 E3.8963
G1 X153.201 Y89.780 E3.9089
G1 X154.029 Y90.919 E3.9544
G1 X154.189 Y91.164 E3.9639
G1 X154.610 Y91.875 E3.9906
G1 X154.746 Y92.133 E4.0000
G1 X155.346 Y93.407 E4.0456
G1 X155.489 Y93.770 E4.0581
G1 X155.940 Y95.155 E4.1053
G1 X156.037 Y95.533 E4.1179
G1 X156.310 Y96.964 E4.1650
G1 X156.359 Y97.351 E4.1776
G1 X156.450 Y98.805 E4.2247
G1 X156.450 Y99.195 E4.2373
G1 X156.362 Y100.601 E4.2828
G1 X156.329 Y100.891 E4.2923
G1 X156.200 Y101.707 E4.3190
G1 X156.141 Y101.993 E4.3284
G1 X155.803 Y103.310 E4.3724
G1 X155.717 Y103.589 E4.3818
G1 X155.437 Y104.367 E4.4085
G1 X155.325 Y104.637 E4.4180
G1 X154.726 Y105.911 E4.4635
G1 X154.538 Y106.253 E4.4761
G1 X153.757 Y107.483 E4.5232
G1 X153.528 Y107.798 E4.5358
G1 X152.599 Y108.921 E4.5829
G1 X152.332 Y109.205 E4.5955
G1 X151.487 Y109.999 E4.6330
G1 X151.671 Y110.151 E4.6407
G1 X151.955 Y110.417 E4.6533
G1 X152.952 Y111.480 E4.7004
G1 X153.201 Y111.780 E4.7130
G1 X154.029 Y112.919 E4.7585
G1 X154.189 Y113.164 E4.7680
G1 X154.610 Y113.875 E4.7947
G1 X154.746 Y114.133 E4.8041
G1 X155.346 Y115.407 E4.8497
G1 X155.489 Y115.770 E4.8623
G1 X155.940 Y117.155 E4.9094
G1 X156.037 Y117.533 E4.9220
G1 X156.310 Y118.964 E4.9691
G1 X156.359 Y119.351 E4.9817
G1 X156.450 Y120.805 E5.0288
G1 X156.450 Y121.195 E5.0414
G1 X156.362 Y122.601 E5.0869
G1 X156.329 Y122.891 E5.0964
G1 X156.200 Y123.707 E5.1231
G1 X156.141 Y123.993 E5.1325
G1 X155.803 Y125.310 E5.1765
G1 X155.717 Y125.589 E5.1859
G1 X155.437 Y126.367 E5.2126
G1 X155.325 Y126.637 E5.2221
G1 X154.726 Y127.911 E5.2676
G1 X154.538 Y128.253 E5.2802
G1 X153.757 Y129.483 E5.3273
G1 X153.528 Y129.798 E5.3399
G1 X152.599 Y130.921 E5.3870
G1 X152.332 Y131.205 E5.3996
G1 X151.306 Y132.169 E5.4452
G1 X151.084 Y132.359 E5.4546
G1 X150.431 Y132.865 E5.4813
G1 X150.192 Y133.033 E5.4908
G1 X149.044 Y133.762 E5.5347
G1 X148.790 Y133.906 E5.5442
G1 X148.097 Y134.259 E5.5693
G1 X147.921 Y134.342 E5.5756
G1 X147.207 Y134.651 E5.6007
G1 X146.934 Y134.755 E5.6102
G1 X145.594 Y135.190 E5.6557
G1 X145.217 Y135.287 E5.6683
G1 X143.786 Y135.560 E5.7154
G1 X143.399 Y135.608 E5.7280
G1 X142.042 Y135.694 E5.7720
G1 X141.847 Y135.700 E5.7783
G1 X124.182 Y135.700 E6.3494
G1 X121.584 Y133.102 E6.4682
G1 X120.544 Y133.762 E6.5080
G1 X120.290 Y133.906 E6.5174
G1 X119.597 Y134.259 E6.5426
G1 X119.421 Y134.342 E6.5489
G1 X118.707 Y134.651 E6.5740
G1 X118.434 Y134.755 E6.5835
G1 X117.094 Y135.190 E6.6290
G1 X116.717 Y135.287 E6.6416
G1 X115.286 Y135.560 E6.6887
G1 X114.899 Y135.608 E6.7013
G1 X113.542 Y135.694 E6.7452
G1 X113.347 Y135.700 E6.7515
G1 X97.506 Y135.700 E7.2637
G1 X97.610 Y135.875 E7.2702
G1 X97.746 Y136.133 E7.2797
G1 X98.346 Y137.407 E7.3252
G1 X98.489 Y137.770 E7.3378
G1 X98.940 Y139.155 E7.3849
G1 X99.037 Y139.533 E7.3975
G1 X99.310 Y140.964 E7.4446
G1 X99.359 Y141.351 E7.4572
G1 X99.450 Y142.805 E7.5043
G1 X99.450 Y143.195 E7.5169
G1 X99.362 Y144.601 E7.5625
G1 X99.329 Y144.891 E7.5719
G1 X99.200 Y145.707 E7.5986
G1 X99.141 Y145.993 E7.6081
G1 X98.803 Y147.310 E7.6520
G1 X98.717 Y147.589 E7.6615
G1 X98.437 Y148.367 E7.6882
G1 X98.325 Y148.637 E7.6976
G1 X97.726 Y149.911 E7.7432
G1 X97.538 Y150.253 E7.7558
G1 X96.757 Y151.483 E7.8029
G1 X96.528 Y151.798 E7.8155
G1 X95.599 Y152.921 E7.8626
G1 X95.333 Y153.205 E7.8752
G1 X94.306 Y154.169 E7.9207
G1 X94.084 Y154.359 E7.9301
G1 X93.431 Y154.865 E7.9569
G1 X93.192 Y155.033 E7.9663
G1 X92.044 Y155.762 E8.0103
G1 X91.790 Y155.906 E8.0197
G1 X91.097 Y156.259 E8.0448
G1 X90.921 Y156.342 E8.0511
G1 X90.207 Y156.651 E8.0763
G1 X89.934 Y156.755 E8.0857
G1 X88.594 Y157.190 E8.1313
G1 X88.217 Y157.287 E8.1439
G1 X86.786 Y157.560 E8.1910
G1 X86.399 Y157.608 E8.2036
G1 X85.042 Y157.694 E8.2475
G1 X84.847 Y157.700 E8.2538
G1 X67.182 Y157.700 E8.8249
G1 X63.550 Y154.068 E8.9910
G1 X63.550 Y143.932 E9.3187
G1 X64.482 Y143.000 E9.3613
G1 X63.550 Y142.068 E9.4039
G1 X63.550 Y121.932 E10.0549
G1 X64.482 Y121.000 E10.0975
G1 X63.550 Y120.068 E10.1401
G1 X63.550 Y99.932 E10.7910
G1 X64.482 Y99.000 E10.8337
G1 X63.550 Y98.068 E10.8763
G1 X63.550 Y77.932 E11.5272
G1 X64.482 Y77.000 E11.5698
G1 X63.550 Y76.068 E11.6124
G1 X63.550 Y65.930 E11.9402
G92 E0.0000
G1 E-2.5000 F1800
G1 X64.030 Y66.129 F4800
G1 E-0.7500 F1800
G92 E0.0000
G1 X67.385 Y62.777 E0.1533 F1600
G1 X85.468 Y62.797 E0.7379
G1 X85.824 Y62.820 E0.7494
G1 X87.193 Y62.993 E0.7941
G1 X87.459 Y63.039 E0.8028
G1 X88.243 Y63.214 E0.8288
G1 X88.503 Y63.285 E0.8375
G1 X89.818 Y63.712 E0.8822
G1 X90.152 Y63.845 E0.8938
G1 X91.443 Y64.452 E0.9399
G1 X91.758 Y64.625 E0.9515
G1 X92.963 Y65.390 E0.9977
G1 X93.140 Y65.519 E1.0048
G1 X95.885 Y62.777 E1.1302
G1 X113.968 Y62.797 E1.7148
G1 X114.324 Y62.820 E1.7263
G1 X115.693 Y62.993 E1.7709
G1 X115.959 Y63.039 E1.7796
G1 X116.743 Y63.214 E1.8056
G1 X117.003 Y63.285 E1.8143
G1 X118.318 Y63.712 E1.8590
G1 X118.652 Y63.845 E1.8706
G1 X119.943 Y64.452 E1.9168
G1 X120.258 Y64.625 E1.9284
G1 X121.463 Y65.390 E1.9745
G1 X121.640 Y65.519 E1.9816
G1 X124.385 Y62.777 E2.1070
G1 X142.468 Y62.797 E2.6916
G1 X142.824 Y62.820 E2.7032
G1 X144.193 Y62.993 E2.7478
G1 X144.459 Y63.039 E2.7565
G1 X145.243 Y63.214 E2.7825
G1 X145.503 Y63.285 E2.7912
G1 X146.818 Y63.712 E2.8359
G1 X147.152 Y63.845 E2.8475
G1 X148.443 Y64.452 E2.8936
G1 X148.758 Y64.625 E2.9053
G1 X149.963 Y65.390 E2.9514
G1 X150.254 Y65.602 E2.9630
G1 X151.353 Y66.511 E3.0092
G1 X151.615 Y66.757 E3.0208
G1 X152.592 Y67.797 E3.0669
G1 X152.821 Y68.074 E3.0785
G1 X153.634 Y69.192 E3.1232
G1 X153.782 Y69.418 E3.1319
G1 X154.191 Y70.109 E3.1579
G1 X154.317 Y70.348 E3.1666
G1 X154.905 Y71.598 E3.2113
G1 X155.038 Y71.932 E3.2229
G1 X155.479 Y73.289 E3.2690
G1 X155.568 Y73.638 E3.2807
G1 X155.835 Y75.040 E3.3268
G1 X155.880 Y75.396 E3.3384
G1 X155.970 Y76.820 E3.3846
G1 X155.970 Y77.180 E3.3962
G1 X155.883 Y78.559 E3.4409
G1 X155.854 Y78.827 E3.4496
G1 X155.728 Y79.621 E3.4756
G1 X155.673 Y79.885 E3.4843
G1 X155.341 Y81.180 E3.5275
G1 X155.262 Y81.437 E3.5362
G1 X154.989 Y82.193 E3.5622
G1 X154.886 Y82.443 E3.5709
G1 X154.298 Y83.693 E3.6156
G1 X154.124 Y84.008 E3.6272
G1 X153.360 Y85.213 E3.6733
G1 X153.148 Y85.504 E3.6850
G1 X152.239 Y86.603 E3.7311
G1 X151.993 Y86.865 E3.7427
G1 X150.986 Y87.811 E3.7874
G1 X150.781 Y87.986 E3.7961
G1 X150.749 Y88.011 E3.7974
G1 X151.353 Y88.511 E3.8228
G1 X151.615 Y88.757 E3.8344
G1 X152.592 Y89.797 E3.8805
G1 X152.821 Y90.074 E3.8921
G1 X153.634 Y91.192 E3.9368
G1 X153.782 Y91.418 E3.9455
G1 X154.191 Y92.109 E3.9715
G1 X154.317 Y92.348 E3.9802
G1 X154.905 Y93.598 E4.0249
G1 X155.038 Y93.932 E4.0365
G1 X155.479 Y95.289 E4.0827
G1 X155.568 Y95.638 E4.0943
G1 X155.835 Y97.040 E4.1404
G1 X155.880 Y97.396 E4.1520
G1 X155.970 Y98.820 E4.1982
G1 X155.970 Y99.180 E4.2098
G1 X155.883 Y100.559 E4.2545
G1 X155.854 Y100.827 E4.2632
G1 X155.728 Y101.621 E4.2892
G1 X155.673 Y101.885 E4.2979
G1 X155.341 Y103.180 E4.3411
G1 X155.262 Y103.437 E4.3498
G1 X154.989 Y104.194 E4.3758
G1 X154.886 Y104.443 E4.3845
G1 X154.298 Y105.693 E4.4292
G1 X154.124 Y106.008 E4.4408
G1 X153.360 Y107.213 E4.4870
G1 X153.148 Y107.504 E4.4986
G1 X152.239 Y108.603 E4.5447
G1 X151.993 Y108.865 E4.5563
G1 X150.986 Y109.811 E4.6010
G1 X150.781 Y109.986 E4.6097
G1 X150.749 Y110.011 E4.6110
G1 X151.353 Y110.511 E4.6364
G1 X151.615 Y110.757 E4.6480
G1 X152.592 Y111.797 E4.6941
G1 X152.821 Y112.074 E4.7058
G1 X153.634 Y113.192 E4.7504
G1 X153.782 Y113.418 E4.7592
G1 X154.191 Y114.109 E4.7851
G1 X154.317 Y114.348 E4.7938
G1 X154.905 Y115.598 E4.8385
G1 X155.038 Y115.932 E4.8501
