; G-Code generated by Simplify3D(R) Version 4.1.2
; May 26, 2020 at 3:24:30 PM
; Settings Summary
;   processName,Calibration Cube
;   applyToModels,Anet_A8_Chain_x4
;   profileName,Anet A8 (modified)
;   profileVersion,2020-05-17 12:50:12
;   baseProfile,
;   printMaterial,PETG
;   printQuality,Medium
;   printExtruders,
;   extruderName,Primary Extruder
;   extruderToolheadNumber,0
;   extruderDiameter,0.4
;   extruderAutoWidth,1
;   extruderWidth,0.48
;   extrusionMultiplier,0.9
;   extruderUseRetract,1
;   extruderRetractionDistance,2.5
;   extruderExtraRestartDistance,-0.75
;   extruderRetractionZLift,0
;   extruderRetractionSpeed,1800
;   extruderUseCoasting,1
;   extruderCoastingDistance,0.2
;   extruderUseWipe,0
;   extruderWipeDistance,5
;   primaryExtruder,0
;   layerHeight,0.2
;   topSolidLayers,3
;   bottomSolidLayers,3
;   perimeterOutlines,2
;   printPerimetersInsideOut,1
;   startPointOption,2
;   startPointOriginX,0
;   startPointOriginY,0
;   sequentialIslands,0
;   spiralVaseMode,0
;   firstLayerHeightPercentage,90
;   firstLayerWidthPercentage,100
;   firstLayerUnderspeed,0.5
;   useRaft,0
;   raftExtruder,0
;   raftTopLayers,3
;   raftBaseLayers,2
;   raftOffset,3
;   raftSeparationDistance,0.14
;   raftTopInfill,100
;   aboveRaftSpeedMultiplier,0.3
;   useSkirt,1
;   skirtExtruder,0
;   skirtLayers,1
;   skirtOutlines,3
;   skirtOffset,5
;   usePrimePillar,0
;   primePillarExtruder,999
;   primePillarWidth,12
;   primePillarLocation,7
;   primePillarSpeedMultiplier,1
;   useOozeShield,0
;   oozeShieldExtruder,999
;   oozeShieldOffset,2
;   oozeShieldOutlines,1
;   oozeShieldSidewallShape,1
;   oozeShieldSidewallAngle,30
;   oozeShieldSpeedMultiplier,1
;   infillExtruder,0
;   internalInfillPattern,Rectilinear
;   externalInfillPattern,Rectilinear
;   infillPercentage,40
;   outlineOverlapPercentage,15
;   infillExtrusionWidthPercentage,100
;   minInfillLength,5
;   infillLayerInterval,1
;   internalInfillAngles,45,-45
;   overlapInternalInfillAngles,0
;   externalInfillAngles,45,-45
;   generateSupport,0
;   supportExtruder,0
;   supportInfillPercentage,70
;   supportExtraInflation,0
;   supportBaseLayers,0
;   denseSupportExtruder,0
;   denseSupportLayers,0
;   denseSupportInfillPercentage,70
;   supportLayerInterval,1
;   supportHorizontalPartOffset,0.3
;   supportUpperSeparationLayers,1
;   supportLowerSeparationLayers,1
;   supportType,0
;   supportGridSpacing,4
;   maxOverhangAngle,45
;   supportAngles,0
;   temperatureName,Primary Extruder,Heated Bed
;   temperatureNumber,0,0
;   temperatureSetpointCount,1,1
;   temperatureSetpointLayers,1,1
;   temperatureSetpointTemperatures,225,70
;   temperatureStabilizeAtStartup,1,1
;   temperatureHeatedBed,0,1
;   fanLayers,1,2
;   fanSpeeds,0,100
;   blipFanToFullPower,0
;   adjustSpeedForCooling,1
;   minSpeedLayerTime,15
;   minCoolingSpeedSlowdown,20
;   increaseFanForCooling,0
;   minFanLayerTime,45
;   maxCoolingFanSpeed,100
;   increaseFanForBridging,0
;   bridgingFanSpeed,100
;   use5D,1
;   relativeEdistances,0
;   allowEaxisZeroing,1
;   independentExtruderAxes,0
;   includeM10123,0
;   stickySupport,1
;   applyToolheadOffsets,0
;   gcodeXoffset,0
;   gcodeYoffset,0
;   gcodeZoffset,0
;   overrideMachineDefinition,1
;   machineTypeOverride,0
;   strokeXoverride,220
;   strokeYoverride,220
;   strokeZoverride,240
;   originOffsetXoverride,0
;   originOffsetYoverride,0
;   originOffsetZoverride,0
;   homeXdirOverride,-1
;   homeYdirOverride,-1
;   homeZdirOverride,-1
;   flipXoverride,1
;   flipYoverride,-1
;   flipZoverride,1
;   toolheadOffsets,0,0|0,0|0,0|0,0|0,0|0,0
;   overrideFirmwareConfiguration,1
;   firmwareTypeOverride,RepRap (Marlin/Repetier/Sprinter)
;   GPXconfigOverride,r2
;   baudRateOverride,115200
;   overridePrinterModels,1
;   printerModelsOverride
;   startingGcode,M107 ; fan off,G28 ; home all axes,G29 ; run auto bed leveling,M500 ; store level values in EEPROM,G1 X0 Y20 Z0.2 F3000 ; get ready to prime on lower end,; G1 X0 Y190 Z0.2 F3000 ; get ready to prime on high end,G92 E0 ; reset extrusion distance,G1 X200 E10 F600 ; prime nozzle
;   layerChangeGcode,
;   retractionGcode,
;   toolChangeGcode,
;   endingGcode,M104 S0 ; turn off extruder,M140 S0 ; turn off bed,G91 ; use relative coordinates for jogging,G1 Z20 F1000 ; raise Z by 20mm at 1000 mm/min,G90 ; switch back to absolute coordinates,G1 X0 Y200 F1000 ; prepare for part removal,M84 ; disable motors,M107 ; turn off fan
;   exportFileFormat,gcode
;   celebration,0
;   celebrationSong,Random Song
;   postProcessing,
;   defaultSpeed,3200
;   outlineUnderspeed,0.55
;   solidInfillUnderspeed,0.8
;   supportUnderspeed,0.8
;   rapidXYspeed,4800
;   rapidZspeed,1000
;   minBridgingArea,50
;   bridgingExtraInflation,0
;   bridgingExtrusionMultiplier,1
;   bridgingSpeedMultiplier,1
;   useFixedBridgingAngle,0
;   fixedBridgingAngle,0
;   applyBridgingToPerimeters,0
;   filamentDiameters,1.75|1.75|1.75|1.75|1.75|1.75
;   filamentPricesPerKg,23.99|46|46|46|46|46
;   filamentDensities,1.25|1.25|1.25|1.25|1.25|1.25
;   useMinPrintHeight,0
;   minPrintHeight,0
;   useMaxPrintHeight,0
;   maxPrintHeight,0
;   useDiaphragm,0
;   diaphragmLayerInterval,20
;   robustSlicing,1
;   mergeAllIntoSolid,0
;   onlyRetractWhenCrossingOutline,1
;   retractBetweenLayers,1
;   useRetractionMinTravel,0
;   retractionMinTravel,3
;   retractWhileWiping,0
;   onlyWipeOutlines,1
;   avoidCrossingOutline,0
;   maxMovementDetourFactor,3
;   toolChangeRetractionDistance,12
;   toolChangeExtraRestartDistance,-0.5
;   toolChangeRetractionSpeed,600
;   externalThinWallType,0
;   internalThinWallType,2
;   thinWallAllowedOverlapPercentage,10
;   singleExtrusionMinLength,1
;   singleExtrusionMinPrintingWidthPercentage,50
;   singleExtrusionMaxPrintingWidthPercentage,200
;   singleExtrusionEndpointExtension,0.2
;   horizontalSizeCompensation,0
G90
M82
M106 S0
M140 S70
M190 S70
M104 S225 T0
M109 S225 T0
M107 ; fan off
G28 ; home all axes
G29 ; run auto bed leveling
M500 ; store level values in EEPROM
G1 X0 Y20 Z0.2 F3000 ; get ready to prime on lower end
; G1 X0 Y190 Z0.2 F3000 ; get ready to prime on high end
G92 E0 ; reset extrusion distance
G1 X200 E10 F600 ; prime nozzle
; process Calibration Cube
; layer 1, Z = 0.180
T0
G92 E0.0000
G1 E-2.5000 F1800
; feature skirt
; tool H0.180 W0.480
G1 Z0.180 F1000
G1 X80.087 Y81.516 F4800
G1 E-0.7500 F1800
G92 E0.0000
G1 X83.719 Y77.884 E0.1660 F1600
G1 X90.996 Y77.884 E0.4013
G1 X94.627 Y81.516 E0.5673
G1 X94.627 Y87.241 E0.7524
G1 X99.913 Y87.241 E0.9233
G1 X99.913 Y81.516 E1.1084
G1 X103.544 Y77.884 E1.2744
G1 X110.821 Y77.884 E1.5097
G1 X114.453 Y81.516 E1.6757
G1 X114.453 Y82.464 E1.7064
G1 X114.990 Y82.462 E1.7238
G1 X117.659 Y79.793 E1.8458
G1 X138.191 Y79.793 E2.5096
G1 X141.823 Y83.425 E2.6756
G1 X141.823 Y90.702 E2.9109
G1 X138.191 Y94.334 E3.0769
G1 X132.465 Y94.334 E3.2620
G1 X132.465 Y99.619 E3.4329
G1 X138.191 Y99.619 E3.6180
G1 X141.823 Y103.251 E3.7840
G1 X141.823 Y110.527 E4.0193
G1 X138.191 Y114.159 E4.1853
G1 X137.241 Y114.159 E4.2160
G1 X137.244 Y115.284 E4.2524
G1 X139.913 Y117.953 E4.3744
G1 X139.913 Y138.484 E5.0382
G1 X136.281 Y142.116 E5.2042
G1 X129.004 Y142.116 E5.4395
G1 X125.373 Y138.484 E5.6055
G1 X125.373 Y132.759 E5.7906
G1 X120.087 Y132.759 E5.9615
G1 X120.087 Y138.484 E6.1466
G1 X116.456 Y142.116 E6.3126
G1 X109.179 Y142.116 E6.5479
G1 X105.547 Y138.484 E6.7139
G1 X105.547 Y137.536 E6.7446
G1 X105.010 Y137.538 E6.7619
G1 X102.341 Y140.207 E6.8840
G1 X81.809 Y140.207 E7.5477
G1 X78.177 Y136.575 E7.7138
G1 X78.177 Y129.298 E7.9490
G1 X81.809 Y125.666 E8.1151
G1 X87.535 Y125.666 E8.3002
G1 X87.535 Y120.381 E8.4710
G1 X81.809 Y120.381 E8.6561
G1 X78.177 Y116.749 E8.8222
G1 X78.177 Y109.473 E9.0574
G1 X81.809 Y105.841 E9.2235
G1 X82.759 Y105.841 E9.2542
G1 X82.756 Y104.716 E9.2905
G1 X80.087 Y102.047 E9.4126
G1 X80.087 Y81.516 E10.0763
G92 E0.0000
G1 E-2.5000 F1800
G1 X80.567 Y81.714 F4800
G1 E-0.7500 F1800
G92 E0.0000
G1 X83.918 Y78.364 E0.1532 F1600
G1 X90.797 Y78.364 E0.3756
G1 X94.147 Y81.714 E0.5288
G1 X94.147 Y87.721 E0.7230
G1 X100.393 Y87.721 E0.9249
G1 X100.393 Y81.714 E1.1190
G1 X103.743 Y78.364 E1.2722
G1 X110.622 Y78.364 E1.4946
G1 X113.973 Y81.714 E1.6478
G1 X113.973 Y82.945 E1.6876
G1 X115.189 Y82.942 E1.7269
G1 X117.858 Y80.273 E1.8490
G1 X137.992 Y80.273 E2.4999
G1 X141.343 Y83.624 E2.6531
G1 X141.343 Y90.503 E2.8754
G1 X137.992 Y93.854 E3.0286
G1 X131.985 Y93.854 E3.2228
G1 X131.985 Y100.099 E3.4247
G1 X137.992 Y100.099 E3.6189
G1 X141.343 Y103.450 E3.7721
G1 X141.343 Y110.329 E3.9945
G1 X137.992 Y113.679 E4.1477
G1 X136.498 Y113.679 E4.1960
G1 X136.760 Y113.941 E4.2080
G1 X136.764 Y115.483 E4.2578
G1 X139.433 Y118.152 E4.3798
G1 X139.433 Y138.286 E5.0307
G1 X136.082 Y141.636 E5.1839
G1 X129.203 Y141.636 E5.4063
G1 X125.853 Y138.286 E5.5595
G1 X125.853 Y132.279 E5.7537
G1 X119.607 Y132.279 E5.9556
G1 X119.607 Y138.286 E6.1498
G1 X116.257 Y141.636 E6.3030
G1 X109.378 Y141.636 E6.5254
G1 X106.027 Y138.286 E6.6786
G1 X106.027 Y137.055 E6.7184
G1 X104.811 Y137.058 E6.7577
G1 X102.142 Y139.727 E6.8797
G1 X82.008 Y139.727 E7.5306
G1 X78.657 Y136.376 E7.6838
G1 X78.657 Y129.497 E7.9062
G1 X82.008 Y126.146 E8.0594
G1 X88.015 Y126.146 E8.2536
G1 X88.015 Y119.901 E8.4555
G1 X82.008 Y119.901 E8.6497
G1 X78.657 Y116.550 E8.8028
G1 X78.657 Y109.671 E9.0252
G1 X82.008 Y106.321 E9.1784
G1 X83.502 Y106.321 E9.2267
G1 X83.240 Y106.059 E9.2387
G1 X83.236 Y104.517 E9.2886
G1 X80.567 Y101.848 E9.4106
G1 X80.567 Y81.714 E10.0615
G92 E0.0000
G1 E-2.5000 F1800
G1 X81.047 Y81.913 F4800
G1 E-0.7500 F1800
G92 E0.0000
G1 X84.117 Y78.844 E0.1403 F1600
G1 X90.598 Y78.844 E0.3499
G1 X93.667 Y81.913 E0.4902
G1 X93.667 Y88.201 E0.6935
G1 X100.873 Y88.201 E0.9264
G1 X100.873 Y81.913 E1.1297
G1 X103.942 Y78.844 E1.2700
G1 X110.424 Y78.844 E1.4796
G1 X113.493 Y81.913 E1.6199
G1 X113.493 Y83.781 E1.6803
G1 X113.847 Y83.426 E1.6965
G1 X115.389 Y83.421 E1.7463
G1 X118.057 Y80.753 E1.8683
G1 X137.793 Y80.753 E2.5064
G1 X140.863 Y83.823 E2.6467
G1 X140.863 Y90.304 E2.8562
G1 X137.793 Y93.374 E2.9966
G1 X131.505 Y93.374 E3.1999
G1 X131.505 Y100.579 E3.4328
G1 X137.793 Y100.579 E3.6361
G1 X140.863 Y103.648 E3.7764
G1 X140.863 Y110.130 E3.9859
G1 X137.793 Y113.199 E4.1263
G1 X135.337 Y113.199 E4.2057
G1 X136.281 Y114.141 E4.2488
G1 X136.285 Y115.682 E4.2986
G1 X138.953 Y118.351 E4.4206
G1 X138.953 Y138.087 E5.0587
G1 X135.884 Y141.156 E5.1990
G1 X129.402 Y141.156 E5.4085
G1 X126.333 Y138.087 E5.5489
G1 X126.333 Y131.799 E5.7522
G1 X119.127 Y131.799 E5.9851
G1 X119.127 Y138.087 E6.1884
G1 X116.058 Y141.156 E6.3287
G1 X109.577 Y141.156 E6.5382
G1 X106.507 Y138.087 E6.6786
G1 X106.507 Y136.219 E6.7390
G1 X106.153 Y136.574 E6.7552
G1 X104.611 Y136.579 E6.8050
G1 X101.943 Y139.247 E6.9270
G1 X82.207 Y139.247 E7.5650
G1 X79.137 Y136.177 E7.7054
G1 X79.137 Y129.696 E7.9149
G1 X82.207 Y126.626 E8.0553
G1 X88.495 Y126.626 E8.2585
G1 X88.495 Y119.421 E8.4915
G1 X82.207 Y119.421 E8.6947
G1 X79.137 Y116.352 E8.8351
G1 X79.137 Y109.870 E9.0446
G1 X82.207 Y106.801 E9.1850
G1 X84.663 Y106.801 E9.2644
G1 X83.719 Y105.859 E9.3075
G1 X83.715 Y104.318 E9.3573
G1 X81.047 Y101.649 E9.4793
G1 X81.047 Y81.913 E10.1173
G92 E0.0000
G1 E-2.5000 F1800
; feature inner perimeter
G1 X87.007 Y84.804 F4800
G1 E-0.7500 F1800
G92 E0.0000
G1 X87.707 Y84.804 E0.0226 F1240
G1 X87.707 Y94.161 E0.3252
G1 X106.833 Y94.161 E0.9434
G1 X106.833 Y84.804 E1.2460
G1 X107.533 Y84.804 E1.2686
G1 X107.533 Y98.759 E1.7198
G1 X87.007 Y98.759 E2.3833
G1 X87.007 Y85.004 E2.8280
G1 X87.007 Y84.804 F1240
; feature outer perimeter
G1 X86.527 Y84.324 F4800
G92 E0.0000
G1 X88.187 Y84.324 E0.0537 F880
G1 X88.187 Y93.681 E0.3562
G1 X106.353 Y93.681 E0.9434
G1 X106.353 Y84.324 E1.2460
G1 X108.013 Y84.324 E1.2996
G1 X108.013 Y99.239 E1.7818
G1 X105.358 Y99.239 E1.8677
G1 X105.358 Y103.439 E2.0034
G1 X104.191 Y103.439 E2.0411
G1 X104.191 Y99.239 E2.1769
G1 X90.349 Y99.239 E2.6244
G1 X90.349 Y103.439 E2.7602
G1 X89.182 Y103.439 E2.7979
G1 X89.182 Y99.239 E2.9337
G1 X86.527 Y99.239 E3.0195
G1 X86.527 Y84.524 E3.4952
G1 X86.527 Y84.324 F880
G92 E0.0000
G1 E-2.5000 F1800
; feature gap fill
G1 X89.668 Y99.172 F4800
G1 E-0.7500 F1800
G92 E0.0000
G1 X89.941 Y99.444 E0.0125 F1600
G1 X89.941 Y100.123 E0.0344
G1 X89.590 Y99.772 E0.0504
G1 X89.590 Y100.451 E0.0724
G1 X89.941 Y100.802 E0.0884
G1 X89.941 Y101.481 E0.1104
G1 X89.590 Y101.130 E0.1264
G1 X89.590 Y101.808 E0.1484
G1 X89.941 Y102.159 E0.1644
G1 X89.941 Y102.838 E0.1864
G1 X89.731 Y102.629 E0.1959
G1 X89.590 Y102.487 F1600
G92 E0.0000
G1 E-2.5000 F1800
G1 X104.599 Y102.563 F4800
G1 E-0.7500 F1800
G92 E0.0000
G1 X104.950 Y102.914 E0.0160 F1600
G1 X104.950 Y102.235 E0.0380
G1 X104.599 Y101.884 E0.0540
G1 X104.599 Y101.205 E0.0760
G1 X104.950 Y101.556 E0.0920
G1 X104.950 Y100.877 E0.1140
G1 X104.599 Y100.526 E0.1300
G1 X104.599 Y99.848 E0.1520
G1 X104.950 Y100.199 E0.1680
G1 X104.950 Y99.520 E0.1900
G1 X104.744 Y99.313 E0.1994
G1 X104.602 Y99.172 F1600
; feature solid layer
G1 X106.788 Y94.569 F4800
G92 E0.0000
G1 X107.125 Y94.906 E0.0154 F1280
G1 X107.125 Y95.585 E0.0374
G1 X106.109 Y94.569 E0.0838
G1 X105.430 Y94.569 E0.1058
G1 X107.125 Y96.264 E0.1832
G1 X107.125 Y96.943 E0.2052
G1 X104.751 Y94.569 E0.3137
G1 X104.073 Y94.569 E0.3357
G1 X107.125 Y97.621 E0.4752
G1 X107.125 Y98.300 E0.4972
G1 X103.394 Y94.569 E0.6678
G1 X102.715 Y94.569 E0.6897
G1 X106.497 Y98.351 E0.8626
G1 X105.818 Y98.351 E0.8846
G1 X102.036 Y94.569 E1.0575
G1 X101.357 Y94.569 E1.0794
G1 X105.139 Y98.351 E1.2523
G1 X104.460 Y98.351 E1.2743
G1 X100.678 Y94.569 E1.4472
G1 X100.000 Y94.569 E1.4691
G1 X103.782 Y98.351 E1.6420
G1 X103.103 Y98.351 E1.6640
G1 X99.321 Y94.569 E1.8369
G1 X98.642 Y94.569 E1.8588
G1 X102.424 Y98.351 E2.0317
G1 X101.745 Y98.351 E2.0537
G1 X97.963 Y94.569 E2.2266
G1 X97.284 Y94.569 E2.2485
G1 X101.066 Y98.351 E2.4215
G1 X100.387 Y98.351 E2.4434
G1 X96.606 Y94.569 E2.6163
G1 X95.927 Y94.569 E2.6383
G1 X99.709 Y98.351 E2.8112
G1 X99.030 Y98.351 E2.8331
G1 X95.248 Y94.569 E3.0060
G1 X94.569 Y94.569 E3.0280
G1 X98.351 Y98.351 E3.2009
G1 X97.672 Y98.351 E3.2228
G1 X93.890 Y94.569 E3.3957
G1 X93.211 Y94.569 E3.4177
G1 X96.993 Y98.351 E3.5906
G1 X96.315 Y98.351 E3.6125
G1 X92.533 Y94.569 E3.7854
G1 X91.854 Y94.569 E3.8074
G1 X95.636 Y98.351 E3.9803
G1 X94.957 Y98.351 E4.0022
G1 X91.175 Y94.569 E4.1752
G1 X90.496 Y94.569 E4.1971
G1 X94.278 Y98.351 E4.3700
G1 X93.599 Y98.351 E4.3920
G1 X89.817 Y94.569 E4.5649
G1 X89.138 Y94.569 E4.5868
G1 X92.920 Y98.351 E4.7597
G1 X92.242 Y98.351 E4.7817
G1 X88.460 Y94.569 E4.9546
G1 X87.781 Y94.569 E4.9765
G1 X91.563 Y98.351 E5.1494
G1 X90.884 Y98.351 E5.1714
G1 X87.415 Y94.882 E5.3300
G1 X87.415 Y95.561 E5.3519
G1 X90.205 Y98.351 E5.4795
G1 X89.526 Y98.351 E5.5014
G1 X87.415 Y96.240 E5.5980
G1 X87.415 Y96.919 E5.6199
G1 X88.847 Y98.351 E5.6854
G1 X88.169 Y98.351 E5.7074
G1 X87.415 Y97.597 E5.7418
G1 X87.415 Y98.182 E5.7607
G1 X87.415 Y98.276 F1280
G1 X87.490 Y98.351
G92 E0.0000
G1 E-2.5000 F1800
; feature inner perimeter
G1 X85.097 Y112.761 F4800
G1 E-0.7500 F1800
G92 E0.0000
G1 X99.053 Y112.761 E0.4512 F1240
G1 X99.053 Y133.287 E1.1147
G1 X85.097 Y133.287 E1.5659
G1 X85.097 Y132.586 E1.5885
G1 X94.455 Y132.586 E1.8911
G1 X94.455 Y113.461 E2.5093
G1 X85.097 Y113.461 E2.8119
G1 X85.097 Y112.961 E2.8280
G1 X85.097 Y112.761 F1240
; feature outer perimeter
G1 X84.617 Y112.281 F4800
G92 E0.0000
G1 X99.533 Y112.281 E0.4822 F880
G1 X99.533 Y114.935 E0.5680
G1 X103.732 Y114.935 E0.7038
G1 X103.732 Y116.102 E0.7415
G1 X99.533 Y116.102 E0.8773
G1 X99.533 Y129.945 E1.3248
G1 X103.732 Y129.945 E1.4606
G1 X103.732 Y131.112 E1.4983
G1 X99.533 Y131.112 E1.6340
G1 X99.533 Y133.767 E1.7199
G1 X84.617 Y133.767 E2.2021
G1 X84.617 Y132.106 E2.2557
G1 X93.975 Y132.106 E2.5583
G1 X93.975 Y113.941 E3.1455
G1 X84.617 Y113.941 E3.4480
G1 X84.617 Y112.481 E3.4952
G1 X84.617 Y112.281 F880
; feature gap fill
G1 X99.730 Y115.343 F4800
G92 E0.0000
G1 X100.081 Y115.694 E0.0160 F1600
G1 X100.760 Y115.694 E0.0380
G1 X100.409 Y115.343 E0.0540
