; G-Code generated by Simplify3D(R) Version 4.1.2
; May 26, 2020 at 3:15:58 PM
; Settings Summary
;   processName,Calibration Cube
;   applyToModels,extruder_button_anet_a8
;   profileName,Anet A8
;   profileVersion,2020-05-17 12:50:12
;   baseProfile,
;   printMaterial,PETG
;   printQuality,Medium
;   printExtruders,
;   extruderName,Primary Extruder
;   extruderToolheadNumber,0
;   extruderDiameter,0.4
;   extruderAutoWidth,1
;   extruderWidth,0.48
;   extrusionMultiplier,0.9
;   extruderUseRetract,1
;   extruderRetractionDistance,2.5
;   extruderExtraRestartDistance,-0.75
;   extruderRetractionZLift,0
;   extruderRetractionSpeed,1800
;   extruderUseCoasting,1
;   extruderCoastingDistance,0.2
;   extruderUseWipe,0
;   extruderWipeDistance,5
;   primaryExtruder,0
;   layerHeight,0.2
;   topSolidLayers,3
;   bottomSolidLayers,3
;   perimeterOutlines,2
;   printPerimetersInsideOut,1
;   startPointOption,2
;   startPointOriginX,0
;   startPointOriginY,0
;   sequentialIslands,0
;   spiralVaseMode,0
;   firstLayerHeightPercentage,90
;   firstLayerWidthPercentage,100
;   firstLayerUnderspeed,0.5
;   useRaft,0
;   raftExtruder,0
;   raftTopLayers,3
;   raftBaseLayers,2
;   raftOffset,3
;   raftSeparationDistance,0.14
;   raftTopInfill,100
;   aboveRaftSpeedMultiplier,0.3
;   useSkirt,1
;   skirtExtruder,0
;   skirtLayers,1
;   skirtOutlines,3
;   skirtOffset,5
;   usePrimePillar,0
;   primePillarExtruder,999
;   primePillarWidth,12
;   primePillarLocation,7
;   primePillarSpeedMultiplier,1
;   useOozeShield,0
;   oozeShieldExtruder,999
;   oozeShieldOffset,2
;   oozeShieldOutlines,1
;   oozeShieldSidewallShape,1
;   oozeShieldSidewallAngle,30
;   oozeShieldSpeedMultiplier,1
;   infillExtruder,0
;   internalInfillPattern,Rectilinear
;   externalInfillPattern,Rectilinear
;   infillPercentage,30
;   outlineOverlapPercentage,15
;   infillExtrusionWidthPercentage,100
;   minInfillLength,5
;   infillLayerInterval,1
;   internalInfillAngles,45,-45
;   overlapInternalInfillAngles,0
;   externalInfillAngles,45,-45
;   generateSupport,0
;   supportExtruder,0
;   supportInfillPercentage,70
;   supportExtraInflation,0
;   supportBaseLayers,0
;   denseSupportExtruder,0
;   denseSupportLayers,0
;   denseSupportInfillPercentage,70
;   supportLayerInterval,1
;   supportHorizontalPartOffset,0.3
;   supportUpperSeparationLayers,1
;   supportLowerSeparationLayers,1
;   supportType,0
;   supportGridSpacing,4
;   maxOverhangAngle,45
;   supportAngles,0
;   temperatureName,Primary Extruder,Heated Bed
;   temperatureNumber,0,0
;   temperatureSetpointCount,1,1
;   temperatureSetpointLayers,1,1
;   temperatureSetpointTemperatures,225,70
;   temperatureStabilizeAtStartup,1,1
;   temperatureHeatedBed,0,1
;   fanLayers,1,2
;   fanSpeeds,0,100
;   blipFanToFullPower,0
;   adjustSpeedForCooling,1
;   minSpeedLayerTime,15
;   minCoolingSpeedSlowdown,20
;   increaseFanForCooling,0
;   minFanLayerTime,45
;   maxCoolingFanSpeed,100
;   increaseFanForBridging,0
;   bridgingFanSpeed,100
;   use5D,1
;   relativeEdistances,0
;   allowEaxisZeroing,1
;   independentExtruderAxes,0
;   includeM10123,0
;   stickySupport,1
;   applyToolheadOffsets,0
;   gcodeXoffset,0
;   gcodeYoffset,0
;   gcodeZoffset,0
;   overrideMachineDefinition,1
;   machineTypeOverride,0
;   strokeXoverride,220
;   strokeYoverride,220
;   strokeZoverride,240
;   originOffsetXoverride,0
;   originOffsetYoverride,0
;   originOffsetZoverride,0
;   homeXdirOverride,-1
;   homeYdirOverride,-1
;   homeZdirOverride,-1
;   flipXoverride,1
;   flipYoverride,-1
;   flipZoverride,1
;   toolheadOffsets,0,0|0,0|0,0|0,0|0,0|0,0
;   overrideFirmwareConfiguration,1
;   firmwareTypeOverride,RepRap (Marlin/Repetier/Sprinter)
;   GPXconfigOverride,r2
;   baudRateOverride,115200
;   overridePrinterModels,1
;   printerModelsOverride
;   startingGcode,M107 ; fan off,G28 ; home all axes,G29 ; run auto bed leveling,M500 ; store level values in EEPROM,G1 X0 Y20 Z0.2 F3000 ; get ready to prime on lower end,; G1 X0 Y190 Z0.2 F3000 ; get ready to prime on high end,G92 E0 ; reset extrusion distance,G1 X200 E10 F600 ; prime nozzle
;   layerChangeGcode,
;   retractionGcode,
;   toolChangeGcode,
;   endingGcode,M104 S0 ; turn off extruder,M140 S0 ; turn off bed,G91 ; use relative coordinates for jogging,G1 Z20 F1000 ; raise Z by 20mm at 1000 mm/min,G90 ; switch back to absolute coordinates,G1 X0 Y200 F1000 ; prepare for part removal,M84 ; disable motors,M107 ; turn off fan
;   exportFileFormat,gcode
;   celebration,0
;   celebrationSong,Random Song
;   postProcessing,
;   defaultSpeed,3200
;   outlineUnderspeed,0.55
;   solidInfillUnderspeed,0.8
;   supportUnderspeed,0.8
;   rapidXYspeed,4800
;   rapidZspeed,1000
;   minBridgingArea,50
;   bridgingExtraInflation,0
;   bridgingExtrusionMultiplier,1
;   bridgingSpeedMultiplier,1
;   useFixedBridgingAngle,0
;   fixedBridgingAngle,0
;   applyBridgingToPerimeters,0
;   filamentDiameters,1.75|1.75|1.75|1.75|1.75|1.75
;   filamentPricesPerKg,23.99|46|46|46|46|46
;   filamentDensities,1.25|1.25|1.25|1.25|1.25|1.25
;   useMinPrintHeight,0
;   minPrintHeight,0
;   useMaxPrintHeight,0
;   maxPrintHeight,0
;   useDiaphragm,0
;   diaphragmLayerInterval,20
;   robustSlicing,1
;   mergeAllIntoSolid,0
;   onlyRetractWhenCrossingOutline,1
;   retractBetweenLayers,1
;   useRetractionMinTravel,0
;   retractionMinTravel,3
;   retractWhileWiping,0
;   onlyWipeOutlines,1
;   avoidCrossingOutline,0
;   maxMovementDetourFactor,3
;   toolChangeRetractionDistance,12
;   toolChangeExtraRestartDistance,-0.5
;   toolChangeRetractionSpeed,600
;   externalThinWallType,0
;   internalThinWallType,2
;   thinWallAllowedOverlapPercentage,10
;   singleExtrusionMinLength,1
;   singleExtrusionMinPrintingWidthPercentage,50
;   singleExtrusionMaxPrintingWidthPercentage,200
;   singleExtrusionEndpointExtension,0.2
;   horizontalSizeCompensation,0
G90
M82
M106 S0
M140 S70
M190 S70
M104 S225 T0
M109 S225 T0
M107 ; fan off
G28 ; home all axes
G29 ; run auto bed leveling
M500 ; store level values in EEPROM
G1 X0 Y20 Z0.2 F3000 ; get ready to prime on lower end
; G1 X0 Y190 Z0.2 F3000 ; get ready to prime on high end
G92 E0 ; reset extrusion distance
G1 X200 E10 F600 ; prime nozzle
; process Calibration Cube
; layer 1, Z = 0.180
T0
G92 E0.0000
G1 E-2.5000 F1800
; feature skirt
; tool H0.180 W0.480
G1 Z0.180 F1000
G1 X99.744 Y100.174 F4800
G1 E-0.7500 F1800
G92 E0.0000
G1 X100.174 Y99.744 E0.0197 F1600
G1 X101.857 Y98.362 E0.0901
G1 X102.365 Y98.023 E0.1098
G1 X104.287 Y96.997 E0.1802
G1 X104.848 Y96.764 E0.1999
G1 X106.930 Y96.133 E0.2702
G1 X107.527 Y96.014 E0.2899
G1 X109.695 Y95.800 E0.3603
G1 X110.305 Y95.800 E0.3800
G1 X112.473 Y96.014 E0.4505
G1 X113.069 Y96.133 E0.4701
G1 X115.152 Y96.764 E0.5405
G1 X115.713 Y96.997 E0.5601
G1 X117.635 Y98.023 E0.6305
G1 X118.143 Y98.362 E0.6503
G1 X119.826 Y99.744 E0.7207
G1 X120.256 Y100.174 E0.7404
G1 X121.638 Y101.857 E0.8108
G1 X121.977 Y102.365 E0.8305
G1 X123.003 Y104.287 E0.9009
G1 X123.236 Y104.848 E0.9206
G1 X123.867 Y106.930 E0.9909
G1 X123.986 Y107.527 E1.0106
G1 X124.200 Y109.695 E1.0810
G1 X124.200 Y110.305 E1.1008
G1 X123.986 Y112.473 E1.1712
G1 X123.867 Y113.070 E1.1908
G1 X123.236 Y115.152 E1.2612
G1 X123.003 Y115.713 E1.2808
G1 X121.977 Y117.635 E1.3513
G1 X121.638 Y118.143 E1.3710
G1 X120.256 Y119.826 E1.4414
G1 X119.826 Y120.256 E1.4611
G1 X118.143 Y121.638 E1.5315
G1 X117.635 Y121.977 E1.5512
G1 X115.713 Y123.003 E1.6217
G1 X115.152 Y123.236 E1.6413
G1 X113.070 Y123.867 E1.7116
G1 X112.473 Y123.986 E1.7313
G1 X110.305 Y124.200 E1.8017
G1 X109.695 Y124.200 E1.8215
G1 X107.527 Y123.986 E1.8919
G1 X106.930 Y123.867 E1.9115
G1 X104.848 Y123.236 E1.9819
G1 X104.287 Y123.003 E2.0015
G1 X102.365 Y121.977 E2.0720
G1 X101.857 Y121.638 E2.0917
G1 X100.174 Y120.256 E2.1621
G1 X99.744 Y119.826 E2.1818
G1 X98.362 Y118.143 E2.2522
G1 X98.023 Y117.635 E2.2719
G1 X96.997 Y115.713 E2.3424
G1 X96.764 Y115.152 E2.3620
G1 X96.133 Y113.069 E2.4324
G1 X96.014 Y112.473 E2.4520
G1 X95.800 Y110.305 E2.5224
G1 X95.800 Y109.695 E2.5422
G1 X96.014 Y107.527 E2.6126
G1 X96.133 Y106.930 E2.6323
G1 X96.764 Y104.848 E2.7026
G1 X96.997 Y104.287 E2.7222
G1 X98.023 Y102.365 E2.7927
G1 X98.362 Y101.857 E2.8124
G1 X99.744 Y100.174 E2.8828
G92 E0.0000
G1 E-2.5000 F1800
G1 X100.100 Y100.497 F4800
G1 E-0.7500 F1800
G92 E0.0000
G1 X100.497 Y100.100 E0.0181 F1600
G1 X102.143 Y98.748 E0.0870
G1 X102.612 Y98.435 E0.1052
G1 X104.492 Y97.431 E0.1741
G1 X105.010 Y97.217 E0.1923
G1 X107.047 Y96.599 E0.2611
G1 X107.598 Y96.489 E0.2792
G1 X109.719 Y96.280 E0.3481
G1 X110.281 Y96.280 E0.3663
G1 X112.402 Y96.489 E0.4352
G1 X112.953 Y96.599 E0.4534
G1 X114.990 Y97.217 E0.5222
G1 X115.508 Y97.431 E0.5403
G1 X117.388 Y98.435 E0.6092
G1 X117.857 Y98.748 E0.6274
G1 X119.503 Y100.100 E0.6963
G1 X119.900 Y100.497 E0.7144
G1 X121.252 Y102.143 E0.7833
G1 X121.565 Y102.612 E0.8016
G1 X122.569 Y104.492 E0.8705
G1 X122.783 Y105.010 E0.8886
G1 X123.401 Y107.047 E0.9574
G1 X123.511 Y107.598 E0.9756
G1 X123.720 Y109.719 E1.0444
G1 X123.720 Y110.281 E1.0626
G1 X123.511 Y112.402 E1.1315
G1 X123.401 Y112.953 E1.1497
G1 X122.783 Y114.990 E1.2185
G1 X122.569 Y115.508 E1.2366
G1 X121.565 Y117.388 E1.3055
G1 X121.252 Y117.857 E1.3237
G1 X119.900 Y119.503 E1.3926
G1 X119.503 Y119.900 E1.4108
G1 X117.857 Y121.252 E1.4796
G1 X117.388 Y121.565 E1.4979
G1 X115.508 Y122.569 E1.5668
G1 X114.990 Y122.783 E1.5849
G1 X112.953 Y123.401 E1.6537
G1 X112.402 Y123.511 E1.6719
G1 X110.281 Y123.720 E1.7407
G1 X109.719 Y123.720 E1.7589
G1 X107.598 Y123.511 E1.8278
G1 X107.047 Y123.401 E1.8460
G1 X105.010 Y122.783 E1.9148
G1 X104.492 Y122.569 E1.9329
G1 X102.612 Y121.565 E2.0018
G1 X102.143 Y121.252 E2.0201
G1 X100.497 Y119.900 E2.0889
G1 X100.100 Y119.503 E2.1071
G1 X98.748 Y117.857 E2.1760
G1 X98.435 Y117.388 E2.1942
G1 X97.431 Y115.508 E2.2631
G1 X97.217 Y114.990 E2.2812
G1 X96.599 Y112.953 E2.3500
G1 X96.489 Y112.402 E2.3682
G1 X96.280 Y110.281 E2.4371
G1 X96.280 Y109.719 E2.4553
G1 X96.489 Y107.598 E2.5241
G1 X96.599 Y107.047 E2.5423
G1 X97.217 Y105.010 E2.6111
G1 X97.431 Y104.492 E2.6292
G1 X98.435 Y102.612 E2.6981
G1 X98.748 Y102.143 E2.7164
G1 X100.100 Y100.497 E2.7852
G92 E0.0000
G1 E-2.5000 F1800
G1 X100.456 Y100.819 F4800
G1 E-0.7500 F1800
G92 E0.0000
G1 X100.819 Y100.456 E0.0166 F1600
G1 X102.430 Y99.134 E0.0840
G1 X102.859 Y98.847 E0.1007
G1 X104.697 Y97.866 E0.1680
G1 X105.172 Y97.669 E0.1846
G1 X107.164 Y97.065 E0.2519
G1 X107.669 Y96.965 E0.2686
G1 X109.742 Y96.760 E0.3359
G1 X110.258 Y96.760 E0.3526
G1 X112.331 Y96.965 E0.4200
G1 X112.836 Y97.065 E0.4366
G1 X114.828 Y97.669 E0.5039
G1 X115.303 Y97.866 E0.5205
G1 X117.141 Y98.847 E0.5879
G1 X117.570 Y99.134 E0.6046
G1 X119.181 Y100.456 E0.6719
G1 X119.544 Y100.819 E0.6885
G1 X120.866 Y102.430 E0.7559
G1 X121.153 Y102.859 E0.7726
G1 X122.134 Y104.697 E0.8400
G1 X122.331 Y105.172 E0.8566
G1 X122.935 Y107.164 E0.9239
G1 X123.035 Y107.669 E0.9405
G1 X123.240 Y109.742 E1.0078
G1 X123.240 Y110.258 E1.0245
G1 X123.035 Y112.331 E1.0919
G1 X122.935 Y112.836 E1.1085
G1 X122.331 Y114.828 E1.1758
G1 X122.134 Y115.303 E1.1924
G1 X121.153 Y117.141 E1.2598
G1 X120.866 Y117.570 E1.2765
G1 X119.544 Y119.181 E1.3438
G1 X119.181 Y119.544 E1.3605
G1 X117.570 Y120.866 E1.4278
G1 X117.141 Y121.153 E1.4445
G1 X115.303 Y122.134 E1.5119
G1 X114.828 Y122.331 E1.5285
G1 X112.836 Y122.935 E1.5958
G1 X112.331 Y123.035 E1.6124
G1 X110.258 Y123.240 E1.6798
G1 X109.742 Y123.240 E1.6964
G1 X107.669 Y123.035 E1.7638
G1 X107.164 Y122.935 E1.7804
G1 X105.172 Y122.331 E1.8477
G1 X104.697 Y122.134 E1.8643
G1 X102.859 Y121.153 E1.9317
G1 X102.430 Y120.866 E1.9484
G1 X100.819 Y119.544 E2.0158
G1 X100.456 Y119.181 E2.0324
G1 X99.134 Y117.570 E2.0997
G1 X98.847 Y117.141 E2.1164
G1 X97.866 Y115.303 E2.1838
G1 X97.669 Y114.828 E2.2004
G1 X97.065 Y112.836 E2.2677
G1 X96.965 Y112.331 E2.2843
G1 X96.760 Y110.258 E2.3517
G1 X96.760 Y109.742 E2.3684
G1 X96.965 Y107.669 E2.4357
G1 X97.065 Y107.164 E2.4523
G1 X97.669 Y105.172 E2.5196
G1 X97.866 Y104.697 E2.5362
G1 X98.847 Y102.859 E2.6036
G1 X99.134 Y102.430 E2.6203
G1 X100.456 Y100.819 E2.6877
G92 E0.0000
G1 E-2.5000 F1800
; feature inner perimeter
G1 X104.855 Y104.855 F4800
G1 E-0.7500 F1800
G92 E0.0000
G1 X105.957 Y103.950 E0.0461 F1240
G1 X107.216 Y103.277 E0.0922
G1 X108.580 Y102.864 E0.1383
G1 X110.000 Y102.724 E0.1845
G1 X111.420 Y102.864 E0.2306
G1 X112.784 Y103.277 E0.2767
G1 X114.043 Y103.950 E0.3228
G1 X115.145 Y104.855 E0.3689
G1 X116.050 Y105.957 E0.4150
G1 X116.723 Y107.216 E0.4612
G1 X117.136 Y108.580 E0.5073
G1 X117.276 Y110.000 E0.5534
G1 X117.136 Y111.420 E0.5995
G1 X116.723 Y112.784 E0.6456
G1 X116.050 Y114.043 E0.6917
G1 X115.145 Y115.145 E0.7378
G1 X114.043 Y116.050 E0.7840
G1 X112.784 Y116.723 E0.8301
G1 X111.420 Y117.136 E0.8762
G1 X110.000 Y117.276 E0.9223
G1 X108.580 Y117.136 E0.9684
G1 X107.216 Y116.723 E1.0145
G1 X105.957 Y116.050 E1.0607
G1 X104.855 Y115.145 E1.1068
G1 X103.950 Y114.043 E1.1529
G1 X103.277 Y112.784 E1.1990
G1 X102.864 Y111.420 E1.2451
G1 X102.724 Y110.000 E1.2912
G1 X102.864 Y108.580 E1.3374
G1 X103.277 Y107.216 E1.3835
G1 X103.950 Y105.957 E1.4296
G1 X104.728 Y105.009 E1.4692
G1 X104.855 Y104.855 F1240
; feature outer perimeter
G1 X104.514 Y104.514 F4800
G92 E0.0000
G1 X105.689 Y103.549 E0.0492 F880
G1 X107.031 Y102.832 E0.0984
G1 X108.486 Y102.391 E0.1475
G1 X110.000 Y102.241 E0.1967
G1 X111.514 Y102.391 E0.2459
G1 X112.969 Y102.832 E0.2950
G1 X114.311 Y103.549 E0.3442
G1 X115.486 Y104.514 E0.3934
G1 X116.451 Y105.689 E0.4425
G1 X117.168 Y107.031 E0.4917
G1 X117.609 Y108.486 E0.5409
G1 X117.759 Y110.000 E0.5901
G1 X117.609 Y111.514 E0.6392
G1 X117.168 Y112.969 E0.6884
G1 X116.451 Y114.311 E0.7376
G1 X115.486 Y115.486 E0.7868
G1 X114.311 Y116.451 E0.8359
G1 X112.969 Y117.168 E0.8851
G1 X111.514 Y117.609 E0.9343
G1 X110.000 Y117.759 E0.9834
G1 X108.486 Y117.609 E1.0326
G1 X107.031 Y117.168 E1.0818
G1 X105.689 Y116.451 E1.1310
G1 X104.514 Y115.486 E1.1801
G1 X103.549 Y114.311 E1.2293
G1 X102.832 Y112.969 E1.2785
G1 X102.391 Y111.514 E1.3276
G1 X102.241 Y110.000 E1.3768
G1 X102.391 Y108.486 E1.4260
G1 X102.832 Y107.031 E1.4752
G1 X103.549 Y105.689 E1.5243
G1 X104.387 Y104.668 E1.5670
G1 X104.514 Y104.514 F880
; feature solid layer
G1 X113.770 Y104.266 F4800
G92 E0.0000
G1 X115.734 Y106.230 E0.0898 F1280
G1 X116.344 Y107.373 E0.1317
G1 X116.408 Y107.583 E0.1388
G1 X112.417 Y103.592 E0.3212
G1 X111.443 Y103.297 E0.3541
G1 X116.703 Y108.557 E0.5946
G1 X116.734 Y108.660 E0.5981
G1 X116.801 Y109.334 E0.6200
G1 X110.666 Y103.199 E0.9005
G1 X110.000 Y103.133 E0.9221
G1 X109.929 Y103.141 E0.9244
G1 X116.859 Y110.071 E1.2413
G1 X116.799 Y110.689 E1.2614
G1 X109.311 Y103.201 E1.6037
G1 X108.693 Y103.262 E1.6238
G1 X116.738 Y111.307 E1.9916
G1 X116.734 Y111.340 E1.9926
G1 X116.585 Y111.833 E2.0093
G1 X108.167 Y103.415 E2.3942
G1 X107.646 Y103.573 E2.4118
G1 X116.427 Y112.354 E2.8132
G1 X116.344 Y112.627 E2.8224
G1 X116.232 Y112.837 E2.8301
G1 X107.163 Y103.768 E3.2448
G1 X106.720 Y104.005 E3.2610
G1 X115.995 Y113.280 E3.6851
G1 X115.759 Y113.723 E3.7013
G1 X106.277 Y104.241 E4.1348
G1 X106.185 Y104.291 E4.1382
G1 X105.890 Y104.532 E4.1505
G1 X115.468 Y114.110 E4.5884
G1 X115.162 Y114.483 E4.6040
G1 X105.517 Y104.838 E5.0449
G1 X105.144 Y105.144 E5.0605
G1 X114.856 Y114.856 E5.5045
G1 X114.483 Y115.162 E5.5201
G1 X104.838 Y105.517 E5.9610
G1 X104.532 Y105.890 E5.9766
G1 X114.110 Y115.468 E6.4145
G1 X113.815 Y115.709 E6.4268
G1 X113.723 Y115.759 E6.4302
G1 X104.241 Y106.277 E6.8637
G1 X104.005 Y106.720 E6.8799
G1 X113.280 Y115.995 E7.3040
G1 X112.837 Y116.232 E7.3202
G1 X103.768 Y107.162 E7.7349
G1 X103.656 Y107.373 E7.7426
G1 X103.573 Y107.646 E7.7518
G1 X112.354 Y116.427 E8.1533
G1 X111.833 Y116.585 E8.1709
G1 X103.415 Y108.167 E8.5557
G1 X103.266 Y108.660 E8.5724
G1 X103.262 Y108.693 E8.5734
G1 X111.307 Y116.738 E8.9412
G1 X110.689 Y116.799 E8.9613
G1 X103.201 Y109.311 E9.3036
G1 X103.141 Y109.929 E9.3237
G1 X110.071 Y116.859 E9.6406
G1 X110.000 Y116.867 E9.6429
G1 X109.334 Y116.801 E9.6646
G1 X103.199 Y110.666 E9.9450
