; G-Code generated by Simplify3D(R) Version 4.1.2
; May 26, 2020 at 3:18:01 PM
; Settings Summary
;   processName,Calibration Cube
;   applyToModels,Sensor_Bracket_12mm_Leo
;   profileName,Anet A8 (modified)
;   profileVersion,2020-05-17 12:50:12
;   baseProfile,
;   printMaterial,PETG
;   printQuality,Medium
;   printExtruders,
;   extruderName,Primary Extruder
;   extruderToolheadNumber,0
;   extruderDiameter,0.4
;   extruderAutoWidth,1
;   extruderWidth,0.48
;   extrusionMultiplier,0.9
;   extruderUseRetract,1
;   extruderRetractionDistance,2.5
;   extruderExtraRestartDistance,-0.75
;   extruderRetractionZLift,0
;   extruderRetractionSpeed,1800
;   extruderUseCoasting,1
;   extruderCoastingDistance,0.2
;   extruderUseWipe,0
;   extruderWipeDistance,5
;   primaryExtruder,0
;   layerHeight,0.2
;   topSolidLayers,3
;   bottomSolidLayers,3
;   perimeterOutlines,2
;   printPerimetersInsideOut,1
;   startPointOption,2
;   startPointOriginX,0
;   startPointOriginY,0
;   sequentialIslands,0
;   spiralVaseMode,0
;   firstLayerHeightPercentage,90
;   firstLayerWidthPercentage,100
;   firstLayerUnderspeed,0.5
;   useRaft,0
;   raftExtruder,0
;   raftTopLayers,3
;   raftBaseLayers,2
;   raftOffset,3
;   raftSeparationDistance,0.14
;   raftTopInfill,100
;   aboveRaftSpeedMultiplier,0.3
;   useSkirt,1
;   skirtExtruder,0
;   skirtLayers,1
;   skirtOutlines,3
;   skirtOffset,5
;   usePrimePillar,0
;   primePillarExtruder,999
;   primePillarWidth,12
;   primePillarLocation,7
;   primePillarSpeedMultiplier,1
;   useOozeShield,0
;   oozeShieldExtruder,999
;   oozeShieldOffset,2
;   oozeShieldOutlines,1
;   oozeShieldSidewallShape,1
;   oozeShieldSidewallAngle,30
;   oozeShieldSpeedMultiplier,1
;   infillExtruder,0
;   internalInfillPattern,Rectilinear
;   externalInfillPattern,Rectilinear
;   infillPercentage,50
;   outlineOverlapPercentage,15
;   infillExtrusionWidthPercentage,100
;   minInfillLength,5
;   infillLayerInterval,1
;   internalInfillAngles,45,-45
;   overlapInternalInfillAngles,0
;   externalInfillAngles,45,-45
;   generateSupport,1
;   supportExtruder,0
;   supportInfillPercentage,70
;   supportExtraInflation,0
;   supportBaseLayers,0
;   denseSupportExtruder,0
;   denseSupportLayers,0
;   denseSupportInfillPercentage,70
;   supportLayerInterval,1
;   supportHorizontalPartOffset,0.3
;   supportUpperSeparationLayers,1
;   supportLowerSeparationLayers,1
;   supportType,0
;   supportGridSpacing,4
;   maxOverhangAngle,45
;   supportAngles,0
;   temperatureName,Primary Extruder,Heated Bed
;   temperatureNumber,0,0
;   temperatureSetpointCount,1,1
;   temperatureSetpointLayers,1,1
;   temperatureSetpointTemperatures,225,70
;   temperatureStabilizeAtStartup,1,1
;   temperatureHeatedBed,0,1
;   fanLayers,1,2
;   fanSpeeds,0,100
;   blipFanToFullPower,0
;   adjustSpeedForCooling,1
;   minSpeedLayerTime,15
;   minCoolingSpeedSlowdown,20
;   increaseFanForCooling,0
;   minFanLayerTime,45
;   maxCoolingFanSpeed,100
;   increaseFanForBridging,0
;   bridgingFanSpeed,100
;   use5D,1
;   relativeEdistances,0
;   allowEaxisZeroing,1
;   independentExtruderAxes,0
;   includeM10123,0
;   stickySupport,1
;   applyToolheadOffsets,0
;   gcodeXoffset,0
;   gcodeYoffset,0
;   gcodeZoffset,0
;   overrideMachineDefinition,1
;   machineTypeOverride,0
;   strokeXoverride,220
;   strokeYoverride,220
;   strokeZoverride,240
;   originOffsetXoverride,0
;   originOffsetYoverride,0
;   originOffsetZoverride,0
;   homeXdirOverride,-1
;   homeYdirOverride,-1
;   homeZdirOverride,-1
;   flipXoverride,1
;   flipYoverride,-1
;   flipZoverride,1
;   toolheadOffsets,0,0|0,0|0,0|0,0|0,0|0,0
;   overrideFirmwareConfiguration,1
;   firmwareTypeOverride,RepRap (Marlin/Repetier/Sprinter)
;   GPXconfigOverride,r2
;   baudRateOverride,115200
;   overridePrinterModels,1
;   printerModelsOverride
;   startingGcode,M107 ; fan off,G28 ; home all axes,G29 ; run auto bed leveling,M500 ; store level values in EEPROM,G1 X0 Y20 Z0.2 F3000 ; get ready to prime on lower end,; G1 X0 Y190 Z0.2 F3000 ; get ready to prime on high end,G92 E0 ; reset extrusion distance,G1 X200 E10 F600 ; prime nozzle
;   layerChangeGcode,
;   retractionGcode,
;   toolChangeGcode,
;   endingGcode,M104 S0 ; turn off extruder,M140 S0 ; turn off bed,G91 ; use relative coordinates for jogging,G1 Z20 F1000 ; raise Z by 20mm at 1000 mm/min,G90 ; switch back to absolute coordinates,G1 X0 Y200 F1000 ; prepare for part removal,M84 ; disable motors,M107 ; turn off fan
;   exportFileFormat,gcode
;   celebration,0
;   celebrationSong,Random Song
;   postProcessing,
;   defaultSpeed,3200
;   outlineUnderspeed,0.55
;   solidInfillUnderspeed,0.8
;   supportUnderspeed,0.8
;   rapidXYspeed,4800
;   rapidZspeed,1000
;   minBridgingArea,50
;   bridgingExtraInflation,0
;   bridgingExtrusionMultiplier,1
;   bridgingSpeedMultiplier,1
;   useFixedBridgingAngle,0
;   fixedBridgingAngle,0
;   applyBridgingToPerimeters,0
;   filamentDiameters,1.75|1.75|1.75|1.75|1.75|1.75
;   filamentPricesPerKg,23.99|46|46|46|46|46
;   filamentDensities,1.25|1.25|1.25|1.25|1.25|1.25
;   useMinPrintHeight,0
;   minPrintHeight,0
;   useMaxPrintHeight,0
;   maxPrintHeight,0
;   useDiaphragm,0
;   diaphragmLayerInterval,20
;   robustSlicing,1
;   mergeAllIntoSolid,0
;   onlyRetractWhenCrossingOutline,1
;   retractBetweenLayers,1
;   useRetractionMinTravel,0
;   retractionMinTravel,3
;   retractWhileWiping,0
;   onlyWipeOutlines,1
;   avoidCrossingOutline,0
;   maxMovementDetourFactor,3
;   toolChangeRetractionDistance,12
;   toolChangeExtraRestartDistance,-0.5
;   toolChangeRetractionSpeed,600
;   externalThinWallType,0
;   internalThinWallType,2
;   thinWallAllowedOverlapPercentage,10
;   singleExtrusionMinLength,1
;   singleExtrusionMinPrintingWidthPercentage,50
;   singleExtrusionMaxPrintingWidthPercentage,200
;   singleExtrusionEndpointExtension,0.2
;   horizontalSizeCompensation,0
G90
M82
M106 S0
M140 S70
M190 S70
M104 S225 T0
M109 S225 T0
M107 ; fan off
G28 ; home all axes
G29 ; run auto bed leveling
M500 ; store level values in EEPROM
G1 X0 Y20 Z0.2 F3000 ; get ready to prime on lower end
; G1 X0 Y190 Z0.2 F3000 ; get ready to prime on high end
G92 E0 ; reset extrusion distance
G1 X200 E10 F600 ; prime nozzle
; process Calibration Cube
; layer 1, Z = 0.180
T0
G92 E0.0000
G1 E-2.5000 F1800
; feature skirt
; tool H0.180 W0.480
G1 Z0.180 F1000
G1 X79.955 Y99.315 F4800
G1 E-0.7500 F1800
G92 E0.0000
G1 X80.186 Y99.136 E0.0094 F1600
G1 X81.196 Y98.426 E0.0494
G1 X81.442 Y98.269 E0.0588
G1 X82.515 Y97.658 E0.0987
G1 X82.775 Y97.525 E0.1082
G1 X83.900 Y97.017 E0.1481
G1 X84.172 Y96.909 E0.1575
G1 X85.339 Y96.510 E0.1974
G1 X85.620 Y96.428 E0.2069
G1 X86.820 Y96.140 E0.2468
G1 X87.107 Y96.085 E0.2562
G1 X88.329 Y95.911 E0.2961
G1 X88.620 Y95.884 E0.3056
G1 X89.780 Y95.829 E0.3431
G1 X89.926 Y95.826 E0.3478
G1 X91.580 Y95.826 E0.4013
G1 X91.580 Y95.212 E0.4211
G1 X95.212 Y91.580 E0.5872
G1 X108.788 Y91.580 E1.0261
G1 X112.420 Y95.212 E1.1921
G1 X112.420 Y95.776 E1.2104
G1 X123.580 Y95.776 E1.5711
G1 X123.580 Y95.212 E1.5894
G1 X127.212 Y91.580 E1.7554
G1 X140.788 Y91.580 E2.1943
G1 X144.420 Y95.212 E2.3604
G1 X144.420 Y97.628 E2.4385
G1 X146.199 Y99.407 E2.5198
G1 X146.199 Y110.294 E2.8718
G1 X142.568 Y113.925 E3.0378
G1 X109.559 Y113.929 E4.1049
G1 X105.703 Y116.000 E4.2465
G1 X105.373 Y117.135 E4.2847
G1 X105.279 Y117.411 E4.2941
G1 X104.824 Y118.559 E4.3340
G1 X104.704 Y118.825 E4.3435
G1 X104.144 Y119.925 E4.3834
G1 X103.999 Y120.179 E4.3928
G1 X103.357 Y121.190 E4.4315
G1 X103.233 Y121.371 E4.4386
G1 X102.823 Y121.926 E4.4609
G1 X102.687 Y122.098 E4.4680
G1 X101.909 Y123.009 E4.5067
G1 X101.709 Y123.222 E4.5162
G1 X100.849 Y124.055 E4.5549
G1 X100.686 Y124.202 E4.5620
G1 X100.185 Y124.623 E4.5831
G1 X100.071 Y124.714 E4.5879
G1 X99.552 Y125.111 E4.6090
G1 X99.373 Y125.238 E4.6161
G1 X98.402 Y125.875 E4.6536
G1 X98.215 Y125.989 E4.6607
G1 X97.612 Y126.326 E4.6830
G1 X97.418 Y126.427 E4.6901
G1 X96.334 Y126.937 E4.7288
G1 X96.064 Y127.048 E4.7383
G1 X94.902 Y127.466 E4.7782
G1 X94.623 Y127.552 E4.7876
G1 X93.428 Y127.859 E4.8275
G1 X93.141 Y127.919 E4.8370
G1 X91.958 Y128.106 E4.8757
G1 X91.741 Y128.133 E4.8828
G1 X91.053 Y128.192 E4.9051
G1 X90.834 Y128.203 E4.9122
G1 X89.637 Y128.222 E4.9509
G1 X89.344 Y128.213 E4.9604
G1 X88.114 Y128.116 E5.0003
G1 X87.824 Y128.080 E5.0097
G1 X86.644 Y127.874 E5.0485
G1 X86.430 Y127.828 E5.0555
G1 X85.760 Y127.662 E5.0779
G1 X85.549 Y127.602 E5.0849
G1 X84.410 Y127.231 E5.1237
G1 X84.136 Y127.128 E5.1331
G1 X83.004 Y126.638 E5.1730
G1 X82.741 Y126.509 E5.1825
G1 X81.660 Y125.915 E5.2224
G1 X81.410 Y125.762 E5.2318
G1 X80.389 Y125.068 E5.2717
G1 X80.156 Y124.893 E5.2812
G1 X79.205 Y124.106 E5.3211
G1 X78.988 Y123.909 E5.3305
G1 X78.116 Y123.036 E5.3704
G1 X77.919 Y122.820 E5.3799
G1 X77.132 Y121.869 E5.4198
G1 X76.957 Y121.636 E5.4292
G1 X76.263 Y120.615 E5.4691
G1 X76.110 Y120.366 E5.4786
G1 X75.516 Y119.284 E5.5185
G1 X75.387 Y119.021 E5.5279
G1 X74.897 Y117.889 E5.5678
G1 X74.794 Y117.615 E5.5773
G1 X74.412 Y116.441 E5.6172
G1 X74.335 Y116.159 E5.6266
G1 X74.066 Y114.955 E5.6665
G1 X74.015 Y114.667 E5.6760
G1 X73.861 Y113.442 E5.7159
G1 X73.838 Y113.151 E5.7253
G1 X73.799 Y111.917 E5.7652
G1 X73.804 Y111.625 E5.7747
G1 X73.881 Y110.393 E5.8146
G1 X73.913 Y110.103 E5.8240
G1 X74.106 Y108.884 E5.8639
G1 X74.166 Y108.597 E5.8734
G1 X74.473 Y107.402 E5.9133
G1 X74.558 Y107.123 E5.9227
G1 X74.964 Y105.996 E5.9615
G1 X75.046 Y105.792 E5.9686
G1 X75.325 Y105.161 E5.9909
G1 X75.421 Y104.963 E5.9980
G1 X75.981 Y103.905 E6.0367
G1 X76.130 Y103.653 E6.0461
G1 X76.807 Y102.622 E6.0860
G1 X76.979 Y102.385 E6.0955
G1 X77.751 Y101.422 E6.1354
G1 X77.944 Y101.203 E6.1448
G1 X78.803 Y100.316 E6.1847
G1 X79.016 Y100.116 E6.1942
G1 X79.955 Y99.315 E6.2341
G92 E0.0000
G1 E-2.5000 F1800
G1 X80.258 Y99.687 F4800
G1 E-0.7500 F1800
G92 E0.0000
G1 X80.471 Y99.522 E0.0087 F1600
G1 X81.462 Y98.825 E0.0479
G1 X81.690 Y98.681 E0.0566
G1 X82.743 Y98.080 E0.0958
G1 X82.983 Y97.958 E0.1045
G1 X84.087 Y97.459 E0.1437
G1 X84.338 Y97.360 E0.1524
G1 X85.484 Y96.967 E0.1916
G1 X85.743 Y96.892 E0.2003
G1 X86.921 Y96.609 E0.2394
G1 X87.186 Y96.559 E0.2482
G1 X88.386 Y96.388 E0.2873
G1 X88.654 Y96.363 E0.2961
G1 X89.797 Y96.309 E0.3330
G1 X89.932 Y96.306 E0.3374
G1 X92.060 Y96.306 E0.4062
G1 X92.060 Y95.411 E0.4351
G1 X95.411 Y92.060 E0.5883
G1 X108.589 Y92.060 E1.0144
G1 X111.940 Y95.411 E1.1676
G1 X111.940 Y96.256 E1.1949
G1 X124.060 Y96.256 E1.5867
G1 X124.060 Y95.411 E1.6140
G1 X127.411 Y92.060 E1.7672
G1 X140.589 Y92.060 E2.1933
G1 X143.940 Y95.411 E2.3465
G1 X143.940 Y97.827 E2.4246
G1 X145.719 Y99.606 E2.5059
G1 X145.719 Y110.095 E2.8450
G1 X142.369 Y113.445 E2.9982
G1 X109.438 Y113.449 E4.0628
G1 X105.289 Y115.677 E4.2151
G1 X105.254 Y115.826 E4.2200
G1 X104.915 Y116.990 E4.2592
G1 X104.828 Y117.245 E4.2679
G1 X104.382 Y118.372 E4.3071
G1 X104.271 Y118.617 E4.3158
G1 X103.721 Y119.697 E4.3550
G1 X103.587 Y119.931 E4.3637
G1 X102.956 Y120.926 E4.4018
G1 X102.842 Y121.093 E4.4083
G1 X102.442 Y121.634 E4.4301
G1 X102.316 Y121.793 E4.4366
G1 X101.551 Y122.688 E4.4747
G1 X101.367 Y122.885 E4.4834
G1 X100.521 Y123.705 E4.5215
G1 X100.370 Y123.840 E4.5280
G1 X99.881 Y124.252 E4.5487
G1 X99.776 Y124.336 E4.5531
G1 X99.267 Y124.724 E4.5737
G1 X99.102 Y124.841 E4.5803
G1 X98.146 Y125.469 E4.6173
G1 X97.973 Y125.574 E4.6238
G1 X97.385 Y125.903 E4.6456
G1 X97.206 Y125.996 E4.6521
G1 X96.140 Y126.497 E4.6902
G1 X95.891 Y126.601 E4.6989
G1 X94.751 Y127.011 E4.7381
G1 X94.493 Y127.090 E4.7468
G1 X93.319 Y127.392 E4.7860
G1 X93.055 Y127.446 E4.7947
G1 X91.892 Y127.631 E4.8328
G1 X91.691 Y127.655 E4.8393
G1 X91.020 Y127.713 E4.8611
G1 X90.818 Y127.724 E4.8676
G1 X89.640 Y127.742 E4.9057
G1 X89.371 Y127.734 E4.9144
G1 X88.163 Y127.639 E4.9536
G1 X87.895 Y127.605 E4.9623
G1 X86.735 Y127.402 E5.0004
G1 X86.537 Y127.360 E5.0069
G1 X85.884 Y127.198 E5.0287
G1 X85.689 Y127.142 E5.0352
G1 X84.569 Y126.778 E5.0733
G1 X84.317 Y126.683 E5.0820
G1 X83.205 Y126.202 E5.1212
G1 X82.962 Y126.083 E5.1299
G1 X81.901 Y125.500 E5.1691
G1 X81.671 Y125.359 E5.1778
G1 X80.669 Y124.678 E5.2170
G1 X80.453 Y124.516 E5.2257
G1 X79.519 Y123.743 E5.2649
G1 X79.320 Y123.562 E5.2736
G1 X78.463 Y122.705 E5.3128
G1 X78.282 Y122.506 E5.3215
G1 X77.509 Y121.572 E5.3607
G1 X77.347 Y121.356 E5.3694
G1 X76.666 Y120.354 E5.4085
G1 X76.525 Y120.124 E5.4173
G1 X75.942 Y119.062 E5.4564
G1 X75.823 Y118.820 E5.4652
G1 X75.342 Y117.708 E5.5043
G1 X75.247 Y117.456 E5.5130
G1 X74.872 Y116.304 E5.5522
G1 X74.801 Y116.044 E5.5609
G1 X74.537 Y114.861 E5.6001
G1 X74.490 Y114.596 E5.6088
G1 X74.338 Y113.393 E5.6480
G1 X74.317 Y113.125 E5.6567
G1 X74.279 Y111.914 E5.6959
G1 X74.283 Y111.644 E5.7046
G1 X74.360 Y110.435 E5.7438
G1 X74.389 Y110.167 E5.7525
G1 X74.579 Y108.970 E5.7917
G1 X74.633 Y108.706 E5.8004
G1 X74.935 Y107.532 E5.8396
G1 X75.014 Y107.274 E5.8483
G1 X75.413 Y106.166 E5.8864
G1 X75.488 Y105.978 E5.8929
G1 X75.760 Y105.362 E5.9147
G1 X75.849 Y105.181 E5.9212
G1 X76.400 Y104.139 E5.9593
G1 X76.537 Y103.907 E5.9680
G1 X77.202 Y102.895 E6.0072
G1 X77.361 Y102.677 E6.0159
G1 X78.118 Y101.731 E6.0551
G1 X78.297 Y101.529 E6.0638
G1 X79.140 Y100.659 E6.1030
G1 X79.337 Y100.474 E6.1117
G1 X80.258 Y99.687 E6.1508
G92 E0.0000
G1 E-2.5000 F1800
G1 X80.561 Y100.059 F4800
G1 E-0.7500 F1800
G92 E0.0000
G1 X80.756 Y99.908 E0.0080 F1600
G1 X81.729 Y99.224 E0.0464
G1 X81.938 Y99.092 E0.0544
G1 X82.971 Y98.503 E0.0929
G1 X83.191 Y98.391 E0.1008
G1 X84.274 Y97.901 E0.1393
G1 X84.504 Y97.810 E0.1473
G1 X85.629 Y97.425 E0.1857
G1 X85.866 Y97.356 E0.1937
G1 X87.022 Y97.079 E0.2321
G1 X87.265 Y97.032 E0.2401
G1 X88.442 Y96.865 E0.2786
G1 X88.688 Y96.842 E0.2865
G1 X89.814 Y96.789 E0.3230
G1 X89.938 Y96.786 E0.3270
G1 X92.540 Y96.786 E0.4111
G1 X92.540 Y95.610 E0.4491
G1 X95.610 Y92.540 E0.5895
G1 X108.391 Y92.540 E1.0027
G1 X111.460 Y95.610 E1.1430
G1 X111.460 Y96.736 E1.1794
G1 X124.540 Y96.736 E1.6023
G1 X124.540 Y95.610 E1.6387
G1 X127.610 Y92.540 E1.7790
G1 X140.391 Y92.540 E2.1922
G1 X143.460 Y95.610 E2.3325
G1 X143.460 Y98.026 E2.4107
G1 X145.239 Y99.805 E2.4920
G1 X145.239 Y109.896 E2.8182
G1 X142.170 Y112.965 E2.9586
G1 X109.318 Y112.969 E4.0207
G1 X104.867 Y115.359 E4.1840
G1 X104.847 Y115.463 E4.1874
G1 X104.789 Y115.703 E4.1954
G1 X104.458 Y116.845 E4.2338
G1 X104.378 Y117.079 E4.2418
G1 X103.940 Y118.185 E4.2803
G1 X103.838 Y118.410 E4.2882
G1 X103.299 Y119.469 E4.3267
G1 X103.176 Y119.684 E4.3347
G1 X102.556 Y120.662 E4.3721
G1 X102.451 Y120.814 E4.3781
G1 X102.061 Y121.342 E4.3993
G1 X101.946 Y121.487 E4.4053
G1 X101.193 Y122.368 E4.4427
G1 X101.024 Y122.548 E4.4507
G1 X100.193 Y123.354 E4.4882
G1 X100.055 Y123.478 E4.4942
G1 X99.576 Y123.881 E4.5144
G1 X99.480 Y123.958 E4.5184
G1 X98.983 Y124.337 E4.5386
G1 X98.832 Y124.445 E4.5446
G1 X97.889 Y125.064 E4.5810
G1 X97.731 Y125.160 E4.5870
G1 X97.158 Y125.480 E4.6082
G1 X96.994 Y125.565 E4.6142
G1 X95.946 Y126.058 E4.6517
G1 X95.717 Y126.153 E4.6597
G1 X94.599 Y126.556 E4.6981
G1 X94.363 Y126.628 E4.7061
G1 X93.211 Y126.924 E4.7445
G1 X92.969 Y126.974 E4.7525
G1 X91.825 Y127.155 E4.7900
G1 X91.641 Y127.178 E4.7959
G1 X90.987 Y127.234 E4.8172
G1 X90.802 Y127.244 E4.8232
G1 X89.644 Y127.262 E4.8606
G1 X89.397 Y127.254 E4.8686
G1 X88.212 Y127.161 E4.9070
G1 X87.967 Y127.130 E4.9150
G1 X86.826 Y126.931 E4.9525
G1 X86.645 Y126.893 E4.9584
G1 X86.007 Y126.734 E4.9797
G1 X85.829 Y126.683 E4.9856
G1 X84.728 Y126.325 E5.0231
G1 X84.497 Y126.238 E5.0311
G1 X83.406 Y125.766 E5.0695
G1 X83.184 Y125.657 E5.0775
G1 X82.142 Y125.084 E5.1159
G1 X81.931 Y124.955 E5.1239
G1 X80.948 Y124.287 E5.1624
G1 X80.750 Y124.139 E5.1704
G1 X79.834 Y123.381 E5.2088
G1 X79.651 Y123.214 E5.2168
G1 X78.811 Y122.374 E5.2552
G1 X78.644 Y122.191 E5.2632
G1 X77.886 Y121.275 E5.3017
G1 X77.738 Y121.077 E5.3096
G1 X77.070 Y120.094 E5.3481
G1 X76.941 Y119.883 E5.3561
G1 X76.368 Y118.841 E5.3945
G1 X76.259 Y118.619 E5.4025
G1 X75.787 Y117.528 E5.4409
G1 X75.700 Y117.297 E5.4489
G1 X75.332 Y116.166 E5.4874
G1 X75.267 Y115.928 E5.4953
G1 X75.008 Y114.767 E5.5338
