; G-Code generated by Simplify3D(R) Version 4.1.2
; May 26, 2020 at 3:14:03 PM
; Settings Summary
;   processName,Calibration Cube
;   applyToModels,Spriya_-_Anet_A8_Fan_Duct_-_Thick_Walls
;   profileName,Anet A8 (modified)
;   profileVersion,2020-05-17 12:50:12
;   baseProfile,
;   printMaterial,PETG
;   printQuality,Medium
;   printExtruders,
;   extruderName,Primary Extruder
;   extruderToolheadNumber,0
;   extruderDiameter,0.4
;   extruderAutoWidth,1
;   extruderWidth,0.48
;   extrusionMultiplier,0.9
;   extruderUseRetract,1
;   extruderRetractionDistance,2.5
;   extruderExtraRestartDistance,-0.75
;   extruderRetractionZLift,0
;   extruderRetractionSpeed,1800
;   extruderUseCoasting,1
;   extruderCoastingDistance,0.2
;   extruderUseWipe,0
;   extruderWipeDistance,5
;   primaryExtruder,0
;   layerHeight,0.2
;   topSolidLayers,3
;   bottomSolidLayers,3
;   perimeterOutlines,2
;   printPerimetersInsideOut,1
;   startPointOption,2
;   startPointOriginX,0
;   startPointOriginY,0
;   sequentialIslands,0
;   spiralVaseMode,0
;   firstLayerHeightPercentage,90
;   firstLayerWidthPercentage,100
;   firstLayerUnderspeed,0.5
;   useRaft,0
;   raftExtruder,0
;   raftTopLayers,3
;   raftBaseLayers,2
;   raftOffset,3
;   raftSeparationDistance,0.14
;   raftTopInfill,100
;   aboveRaftSpeedMultiplier,0.3
;   useSkirt,1
;   skirtExtruder,0
;   skirtLayers,1
;   skirtOutlines,3
;   skirtOffset,5
;   usePrimePillar,0
;   primePillarExtruder,999
;   primePillarWidth,12
;   primePillarLocation,7
;   primePillarSpeedMultiplier,1
;   useOozeShield,0
;   oozeShieldExtruder,999
;   oozeShieldOffset,2
;   oozeShieldOutlines,1
;   oozeShieldSidewallShape,1
;   oozeShieldSidewallAngle,30
;   oozeShieldSpeedMultiplier,1
;   infillExtruder,0
;   internalInfillPattern,Rectilinear
;   externalInfillPattern,Rectilinear
;   infillPercentage,100
;   outlineOverlapPercentage,15
;   infillExtrusionWidthPercentage,100
;   minInfillLength,5
;   infillLayerInterval,1
;   internalInfillAngles,45,-45
;   overlapInternalInfillAngles,0
;   externalInfillAngles,45,-45
;   generateSupport,1
;   supportExtruder,0
;   supportInfillPercentage,70
;   supportExtraInflation,0
;   supportBaseLayers,0
;   denseSupportExtruder,0
;   denseSupportLayers,0
;   denseSupportInfillPercentage,70
;   supportLayerInterval,1
;   supportHorizontalPartOffset,0.3
;   supportUpperSeparationLayers,1
;   supportLowerSeparationLayers,1
;   supportType,0
;   supportGridSpacing,4
;   maxOverhangAngle,45
;   supportAngles,0
;   temperatureName,Primary Extruder,Heated Bed
;   temperatureNumber,0,0
;   temperatureSetpointCount,1,1
;   temperatureSetpointLayers,1,1
;   temperatureSetpointTemperatures,225,70
;   temperatureStabilizeAtStartup,1,1
;   temperatureHeatedBed,0,1
;   fanLayers,1,2
;   fanSpeeds,0,100
;   blipFanToFullPower,0
;   adjustSpeedForCooling,1
;   minSpeedLayerTime,15
;   minCoolingSpeedSlowdown,20
;   increaseFanForCooling,0
;   minFanLayerTime,45
;   maxCoolingFanSpeed,100
;   increaseFanForBridging,0
;   bridgingFanSpeed,100
;   use5D,1
;   relativeEdistances,0
;   allowEaxisZeroing,1
;   independentExtruderAxes,0
;   includeM10123,0
;   stickySupport,1
;   applyToolheadOffsets,0
;   gcodeXoffset,0
;   gcodeYoffset,0
;   gcodeZoffset,0
;   overrideMachineDefinition,1
;   machineTypeOverride,0
;   strokeXoverride,220
;   strokeYoverride,220
;   strokeZoverride,240
;   originOffsetXoverride,0
;   originOffsetYoverride,0
;   originOffsetZoverride,0
;   homeXdirOverride,-1
;   homeYdirOverride,-1
;   homeZdirOverride,-1
;   flipXoverride,1
;   flipYoverride,-1
;   flipZoverride,1
;   toolheadOffsets,0,0|0,0|0,0|0,0|0,0|0,0
;   overrideFirmwareConfiguration,1
;   firmwareTypeOverride,RepRap (Marlin/Repetier/Sprinter)
;   GPXconfigOverride,r2
;   baudRateOverride,115200
;   overridePrinterModels,1
;   printerModelsOverride
;   startingGcode,M107 ; fan off,G28 ; home all axes,G29 ; run auto bed leveling,M500 ; store level values in EEPROM,G1 X0 Y20 Z0.2 F3000 ; get ready to prime on lower end,; G1 X0 Y190 Z0.2 F3000 ; get ready to prime on high end,G92 E0 ; reset extrusion distance,G1 X200 E10 F600 ; prime nozzle
;   layerChangeGcode,
;   retractionGcode,
;   toolChangeGcode,
;   endingGcode,M104 S0 ; turn off extruder,M140 S0 ; turn off bed,G91 ; use relative coordinates for jogging,G1 Z20 F1000 ; raise Z by 20mm at 1000 mm/min,G90 ; switch back to absolute coordinates,G1 X0 Y200 F1000 ; prepare for part removal,M84 ; disable motors,M107 ; turn off fan
;   exportFileFormat,gcode
;   celebration,0
;   celebrationSong,Random Song
;   postProcessing,
;   defaultSpeed,3200
;   outlineUnderspeed,0.55
;   solidInfillUnderspeed,0.8
;   supportUnderspeed,0.8
;   rapidXYspeed,4800
;   rapidZspeed,1000
;   minBridgingArea,50
;   bridgingExtraInflation,0
;   bridgingExtrusionMultiplier,1
;   bridgingSpeedMultiplier,1
;   useFixedBridgingAngle,0
;   fixedBridgingAngle,0
;   applyBridgingToPerimeters,0
;   filamentDiameters,1.75|1.75|1.75|1.75|1.75|1.75
;   filamentPricesPerKg,23.99|46|46|46|46|46
;   filamentDensities,1.25|1.25|1.25|1.25|1.25|1.25
;   useMinPrintHeight,0
;   minPrintHeight,0
;   useMaxPrintHeight,0
;   maxPrintHeight,0
;   useDiaphragm,0
;   diaphragmLayerInterval,20
;   robustSlicing,1
;   mergeAllIntoSolid,0
;   onlyRetractWhenCrossingOutline,1
;   retractBetweenLayers,1
;   useRetractionMinTravel,0
;   retractionMinTravel,3
;   retractWhileWiping,0
;   onlyWipeOutlines,1
;   avoidCrossingOutline,0
;   maxMovementDetourFactor,3
;   toolChangeRetractionDistance,12
;   toolChangeExtraRestartDistance,-0.5
;   toolChangeRetractionSpeed,600
;   externalThinWallType,0
;   internalThinWallType,2
;   thinWallAllowedOverlapPercentage,10
;   singleExtrusionMinLength,1
;   singleExtrusionMinPrintingWidthPercentage,50
;   singleExtrusionMaxPrintingWidthPercentage,200
;   singleExtrusionEndpointExtension,0.2
;   horizontalSizeCompensation,0
G90
M82
M106 S0
M140 S70
M190 S70
M104 S225 T0
M109 S225 T0
M107 ; fan off
G28 ; home all axes
G29 ; run auto bed leveling
M500 ; store level values in EEPROM
G1 X0 Y20 Z0.2 F3000 ; get ready to prime on lower end
; G1 X0 Y190 Z0.2 F3000 ; get ready to prime on high end
G92 E0 ; reset extrusion distance
G1 X200 E10 F600 ; prime nozzle
; process Calibration Cube
; layer 1, Z = 0.180
T0
G92 E0.0000
G1 E-2.5000 F1800
; feature skirt
; tool H0.180 W0.480
G1 Z0.180 F1000
G1 X94.580 Y89.212 F4800
G1 E-0.7500 F1800
G92 E0.0000
G1 X98.212 Y85.580 E0.1660 F1600
G1 X109.788 Y85.580 E0.5403
G1 X110.000 Y85.792 E0.5500
G1 X110.212 Y85.580 E0.5597
G1 X121.788 Y85.580 E0.9339
G1 X125.420 Y89.212 E1.1000
G1 X125.420 Y100.788 E1.4742
G1 X121.788 Y104.420 E1.6403
G1 X110.212 Y104.420 E2.0145
G1 X110.000 Y104.208 E2.0242
G1 X109.788 Y104.420 E2.0339
G1 X98.212 Y104.420 E2.4081
G1 X94.580 Y100.788 E2.5742
G1 X94.580 Y89.212 E2.9484
G92 E0.0000
G1 E-2.5000 F1800
G1 X95.060 Y89.411 F4800
G1 E-0.7500 F1800
G92 E0.0000
G1 X98.411 Y86.060 E0.1532 F1600
G1 X109.589 Y86.060 E0.5146
G1 X110.000 Y86.471 E0.5334
G1 X110.411 Y86.060 E0.5521
G1 X121.589 Y86.060 E0.9135
G1 X124.940 Y89.411 E1.0667
G1 X124.940 Y100.589 E1.4281
G1 X121.589 Y103.940 E1.5813
G1 X110.411 Y103.940 E1.9427
G1 X110.000 Y103.529 E1.9615
G1 X109.589 Y103.940 E1.9803
G1 X98.411 Y103.940 E2.3416
G1 X95.060 Y100.589 E2.4948
G1 X95.060 Y89.411 E2.8562
G92 E0.0000
G1 E-2.5000 F1800
G1 X95.540 Y89.610 F4800
G1 E-0.7500 F1800
G92 E0.0000
G1 X98.610 Y86.540 E0.1403 F1600
G1 X109.391 Y86.540 E0.4889
G1 X110.000 Y87.150 E0.5167
G1 X110.610 Y86.540 E0.5446
G1 X121.391 Y86.540 E0.8931
G1 X124.460 Y89.610 E1.0335
G1 X124.460 Y100.390 E1.3820
G1 X121.391 Y103.460 E1.5224
G1 X110.610 Y103.460 E1.8709
G1 X110.000 Y102.850 E1.8988
G1 X109.391 Y103.460 E1.9266
G1 X98.610 Y103.460 E2.2752
G1 X95.540 Y100.390 E2.4155
G1 X95.540 Y89.610 E2.7640
G92 E0.0000
G1 E-2.5000 F1800
G1 X94.212 Y105.957 F4800
G1 E-0.7500 F1800
G92 E0.0000
G1 X102.248 Y105.846 E0.2598 F1600
G1 X102.269 Y105.846 E0.2605
G1 X121.723 Y105.710 E0.8895
G1 X125.384 Y109.338 E1.0561
G1 X125.434 Y133.810 E1.8472
G1 X119.193 Y137.393 E2.0799
G1 X92.167 Y121.539 E3.0929
G1 X90.524 Y118.624 E3.2010
G1 X90.650 Y109.518 E3.4955
G1 X94.212 Y105.957 E3.6583
G92 E0.0000
G1 E-2.5000 F1800
G1 X94.413 Y106.434 F4800
G1 E-0.7500 F1800
G92 E0.0000
G1 X102.254 Y106.326 E0.2535 F1600
G1 X102.274 Y106.326 E0.2541
G1 X121.527 Y106.191 E0.8766
G1 X124.905 Y109.538 E1.0303
G1 X124.954 Y133.533 E1.8060
G1 X119.196 Y136.838 E2.0207
G1 X92.521 Y121.190 E3.0205
G1 X91.006 Y118.501 E3.1202
G1 X91.128 Y109.719 E3.4042
G1 X94.413 Y106.434 E3.5544
G92 E0.0000
G1 E-2.5000 F1800
G1 X94.615 Y106.911 F4800
G1 E-0.7500 F1800
G92 E0.0000
G1 X102.260 Y106.806 E0.2472 F1600
G1 X102.278 Y106.806 E0.2478
G1 X121.331 Y106.673 E0.8637
G1 X124.425 Y109.739 E1.0046
G1 X124.473 Y133.255 E1.7648
G1 X119.199 Y136.283 E1.9614
G1 X92.876 Y120.842 E2.9480
G1 X91.487 Y118.378 E3.0395
G1 X91.605 Y109.921 E3.3129
G1 X94.615 Y106.911 E3.4505
G92 E0.0000
G1 E-2.5000 F1800
; feature inner perimeter
G1 X97.510 Y112.832 F4800
G1 E-0.7500 F1800
G92 E0.0000
G1 X102.330 Y112.766 E0.1559 F1240
G1 X118.482 Y112.653 E0.6780
G1 X118.505 Y128.947 E1.2048
G1 X97.471 Y116.610 E1.9932
G1 X97.508 Y113.032 E2.1088
G1 X97.510 Y112.832 F1240
; feature outer perimeter
G1 X97.034 Y112.410 F4800
G92 E0.0000
G1 X97.038 Y112.359 E0.0017 F880
G1 X102.327 Y112.286 E0.1727
G1 X118.955 Y112.169 E0.7102
G1 X118.961 Y112.478 E0.7202
G1 X118.986 Y129.801 E1.2802
G1 X118.771 Y129.660 E1.2886
G1 X96.988 Y116.883 E2.1050
G1 X97.032 Y112.610 E2.2431
G1 X97.034 Y112.410 F880
; feature solid layer
G1 X98.287 Y116.615 F4800
G92 E0.0000
G1 X97.883 Y116.211 E0.0185 F1280
G1 X97.890 Y115.539 E0.0402
G1 X99.929 Y117.578 E0.1334
G1 X101.571 Y118.541 E0.1949
G1 X97.897 Y114.868 E0.3629
G1 X97.904 Y114.196 E0.3846
G1 X103.213 Y119.505 E0.6274
G1 X104.855 Y120.468 E0.6889
G1 X97.911 Y113.524 E1.0064
G1 X97.914 Y113.235 E1.0157
G1 X98.295 Y113.229 E1.0281
G1 X106.497 Y121.431 E1.4030
G1 X108.138 Y122.394 E1.4646
G1 X98.965 Y113.220 E1.8840
G1 X99.634 Y113.211 E1.9056
G1 X109.780 Y123.357 E2.3695
G1 X111.422 Y124.320 E2.4310
G1 X100.304 Y113.202 E2.9393
G1 X100.974 Y113.192 E2.9610
G1 X113.064 Y125.283 E3.5138
G1 X114.706 Y126.246 E3.5753
G1 X101.643 Y113.183 E4.1725
G1 X102.313 Y113.174 E4.1942
G1 X116.348 Y127.209 E4.8359
G1 X117.990 Y128.172 E4.8974
G1 X102.987 Y113.169 E5.5833
G1 X103.661 Y113.164 E5.6051
G1 X118.095 Y127.599 E6.2651
G1 X118.094 Y126.919 E6.2870
G1 X104.335 Y113.160 E6.9161
G1 X105.009 Y113.155 E6.9379
G1 X118.093 Y126.239 E7.5361
G1 X118.092 Y125.559 E7.5581
G1 X105.683 Y113.150 E8.1254
G1 X106.357 Y113.146 E8.1472
G1 X118.091 Y124.879 E8.6837
G1 X118.090 Y124.200 E8.7057
G1 X107.031 Y113.141 E9.2113
G1 X107.706 Y113.136 E9.2331
G1 X118.089 Y123.520 E9.7078
G1 X118.088 Y122.840 E9.7298
G1 X108.380 Y113.131 E10.1737
G1 X109.054 Y113.127 E10.1954
G1 X118.087 Y122.160 E10.6085
G1 X118.086 Y121.480 E10.6304
G1 X109.728 Y113.122 E11.0126
G1 X110.402 Y113.117 E11.0344
G1 X118.085 Y120.801 E11.3857
G1 X118.084 Y120.121 E11.4076
G1 X111.076 Y113.113 E11.7280
G1 X111.750 Y113.108 E11.7498
G1 X118.083 Y119.441 E12.0394
G1 X118.082 Y118.761 E12.0614
G1 X112.424 Y113.103 E12.3201
G1 X113.098 Y113.098 E12.3418
G1 X118.081 Y118.081 E12.5697
G1 X118.080 Y117.402 E12.5916
G1 X113.773 Y113.094 E12.7886
G1 X114.447 Y113.089 E12.8104
G1 X118.079 Y116.722 E12.9765
G1 X118.078 Y116.042 E12.9985
G1 X115.121 Y113.084 E13.1337
G1 X115.795 Y113.080 E13.1555
G1 X118.077 Y115.362 E13.2598
G1 X118.076 Y114.682 E13.2818
G1 X116.469 Y113.075 E13.3553
G1 X117.143 Y113.070 E13.3771
G1 X118.075 Y114.003 E13.4197
G1 X118.075 Y113.323 E13.4417
G1 X117.959 Y113.207 E13.4470
G1 X117.817 Y113.065 F1280
G92 E0.0000
G1 E-2.5000 F1800
; feature support
G1 X118.970 Y97.657 F4800
G1 E-0.7500 F1800
G92 E0.0000
G1 X113.030 Y97.657 E0.1920 F1280
G1 X113.030 Y96.971 E0.2142
G1 X118.970 Y96.971 E0.4062
G1 X118.970 Y96.286 E0.4284
G1 X113.030 Y96.286 E0.6204
G1 X113.030 Y95.600 E0.6426
G1 X118.970 Y95.600 E0.8346
G1 X118.970 Y94.914 E0.8568
G1 X113.030 Y94.914 E1.0488
G1 X113.030 Y94.229 E1.0710
G1 X118.970 Y94.229 E1.2630
G1 X118.970 Y93.543 E1.2852
G1 X113.030 Y93.543 E1.4772
G1 X113.030 Y92.857 E1.4994
G1 X118.970 Y92.857 E1.6914
G1 X118.970 Y92.171 E1.7136
G1 X113.230 Y92.171 E1.8992
G1 X113.030 Y92.171 F1280
G92 E0.0000
G1 E-2.5000 F1800
G1 X106.970 Y97.657 F4800
G1 E-0.7500 F1800
G92 E0.0000
G1 X101.030 Y97.657 E0.1920 F1280
G1 X101.030 Y96.971 E0.2142
G1 X106.970 Y96.971 E0.4062
G1 X106.970 Y96.286 E0.4284
G1 X101.030 Y96.286 E0.6204
G1 X101.030 Y95.600 E0.6426
G1 X106.970 Y95.600 E0.8346
G1 X106.970 Y94.914 E0.8568
G1 X101.030 Y94.914 E1.0488
G1 X101.030 Y94.229 E1.0710
G1 X106.970 Y94.229 E1.2630
G1 X106.970 Y93.543 E1.2852
G1 X101.030 Y93.543 E1.4772
G1 X101.030 Y92.857 E1.4994
G1 X106.970 Y92.857 E1.6914
G1 X106.970 Y92.171 E1.7136
G1 X101.230 Y92.171 E1.8992
G1 X101.030 Y92.171 F1280
G92 E0.0000
G1 E-2.5000 F1800
; layer 2, Z = 0.380
M106 S255
; feature inner perimeter
; tool H0.200 W0.480
G1 Z0.380 F1000
G1 X97.550 Y111.791 F4800
G1 E-0.7500 F1800
G92 E0.0000
G1 X118.464 Y111.504 E0.7513 F2480
G1 X118.481 Y112.174 E0.7754
G1 X118.505 Y129.036 E1.3811
G1 X115.655 Y127.164 E1.5036
G1 X97.470 Y116.498 E2.2608
G1 X97.518 Y112.226 E2.4143
G1 X97.535 Y111.991 E2.4228
G1 X97.550 Y111.791 F2480
; feature outer perimeter
G1 X97.104 Y111.317 F4800
G92 E0.0000
G1 X118.931 Y111.018 E0.7841 F1760
G1 X118.961 Y112.168 E0.8255
G1 X118.986 Y129.926 E1.4634
G1 X115.402 Y127.572 E1.6174
G1 X97.032 Y116.797 E2.3824
G1 X96.987 Y116.797 E2.3840
G1 X97.038 Y112.205 E2.5490
G1 X97.089 Y111.517 E2.5738
G1 X97.104 Y111.317 F1760
; feature solid layer
G1 X97.922 Y112.574 F4800
G92 E0.0000
G1 X98.307 Y112.189 E0.0196 F2560
G1 X98.996 Y112.180 E0.0443
G1 X97.914 Y113.261 E0.0992
G1 X97.907 Y113.947 E0.1239
G1 X99.684 Y112.170 E0.2142
G1 X100.372 Y112.161 E0.2389
G1 X97.899 Y114.634 E0.3645
G1 X97.892 Y115.320 E0.3892
G1 X101.061 Y112.151 E0.5502
G1 X101.749 Y112.142 E0.5749
G1 X97.884 Y116.007 E0.7712
G1 X97.881 Y116.266 E0.7805
G1 X98.147 Y116.422 E0.7916
G1 X102.437 Y112.132 E1.0095
G1 X103.125 Y112.123 E1.0343
G1 X98.575 Y116.673 E1.2654
G1 X99.003 Y116.924 E1.2832
G1 X103.814 Y112.113 E1.5276
G1 X104.502 Y112.104 E1.5523
G1 X99.431 Y117.175 E1.8099
G1 X99.859 Y117.426 E1.8277
G1 X105.190 Y112.095 E2.0986
G1 X105.878 Y112.085 E2.1233
G1 X100.287 Y117.677 E2.4073
G1 X100.715 Y117.928 E2.4252
G1 X106.567 Y112.076 E2.7224
G1 X107.255 Y112.066 E2.7472
G1 X101.142 Y118.179 E3.0577
G1 X101.570 Y118.430 E3.0755
G1 X107.943 Y112.057 E3.3992
G1 X108.631 Y112.047 E3.4240
G1 X101.998 Y118.681 E3.7609
G1 X102.426 Y118.932 E3.7788
G1 X109.320 Y112.038 E4.1289
G1 X110.008 Y112.029 E4.1537
G1 X102.854 Y119.183 E4.5171
G1 X103.282 Y119.434 E4.5349
G1 X110.696 Y112.019 E4.9116
G1 X111.385 Y112.010 E4.9363
G1 X103.710 Y119.685 E5.3262
G1 X104.138 Y119.935 E5.3440
G1 X112.073 Y112.000 E5.7471
G1 X112.761 Y111.991 E5.7718
G1 X104.565 Y120.186 E6.1882
G1 X104.993 Y120.437 E6.2060
G1 X113.449 Y111.981 E6.6356
G1 X114.138 Y111.972 E6.6603
G1 X105.421 Y120.688 E7.1031
G1 X105.849 Y120.939 E7.1209
G1 X114.826 Y111.962 E7.5769
G1 X115.514 Y111.953 E7.6017
G1 X106.277 Y121.190 E8.0709
G1 X106.705 Y121.441 E8.0887
G1 X116.202 Y111.944 E8.5712
G1 X116.891 Y111.934 E8.5959
G1 X107.133 Y121.692 E9.0917
G1 X107.560 Y121.943 E9.1095
G1 X117.579 Y111.925 E9.6184
G1 X118.067 Y111.918 E9.6359
G1 X118.072 Y112.111 E9.6429
G1 X107.988 Y122.194 E10.1551
G1 X108.416 Y122.445 E10.1729
G1 X118.074 Y112.787 E10.6635
G1 X118.075 Y113.465 E10.6879
G1 X108.844 Y122.696 E11.1568
G1 X109.272 Y122.947 E11.1747
G1 X118.076 Y114.143 E11.6219
G1 X118.077 Y114.821 E11.6463
G1 X109.700 Y123.198 E12.0718
G1 X110.128 Y123.449 E12.0897
G1 X118.078 Y115.498 E12.4935
G1 X118.079 Y116.176 E12.5179
G1 X110.555 Y123.700 E12.9001
G1 X110.983 Y123.951 E12.9179
G1 X118.080 Y116.854 E13.2784
G1 X118.081 Y117.532 E13.3028
G1 X111.411 Y124.202 E13.6416
G1 X111.839 Y124.453 E13.6594
G1 X118.082 Y118.210 E13.9766
