; G-Code generated by Simplify3D(R) Version 4.1.2
; May 26, 2020 at 3:15:05 PM
; Settings Summary
;   processName,Calibration Cube
;   applyToModels,Spriya_-_Anet_A8_Fan_Duct
;   profileName,Anet A8 (modified)
;   profileVersion,2020-05-17 12:50:12
;   baseProfile,
;   printMaterial,PETG
;   printQuality,Medium
;   printExtruders,
;   extruderName,Primary Extruder
;   extruderToolheadNumber,0
;   extruderDiameter,0.4
;   extruderAutoWidth,1
;   extruderWidth,0.48
;   extrusionMultiplier,0.9
;   extruderUseRetract,1
;   extruderRetractionDistance,2.5
;   extruderExtraRestartDistance,-0.75
;   extruderRetractionZLift,0
;   extruderRetractionSpeed,1800
;   extruderUseCoasting,1
;   extruderCoastingDistance,0.2
;   extruderUseWipe,0
;   extruderWipeDistance,5
;   primaryExtruder,0
;   layerHeight,0.2
;   topSolidLayers,3
;   bottomSolidLayers,3
;   perimeterOutlines,2
;   printPerimetersInsideOut,1
;   startPointOption,2
;   startPointOriginX,0
;   startPointOriginY,0
;   sequentialIslands,0
;   spiralVaseMode,0
;   firstLayerHeightPercentage,90
;   firstLayerWidthPercentage,100
;   firstLayerUnderspeed,0.5
;   useRaft,0
;   raftExtruder,0
;   raftTopLayers,3
;   raftBaseLayers,2
;   raftOffset,3
;   raftSeparationDistance,0.14
;   raftTopInfill,100
;   aboveRaftSpeedMultiplier,0.3
;   useSkirt,1
;   skirtExtruder,0
;   skirtLayers,1
;   skirtOutlines,3
;   skirtOffset,5
;   usePrimePillar,0
;   primePillarExtruder,999
;   primePillarWidth,12
;   primePillarLocation,7
;   primePillarSpeedMultiplier,1
;   useOozeShield,0
;   oozeShieldExtruder,999
;   oozeShieldOffset,2
;   oozeShieldOutlines,1
;   oozeShieldSidewallShape,1
;   oozeShieldSidewallAngle,30
;   oozeShieldSpeedMultiplier,1
;   infillExtruder,0
;   internalInfillPattern,Rectilinear
;   externalInfillPattern,Rectilinear
;   infillPercentage,100
;   outlineOverlapPercentage,15
;   infillExtrusionWidthPercentage,100
;   minInfillLength,5
;   infillLayerInterval,1
;   internalInfillAngles,45,-45
;   overlapInternalInfillAngles,0
;   externalInfillAngles,45,-45
;   generateSupport,1
;   supportExtruder,0
;   supportInfillPercentage,70
;   supportExtraInflation,0
;   supportBaseLayers,0
;   denseSupportExtruder,0
;   denseSupportLayers,0
;   denseSupportInfillPercentage,70
;   supportLayerInterval,1
;   supportHorizontalPartOffset,0.3
;   supportUpperSeparationLayers,1
;   supportLowerSeparationLayers,1
;   supportType,0
;   supportGridSpacing,4
;   maxOverhangAngle,45
;   supportAngles,0
;   temperatureName,Primary Extruder,Heated Bed
;   temperatureNumber,0,0
;   temperatureSetpointCount,1,1
;   temperatureSetpointLayers,1,1
;   temperatureSetpointTemperatures,225,70
;   temperatureStabilizeAtStartup,1,1
;   temperatureHeatedBed,0,1
;   fanLayers,1,2
;   fanSpeeds,0,100
;   blipFanToFullPower,0
;   adjustSpeedForCooling,1
;   minSpeedLayerTime,15
;   minCoolingSpeedSlowdown,20
;   increaseFanForCooling,0
;   minFanLayerTime,45
;   maxCoolingFanSpeed,100
;   increaseFanForBridging,0
;   bridgingFanSpeed,100
;   use5D,1
;   relativeEdistances,0
;   allowEaxisZeroing,1
;   independentExtruderAxes,0
;   includeM10123,0
;   stickySupport,1
;   applyToolheadOffsets,0
;   gcodeXoffset,0
;   gcodeYoffset,0
;   gcodeZoffset,0
;   overrideMachineDefinition,1
;   machineTypeOverride,0
;   strokeXoverride,220
;   strokeYoverride,220
;   strokeZoverride,240
;   originOffsetXoverride,0
;   originOffsetYoverride,0
;   originOffsetZoverride,0
;   homeXdirOverride,-1
;   homeYdirOverride,-1
;   homeZdirOverride,-1
;   flipXoverride,1
;   flipYoverride,-1
;   flipZoverride,1
;   toolheadOffsets,0,0|0,0|0,0|0,0|0,0|0,0
;   overrideFirmwareConfiguration,1
;   firmwareTypeOverride,RepRap (Marlin/Repetier/Sprinter)
;   GPXconfigOverride,r2
;   baudRateOverride,115200
;   overridePrinterModels,1
;   printerModelsOverride
;   startingGcode,M107 ; fan off,G28 ; home all axes,G29 ; run auto bed leveling,M500 ; store level values in EEPROM,G1 X0 Y20 Z0.2 F3000 ; get ready to prime on lower end,; G1 X0 Y190 Z0.2 F3000 ; get ready to prime on high end,G92 E0 ; reset extrusion distance,G1 X200 E10 F600 ; prime nozzle
;   layerChangeGcode,
;   retractionGcode,
;   toolChangeGcode,
;   endingGcode,M104 S0 ; turn off extruder,M140 S0 ; turn off bed,G91 ; use relative coordinates for jogging,G1 Z20 F1000 ; raise Z by 20mm at 1000 mm/min,G90 ; switch back to absolute coordinates,G1 X0 Y200 F1000 ; prepare for part removal,M84 ; disable motors,M107 ; turn off fan
;   exportFileFormat,gcode
;   celebration,0
;   celebrationSong,Random Song
;   postProcessing,
;   defaultSpeed,3200
;   outlineUnderspeed,0.55
;   solidInfillUnderspeed,0.8
;   supportUnderspeed,0.8
;   rapidXYspeed,4800
;   rapidZspeed,1000
;   minBridgingArea,50
;   bridgingExtraInflation,0
;   bridgingExtrusionMultiplier,1
;   bridgingSpeedMultiplier,1
;   useFixedBridgingAngle,0
;   fixedBridgingAngle,0
;   applyBridgingToPerimeters,0
;   filamentDiameters,1.75|1.75|1.75|1.75|1.75|1.75
;   filamentPricesPerKg,23.99|46|46|46|46|46
;   filamentDensities,1.25|1.25|1.25|1.25|1.25|1.25
;   useMinPrintHeight,0
;   minPrintHeight,0
;   useMaxPrintHeight,0
;   maxPrintHeight,0
;   useDiaphragm,0
;   diaphragmLayerInterval,20
;   robustSlicing,1
;   mergeAllIntoSolid,0
;   onlyRetractWhenCrossingOutline,1
;   retractBetweenLayers,1
;   useRetractionMinTravel,0
;   retractionMinTravel,3
;   retractWhileWiping,0
;   onlyWipeOutlines,1
;   avoidCrossingOutline,0
;   maxMovementDetourFactor,3
;   toolChangeRetractionDistance,12
;   toolChangeExtraRestartDistance,-0.5
;   toolChangeRetractionSpeed,600
;   externalThinWallType,0
;   internalThinWallType,2
;   thinWallAllowedOverlapPercentage,10
;   singleExtrusionMinLength,1
;   singleExtrusionMinPrintingWidthPercentage,50
;   singleExtrusionMaxPrintingWidthPercentage,200
;   singleExtrusionEndpointExtension,0.2
;   horizontalSizeCompensation,0
G90
M82
M106 S0
M140 S70
M190 S70
M104 S225 T0
M109 S225 T0
M107 ; fan off
G28 ; home all axes
G29 ; run auto bed leveling
M500 ; store level values in EEPROM
G1 X0 Y20 Z0.2 F3000 ; get ready to prime on lower end
; G1 X0 Y190 Z0.2 F3000 ; get ready to prime on high end
G92 E0 ; reset extrusion distance
G1 X200 E10 F600 ; prime nozzle
; process Calibration Cube
; layer 1, Z = 0.180
T0
G92 E0.0000
G1 E-2.5000 F1800
; feature skirt
; tool H0.180 W0.480
G1 Z0.180 F1000
G1 X94.060 Y91.411 F4800
G1 E-0.7500 F1800
G92 E0.0000
G1 X97.411 Y88.060 E0.1532 F1600
G1 X106.589 Y88.060 E0.4499
G1 X109.940 Y91.411 E0.6031
G1 X109.940 Y100.589 E0.8999
G1 X106.589 Y103.940 E1.0530
G1 X97.411 Y103.940 E1.3498
G1 X94.060 Y100.589 E1.5030
G1 X94.060 Y91.411 E1.7997
G92 E0.0000
G1 E-2.5000 F1800
G1 X94.540 Y91.610 F4800
G1 E-0.7500 F1800
G92 E0.0000
G1 X97.610 Y88.540 E0.1403 F1600
G1 X106.391 Y88.540 E0.4242
G1 X109.460 Y91.610 E0.5646
G1 X109.460 Y100.390 E0.8484
G1 X106.391 Y103.460 E0.9888
G1 X97.610 Y103.460 E1.2726
G1 X94.540 Y100.390 E1.4130
G1 X94.540 Y91.610 E1.6969
G92 E0.0000
G1 E-2.5000 F1800
G1 X94.605 Y105.820 F4800
G1 E-0.7500 F1800
G92 E0.0000
G1 X103.312 Y105.737 E0.2815 F1600
G1 X103.327 Y105.737 E0.2820
G1 X121.346 Y105.652 E0.8645
G1 X124.998 Y109.281 E1.0310
G1 X125.030 Y132.675 E1.7873
G1 X121.398 Y136.313 E1.9535
G1 X117.868 Y136.313 E2.0676
G1 X116.130 Y135.793 E2.1263
G1 X114.158 Y134.498 E2.2025
G1 X95.459 Y123.126 E2.9101
G1 X94.560 Y123.126 E2.9391
G1 X90.921 Y119.449 E3.1064
G1 X91.022 Y109.401 E3.4312
G1 X94.605 Y105.820 E3.5950
G92 E0.0000
G1 E-2.5000 F1800
G1 X94.805 Y106.298 F4800
G1 E-0.7500 F1800
G92 E0.0000
G1 X103.316 Y106.217 E0.2751 F1600
G1 X103.330 Y106.217 E0.2756
G1 X121.149 Y106.133 E0.8517
G1 X124.518 Y109.481 E1.0052
G1 X124.550 Y132.477 E1.7487
G1 X121.199 Y135.833 E1.9020
G1 X117.938 Y135.833 E2.0074
G1 X116.335 Y135.353 E2.0615
G1 X114.414 Y134.092 E2.1358
G1 X95.593 Y122.645 E2.8480
G1 X94.761 Y122.645 E2.8749
G1 X91.403 Y119.254 E3.0292
G1 X91.500 Y109.602 E3.3412
G1 X94.805 Y106.298 E3.4923
G92 E0.0000
G1 E-2.5000 F1800
G1 X95.006 Y106.777 F4800
G1 E-0.7500 F1800
G92 E0.0000
G1 X103.320 Y106.697 E0.2688 F1600
G1 X103.333 Y106.697 E0.2692
G1 X120.952 Y106.614 E0.8388
G1 X124.039 Y109.681 E0.9795
G1 X124.070 Y132.278 E1.7101
G1 X120.999 Y135.353 E1.8505
G1 X118.008 Y135.353 E1.9472
G1 X116.540 Y134.914 E1.9968
G1 X114.671 Y133.687 E2.0691
G1 X95.728 Y122.165 E2.7858
G1 X94.961 Y122.165 E2.8106
G1 X91.885 Y119.059 E2.9520
G1 X91.978 Y109.803 E3.2512
G1 X95.006 Y106.777 E3.3896
G92 E0.0000
G1 E-2.5000 F1800
G1 X97.212 Y104.420 F4800
G1 E-0.7500 F1800
G92 E0.0000
G1 X93.580 Y100.788 E0.1660 F1600
G1 X93.580 Y91.212 E0.4756
G1 X97.212 Y87.580 E0.6417
G1 X106.788 Y87.580 E0.9513
G1 X110.000 Y90.792 E1.0981
G1 X113.212 Y87.580 E1.2450
G1 X126.788 Y87.580 E1.6839
G1 X130.420 Y91.212 E1.8499
G1 X130.420 Y100.788 E2.1595
G1 X126.788 Y104.420 E2.3256
G1 X113.212 Y104.420 E2.7645
G1 X110.000 Y101.208 E2.9113
G1 X106.788 Y104.420 E3.0582
G1 X97.212 Y104.420 E3.3677
G92 E0.0000
G1 E-2.5000 F1800
G1 X110.060 Y100.589 F4800
G1 E-0.7500 F1800
G92 E0.0000
G1 X110.060 Y91.411 E0.2967 F1600
G1 X113.411 Y88.060 E0.4499
G1 X126.589 Y88.060 E0.8760
G1 X129.940 Y91.411 E1.0292
G1 X129.940 Y100.589 E1.3259
G1 X126.589 Y103.940 E1.4791
G1 X113.411 Y103.940 E1.9051
G1 X110.060 Y100.589 E2.0583
G92 E0.0000
G1 E-2.5000 F1800
G1 X110.540 Y100.390 F4800
G1 E-0.7500 F1800
G92 E0.0000
G1 X110.540 Y91.610 E0.2839 F1600
G1 X113.610 Y88.540 E0.4242
G1 X126.391 Y88.540 E0.8374
G1 X129.460 Y91.610 E0.9777
G1 X129.460 Y100.390 E1.2616
G1 X126.391 Y103.460 E1.4020
G1 X113.610 Y103.460 E1.8152
G1 X110.540 Y100.390 E1.9555
G92 E0.0000
G1 E-2.5000 F1800
; feature inner perimeter
G1 X103.371 Y112.657 F4800
G1 E-0.7500 F1800
G92 E0.0000
G1 X118.083 Y112.587 E0.4756 F1240
G1 X118.105 Y128.800 E0.9997
G1 X97.870 Y116.492 E1.7654
G1 X97.895 Y112.709 E1.8877
G1 X103.171 Y112.659 E2.0583
G1 X103.371 Y112.657 F1240
; feature outer perimeter
G1 X103.365 Y112.177 F4800
G92 E0.0000
G1 X118.562 Y112.105 E0.4913 F880
G1 X118.586 Y129.702 E1.0602
G1 X117.599 Y129.054 E1.0984
G1 X97.388 Y116.761 E1.8631
G1 X97.418 Y112.325 E2.0065
G1 X97.423 Y112.234 E2.0095
G1 X103.165 Y112.179 E2.1952
G1 X103.365 Y112.177 F880
; feature solid layer
G1 X99.135 Y116.785 F4800
G92 E0.0000
G1 X98.282 Y115.931 E0.0390 F1280
G1 X98.286 Y115.257 E0.0608
G1 X100.868 Y117.838 E0.1789
G1 X102.600 Y118.892 E0.2444
G1 X98.291 Y114.582 E0.4415
G1 X98.295 Y113.908 E0.4633
G1 X104.333 Y119.946 E0.7393
G1 X106.065 Y121.000 E0.8049
G1 X98.300 Y113.234 E1.1599
G1 X98.301 Y113.113 E1.1638
G1 X98.853 Y113.108 E1.1817
G1 X107.798 Y122.053 E1.5906
G1 X109.531 Y123.107 E1.6562
G1 X99.525 Y113.102 E2.1136
G1 X100.198 Y113.095 E2.1354
G1 X111.263 Y124.161 E2.6413
G1 X112.996 Y125.215 E2.7069
G1 X100.870 Y113.089 E3.2613
G1 X101.542 Y113.082 E3.2830
G1 X114.728 Y126.268 E3.8859
G1 X116.461 Y127.322 E3.9514
G1 X102.215 Y113.076 E4.6028
G1 X102.887 Y113.069 E4.6245
G1 X117.696 Y127.878 E5.3015
G1 X117.695 Y127.198 E5.3235
G1 X103.560 Y113.064 E5.9697
G1 X104.236 Y113.061 E5.9916
G1 X117.694 Y126.519 E6.6069
G1 X117.693 Y125.839 E6.6289
G1 X104.912 Y113.057 E7.2132
G1 X105.587 Y113.054 E7.2351
G1 X117.692 Y125.159 E7.7885
G1 X117.691 Y124.479 E7.8105
G1 X106.263 Y113.051 E8.3330
G1 X106.938 Y113.048 E8.3548
G1 X117.690 Y123.800 E8.8464
G1 X117.689 Y123.120 E8.8684
G1 X107.614 Y113.045 E9.3290
G1 X108.290 Y113.041 E9.3508
G1 X117.688 Y122.440 E9.7805
G1 X117.687 Y121.760 E9.8025
G1 X108.965 Y113.038 E10.2013
G1 X109.641 Y113.035 E10.2231
G1 X117.686 Y121.080 E10.5909
G1 X117.685 Y120.401 E10.6129
G1 X110.317 Y113.032 E10.9498
G1 X110.992 Y113.029 E10.9717
G1 X117.684 Y119.721 E11.2776
G1 X117.684 Y119.041 E11.2996
G1 X111.668 Y113.026 E11.5746
G1 X112.344 Y113.022 E11.5965
G1 X117.683 Y118.361 E11.8406
G1 X117.682 Y117.682 E11.8626
G1 X113.019 Y113.019 E12.0757
G1 X113.695 Y113.016 E12.0976
G1 X117.681 Y117.002 E12.2798
G1 X117.680 Y116.322 E12.3018
G1 X114.370 Y113.013 E12.4531
G1 X115.046 Y113.010 E12.4749
G1 X117.679 Y115.642 E12.5953
G1 X117.678 Y114.963 E12.6173
G1 X115.722 Y113.006 E12.7067
G1 X116.397 Y113.003 E12.7286
G1 X117.677 Y114.283 E12.7871
G1 X117.676 Y113.603 E12.8090
G1 X117.214 Y113.141 E12.8301
G1 X117.073 Y113.000 F1280
G92 E0.0000
G1 E-2.5000 F1800
; feature support
G1 X116.030 Y97.600 F4800
G1 E-0.7500 F1800
G92 E0.0000
G1 X123.970 Y97.600 E0.2567 F1280
G1 X123.970 Y96.914 E0.2789
G1 X116.030 Y96.914 E0.5356
G1 X116.030 Y96.229 E0.5577
G1 X123.970 Y96.229 E0.8144
G1 X123.970 Y95.543 E0.8366
G1 X116.030 Y95.543 E1.0933
G1 X116.030 Y94.857 E1.1154
G1 X123.970 Y94.857 E1.3721
G1 X123.970 Y94.171 E1.3943
G1 X116.230 Y94.171 E1.6445
G1 X116.030 Y94.171 F1280
G92 E0.0000
G1 E-2.5000 F1800
G1 X100.030 Y94.171 F4800
G1 E-0.7500 F1800
G92 E0.0000
G1 X103.970 Y94.171 E0.1274 F1280
G1 X103.970 Y94.857 E0.1495
G1 X100.030 Y94.857 E0.2769
G1 X100.030 Y95.543 E0.2991
G1 X103.970 Y95.543 E0.4265
G1 X103.970 Y96.229 E0.4486
G1 X100.030 Y96.229 E0.5760
G1 X100.030 Y96.914 E0.5982
G1 X103.970 Y96.914 E0.7256
G1 X103.970 Y97.600 E0.7477
G1 X100.230 Y97.600 E0.8686
G1 X100.030 Y97.600 F1280
G92 E0.0000
G1 E-2.5000 F1800
; layer 2, Z = 0.380
M106 S255
; feature inner perimeter
; tool H0.200 W0.480
G1 Z0.380 F1000
G1 X97.928 Y111.658 F4800
G1 E-0.7500 F1800
G92 E0.0000
G1 X113.075 Y111.513 E0.5441 F2480
G1 X118.079 Y111.499 E0.7239
G1 X118.090 Y112.099 E0.7454
G1 X118.106 Y128.937 E1.3502
G1 X112.897 Y125.516 E1.5741
G1 X97.868 Y116.376 E2.2059
G1 X97.900 Y112.137 E2.3582
G1 X97.917 Y111.858 E2.3682
G1 X97.928 Y111.658 F2480
; feature outer perimeter
G1 X97.475 Y111.183 F4800
G92 E0.0000
G1 X113.072 Y111.033 E0.5603 F1760
G1 X118.550 Y111.018 E0.7571
G1 X118.570 Y112.094 E0.7957
G1 X118.587 Y129.827 E1.4327
G1 X112.640 Y125.922 E1.6883
G1 X97.453 Y116.686 E2.3267
G1 X97.386 Y116.686 E2.3292
G1 X97.421 Y112.121 E2.4931
G1 X97.463 Y111.382 E2.5197
G1 X97.475 Y111.183 F1760
; feature solid layer
G1 X98.308 Y112.188 F4800
G92 E0.0000
G1 X98.435 Y112.061 E0.0065 F2560
G1 X99.120 Y112.055 E0.0311
G1 X98.303 Y112.872 E0.0726
G1 X98.298 Y113.556 E0.0972
G1 X99.806 Y112.048 E0.1738
G1 X100.491 Y112.042 E0.1984
G1 X98.293 Y114.240 E0.3101
G1 X98.287 Y114.924 E0.3347
G1 X101.177 Y112.035 E0.4814
G1 X101.862 Y112.029 E0.5061
G1 X98.282 Y115.608 E0.6879
G1 X98.278 Y116.148 E0.7073
G1 X98.367 Y116.202 E0.7110
G1 X102.547 Y112.022 E0.9234
G1 X103.233 Y112.016 E0.9480
G1 X98.790 Y116.459 E1.1737
G1 X99.212 Y116.715 E1.1915
G1 X103.918 Y112.009 E1.4306
G1 X104.604 Y112.002 E1.4552
G1 X99.634 Y116.972 E1.7077
G1 X100.056 Y117.229 E1.7254
G1 X105.289 Y111.996 E1.9912
G1 X105.974 Y111.989 E2.0159
G1 X100.478 Y117.486 E2.2951
G1 X100.900 Y117.742 E2.3128
G1 X106.660 Y111.983 E2.6054
G1 X107.345 Y111.976 E2.6300
G1 X101.322 Y117.999 E2.9360
G1 X101.744 Y118.256 E2.9538
G1 X108.030 Y111.970 E3.2731
G1 X108.716 Y111.963 E3.2977
G1 X102.166 Y118.513 E3.6304
G1 X102.588 Y118.769 E3.6482
G1 X109.401 Y111.956 E3.9943
G1 X110.087 Y111.950 E4.0189
G1 X103.011 Y119.026 E4.3784
G1 X103.433 Y119.283 E4.3961
G1 X110.772 Y111.943 E4.7690
G1 X111.457 Y111.937 E4.7936
G1 X103.855 Y119.539 E5.1798
G1 X104.277 Y119.796 E5.1975
G1 X112.143 Y111.930 E5.5971
G1 X112.828 Y111.924 E5.6217
G1 X104.699 Y120.053 E6.0347
G1 X105.121 Y120.310 E6.0525
G1 X113.511 Y111.920 E6.4787
G1 X114.191 Y111.918 E6.5031
G1 X105.543 Y120.566 E6.9424
G1 X105.965 Y120.823 E6.9602
G1 X114.872 Y111.916 E7.4127
G1 X115.553 Y111.914 E7.4371
G1 X106.387 Y121.080 E7.9027
G1 X106.809 Y121.336 E7.9205
G1 X116.234 Y111.912 E8.3992
G1 X116.914 Y111.910 E8.4237
G1 X107.232 Y121.593 E8.9155
G1 X107.654 Y121.850 E8.9333
G1 X117.595 Y111.908 E9.4383
G1 X117.678 Y111.908 E9.4413
G1 X117.682 Y112.103 E9.4483
G1 X117.682 Y112.500 E9.4626
G1 X108.076 Y122.107 E9.9506
G1 X108.498 Y122.363 E9.9683
G1 X117.683 Y113.178 E10.4349
G1 X117.684 Y113.856 E10.4593
G1 X108.920 Y122.620 E10.9045
G1 X109.342 Y122.877 E10.9222
G1 X117.684 Y114.535 E11.3460
G1 X117.685 Y115.213 E11.3704
G1 X109.764 Y123.134 E11.7727
G1 X110.186 Y123.390 E11.7905
G1 X117.685 Y115.891 E12.1714
