; G-Code generated by Simplify3D(R) Version 4.1.2
; May 26, 2020 at 3:22:14 PM
; Settings Summary
;   processName,Calibration Cube
;   applyToModels,X_Chain_Carriage_Mount,X_Chain_Motor_Mount
;   profileName,Anet A8 (modified)
;   profileVersion,2020-05-17 12:50:12
;   baseProfile,
;   printMaterial,PETG
;   printQuality,Medium
;   printExtruders,
;   extruderName,Primary Extruder
;   extruderToolheadNumber,0
;   extruderDiameter,0.4
;   extruderAutoWidth,1
;   extruderWidth,0.48
;   extrusionMultiplier,0.9
;   extruderUseRetract,1
;   extruderRetractionDistance,2.5
;   extruderExtraRestartDistance,-0.75
;   extruderRetractionZLift,0
;   extruderRetractionSpeed,1800
;   extruderUseCoasting,1
;   extruderCoastingDistance,0.2
;   extruderUseWipe,0
;   extruderWipeDistance,5
;   primaryExtruder,0
;   layerHeight,0.2
;   topSolidLayers,3
;   bottomSolidLayers,3
;   perimeterOutlines,2
;   printPerimetersInsideOut,1
;   startPointOption,2
;   startPointOriginX,0
;   startPointOriginY,0
;   sequentialIslands,0
;   spiralVaseMode,0
;   firstLayerHeightPercentage,90
;   firstLayerWidthPercentage,100
;   firstLayerUnderspeed,0.5
;   useRaft,0
;   raftExtruder,0
;   raftTopLayers,3
;   raftBaseLayers,2
;   raftOffset,3
;   raftSeparationDistance,0.14
;   raftTopInfill,100
;   aboveRaftSpeedMultiplier,0.3
;   useSkirt,1
;   skirtExtruder,0
;   skirtLayers,1
;   skirtOutlines,3
;   skirtOffset,5
;   usePrimePillar,0
;   primePillarExtruder,999
;   primePillarWidth,12
;   primePillarLocation,7
;   primePillarSpeedMultiplier,1
;   useOozeShield,0
;   oozeShieldExtruder,999
;   oozeShieldOffset,2
;   oozeShieldOutlines,1
;   oozeShieldSidewallShape,1
;   oozeShieldSidewallAngle,30
;   oozeShieldSpeedMultiplier,1
;   infillExtruder,0
;   internalInfillPattern,Rectilinear
;   externalInfillPattern,Rectilinear
;   infillPercentage,50
;   outlineOverlapPercentage,15
;   infillExtrusionWidthPercentage,100
;   minInfillLength,5
;   infillLayerInterval,1
;   internalInfillAngles,45,-45
;   overlapInternalInfillAngles,0
;   externalInfillAngles,45,-45
;   generateSupport,1
;   supportExtruder,0
;   supportInfillPercentage,70
;   supportExtraInflation,0
;   supportBaseLayers,0
;   denseSupportExtruder,0
;   denseSupportLayers,0
;   denseSupportInfillPercentage,70
;   supportLayerInterval,1
;   supportHorizontalPartOffset,0.3
;   supportUpperSeparationLayers,1
;   supportLowerSeparationLayers,1
;   supportType,0
;   supportGridSpacing,4
;   maxOverhangAngle,45
;   supportAngles,0
;   temperatureName,Primary Extruder,Heated Bed
;   temperatureNumber,0,0
;   temperatureSetpointCount,1,1
;   temperatureSetpointLayers,1,1
;   temperatureSetpointTemperatures,225,70
;   temperatureStabilizeAtStartup,1,1
;   temperatureHeatedBed,0,1
;   fanLayers,1,2
;   fanSpeeds,0,100
;   blipFanToFullPower,0
;   adjustSpeedForCooling,1
;   minSpeedLayerTime,15
;   minCoolingSpeedSlowdown,20
;   increaseFanForCooling,0
;   minFanLayerTime,45
;   maxCoolingFanSpeed,100
;   increaseFanForBridging,0
;   bridgingFanSpeed,100
;   use5D,1
;   relativeEdistances,0
;   allowEaxisZeroing,1
;   independentExtruderAxes,0
;   includeM10123,0
;   stickySupport,1
;   applyToolheadOffsets,0
;   gcodeXoffset,0
;   gcodeYoffset,0
;   gcodeZoffset,0
;   overrideMachineDefinition,1
;   machineTypeOverride,0
;   strokeXoverride,220
;   strokeYoverride,220
;   strokeZoverride,240
;   originOffsetXoverride,0
;   originOffsetYoverride,0
;   originOffsetZoverride,0
;   homeXdirOverride,-1
;   homeYdirOverride,-1
;   homeZdirOverride,-1
;   flipXoverride,1
;   flipYoverride,-1
;   flipZoverride,1
;   toolheadOffsets,0,0|0,0|0,0|0,0|0,0|0,0
;   overrideFirmwareConfiguration,1
;   firmwareTypeOverride,RepRap (Marlin/Repetier/Sprinter)
;   GPXconfigOverride,r2
;   baudRateOverride,115200
;   overridePrinterModels,1
;   printerModelsOverride
;   startingGcode,M107 ; fan off,G28 ; home all axes,G29 ; run auto bed leveling,M500 ; store level values in EEPROM,G1 X0 Y20 Z0.2 F3000 ; get ready to prime on lower end,; G1 X0 Y190 Z0.2 F3000 ; get ready to prime on high end,G92 E0 ; reset extrusion distance,G1 X200 E10 F600 ; prime nozzle
;   layerChangeGcode,
;   retractionGcode,
;   toolChangeGcode,
;   endingGcode,M104 S0 ; turn off extruder,M140 S0 ; turn off bed,G91 ; use relative coordinates for jogging,G1 Z20 F1000 ; raise Z by 20mm at 1000 mm/min,G90 ; switch back to absolute coordinates,G1 X0 Y200 F1000 ; prepare for part removal,M84 ; disable motors,M107 ; turn off fan
;   exportFileFormat,gcode
;   celebration,0
;   celebrationSong,Random Song
;   postProcessing,
;   defaultSpeed,3200
;   outlineUnderspeed,0.55
;   solidInfillUnderspeed,0.8
;   supportUnderspeed,0.8
;   rapidXYspeed,4800
;   rapidZspeed,1000
;   minBridgingArea,50
;   bridgingExtraInflation,0
;   bridgingExtrusionMultiplier,1
;   bridgingSpeedMultiplier,1
;   useFixedBridgingAngle,0
;   fixedBridgingAngle,0
;   applyBridgingToPerimeters,0
;   filamentDiameters,1.75|1.75|1.75|1.75|1.75|1.75
;   filamentPricesPerKg,23.99|46|46|46|46|46
;   filamentDensities,1.25|1.25|1.25|1.25|1.25|1.25
;   useMinPrintHeight,0
;   minPrintHeight,0
;   useMaxPrintHeight,0
;   maxPrintHeight,0
;   useDiaphragm,0
;   diaphragmLayerInterval,20
;   robustSlicing,1
;   mergeAllIntoSolid,0
;   onlyRetractWhenCrossingOutline,1
;   retractBetweenLayers,1
;   useRetractionMinTravel,0
;   retractionMinTravel,3
;   retractWhileWiping,0
;   onlyWipeOutlines,1
;   avoidCrossingOutline,0
;   maxMovementDetourFactor,3
;   toolChangeRetractionDistance,12
;   toolChangeExtraRestartDistance,-0.5
;   toolChangeRetractionSpeed,600
;   externalThinWallType,0
;   internalThinWallType,2
;   thinWallAllowedOverlapPercentage,10
;   singleExtrusionMinLength,1
;   singleExtrusionMinPrintingWidthPercentage,50
;   singleExtrusionMaxPrintingWidthPercentage,200
;   singleExtrusionEndpointExtension,0.2
;   horizontalSizeCompensation,0
G90
M82
M106 S0
M140 S70
M190 S70
M104 S225 T0
M109 S225 T0
M107 ; fan off
G28 ; home all axes
G29 ; run auto bed leveling
M500 ; store level values in EEPROM
G1 X0 Y20 Z0.2 F3000 ; get ready to prime on lower end
; G1 X0 Y190 Z0.2 F3000 ; get ready to prime on high end
G92 E0 ; reset extrusion distance
G1 X200 E10 F600 ; prime nozzle
; process Calibration Cube
; layer 1, Z = 0.180
T0
G92 E0.0000
G1 E-2.5000 F1800
; feature skirt
; tool H0.180 W0.480
G1 Z0.180 F1000
G1 X77.050 Y79.968 F4800
G1 E-0.7500 F1800
G92 E0.0000
G1 X80.682 Y76.337 E0.1660 F1600
G1 X91.624 Y76.337 E0.5198
G1 X93.903 Y77.281 E0.5996
G1 X99.456 Y82.834 E0.8534
G1 X104.247 Y84.118 E1.0138
G1 X109.039 Y82.834 E1.1742
G1 X112.547 Y79.325 E1.3346
G1 X113.831 Y74.534 E1.4950
G1 X112.547 Y69.742 E1.6553
G1 X106.996 Y64.189 E1.9092
G1 X106.052 Y61.911 E1.9889
G1 X106.052 Y48.965 E2.4074
G1 X109.684 Y45.334 E2.5735
G1 X128.818 Y45.334 E3.1921
G1 X132.450 Y48.965 E3.3581
G1 X132.450 Y97.864 E4.9389
G1 X138.788 Y97.864 E5.1438
G1 X142.420 Y101.495 E5.3099
G1 X142.420 Y119.072 E5.8781
G1 X138.788 Y122.704 E6.0441
G1 X129.348 Y122.704 E6.3493
G1 X128.818 Y123.234 E6.3736
G1 X120.684 Y123.234 E6.6365
G1 X120.154 Y122.704 E6.6608
G1 X112.345 Y122.704 E6.9132
G1 X111.815 Y123.234 E6.9374
G1 X104.549 Y123.234 E7.1723
G1 X102.207 Y122.228 E7.2547
G1 X77.934 Y96.682 E8.3940
G1 X77.050 Y94.468 E8.4711
G1 X77.050 Y79.968 E8.9398
G92 E0.0000
G1 E-2.5000 F1800
G1 X77.530 Y80.167 F4800
G1 E-0.7500 F1800
G92 E0.0000
G1 X80.881 Y76.817 E0.1532 F1600
G1 X91.529 Y76.817 E0.4974
G1 X93.631 Y77.688 E0.5710
G1 X99.207 Y83.264 E0.8260
G1 X104.247 Y84.615 E0.9946
G1 X109.288 Y83.264 E1.1634
G1 X112.978 Y79.574 E1.3321
G1 X114.328 Y74.534 E1.5008
G1 X112.978 Y69.493 E1.6694
G1 X107.403 Y63.917 E1.9244
G1 X106.532 Y61.815 E1.9979
G1 X106.532 Y49.164 E2.4069
G1 X109.883 Y45.814 E2.5601
G1 X128.619 Y45.814 E3.1658
G1 X131.970 Y49.164 E3.3190
G1 X131.970 Y98.344 E4.9089
G1 X138.589 Y98.344 E5.1229
G1 X141.940 Y101.694 E5.2761
G1 X141.940 Y118.873 E5.8315
G1 X138.589 Y122.224 E5.9847
G1 X129.149 Y122.224 E6.2899
G1 X128.619 Y122.754 E6.3141
G1 X120.883 Y122.754 E6.5642
G1 X120.353 Y122.224 E6.5884
G1 X112.146 Y122.224 E6.8538
G1 X111.616 Y122.754 E6.8780
G1 X104.648 Y122.754 E7.1033
G1 X102.487 Y121.826 E7.1793
G1 X78.346 Y96.418 E8.3123
G1 X77.530 Y94.376 E8.3835
G1 X77.530 Y80.167 E8.8428
G92 E0.0000
G1 E-2.5000 F1800
G1 X78.010 Y80.366 F4800
G1 E-0.7500 F1800
G92 E0.0000
G1 X81.080 Y77.297 E0.1403 F1600
G1 X91.433 Y77.297 E0.4751
G1 X93.360 Y78.095 E0.5425
G1 X98.959 Y83.695 E0.7985
G1 X104.247 Y85.112 E0.9755
G1 X109.536 Y83.695 E1.1525
G1 X113.408 Y79.822 E1.3295
G1 X114.825 Y74.534 E1.5065
G1 X113.408 Y69.245 E1.6836
G1 X107.810 Y63.646 E1.9395
G1 X107.012 Y61.720 E2.0069
G1 X107.012 Y49.363 E2.4064
G1 X110.082 Y46.294 E2.5467
G1 X128.420 Y46.294 E3.1396
G1 X131.490 Y49.363 E3.2800
G1 X131.490 Y98.824 E4.8790
G1 X138.391 Y98.824 E5.1020
G1 X141.460 Y101.893 E5.2424
G1 X141.460 Y118.674 E5.7849
G1 X138.391 Y121.744 E5.9252
G1 X128.950 Y121.744 E6.2304
G1 X128.420 Y122.274 E6.2546
G1 X121.082 Y122.274 E6.4919
G1 X120.552 Y121.744 E6.5161
G1 X111.947 Y121.744 E6.7943
G1 X111.417 Y122.274 E6.8185
G1 X104.747 Y122.274 E7.0342
G1 X102.767 Y121.424 E7.1038
G1 X78.757 Y96.155 E8.2307
G1 X78.010 Y94.283 E8.2959
G1 X78.010 Y80.366 E8.7458
G92 E0.0000
G1 E-2.5000 F1800
G1 X80.688 Y140.413 F4800
G1 E-0.7500 F1800
G92 E0.0000
G1 X97.331 Y140.413 E0.5380 F1600
G1 X97.764 Y140.846 E0.5579
G1 X131.393 Y140.846 E1.6450
G1 X135.025 Y144.480 E1.8111
G1 X135.015 Y171.036 E2.6696
G1 X131.383 Y174.666 E2.8357
G1 X123.765 Y174.665 E3.0820
G1 X122.770 Y173.670 E3.1274
G1 X121.269 Y173.670 E3.1760
G1 X118.057 Y170.458 E3.3228
G1 X114.845 Y173.670 E3.4697
G1 X112.423 Y173.670 E3.5480
G1 X111.432 Y174.660 E3.5933
G1 X105.648 Y174.658 E3.7802
G1 X104.218 Y174.313 E3.8278
G1 X78.874 Y161.348 E4.7481
G1 X77.052 Y158.368 E4.8611
G1 X77.057 Y144.043 E5.3242
G1 X80.688 Y140.413 E5.4902
G92 E0.0000
G1 E-2.5000 F1800
G1 X80.887 Y140.893 F4800
G1 E-0.7500 F1800
G92 E0.0000
G1 X97.132 Y140.893 E0.5252 F1600
G1 X97.566 Y141.326 E0.5450
G1 X131.194 Y141.326 E1.6322
G1 X134.545 Y144.678 E1.7854
G1 X134.535 Y170.837 E2.6311
G1 X131.184 Y174.186 E2.7842
G1 X123.964 Y174.185 E3.0177
G1 X122.969 Y173.190 E3.0632
G1 X121.468 Y173.190 E3.1117
G1 X118.117 Y169.839 E3.2649
G1 X118.117 Y164.577 E3.4350
G1 X117.997 Y164.577 E3.4389
G1 X117.997 Y169.839 E3.6090
G1 X114.646 Y173.190 E3.7622
G1 X112.224 Y173.190 E3.8405
G1 X111.234 Y174.180 E3.8858
G1 X105.706 Y174.178 E4.0645
G1 X104.386 Y173.860 E4.1084
G1 X79.213 Y160.982 E5.0225
G1 X77.532 Y158.233 E5.1267
G1 X77.537 Y144.242 E5.5790
G1 X80.887 Y140.893 E5.7322
G92 E0.0000
G1 E-2.5000 F1800
G1 X81.086 Y141.373 F4800
G1 E-0.7500 F1800
G92 E0.0000
G1 X96.933 Y141.373 E0.5123 F1600
G1 X97.367 Y141.806 E0.5322
G1 X130.995 Y141.806 E1.6193
G1 X134.065 Y144.877 E1.7597
G1 X134.055 Y170.638 E2.5925
G1 X130.986 Y173.706 E2.7328
G1 X124.163 Y173.705 E2.9534
G1 X123.168 Y172.710 E2.9989
G1 X121.667 Y172.710 E3.0474
G1 X118.597 Y169.640 E3.1878
G1 X118.597 Y164.097 E3.3670
G1 X117.517 Y164.096 E3.4019
G1 X117.517 Y169.640 E3.5811
G1 X114.448 Y172.710 E3.7215
G1 X112.026 Y172.710 E3.7998
G1 X111.035 Y173.700 E3.8450
G1 X105.763 Y173.698 E4.0155
G1 X104.554 Y173.407 E4.0557
G1 X79.552 Y160.616 E4.9636
G1 X78.012 Y158.098 E5.0590
G1 X78.017 Y144.441 E5.5005
G1 X81.086 Y141.373 E5.6408
G92 E0.0000
G1 E-2.5000 F1800
; feature inner perimeter
G1 X106.133 Y116.314 F4800
G1 E-0.7500 F1800
G92 E0.0000
G1 X83.970 Y92.988 E1.0402 F1240
G1 X83.970 Y83.257 E1.3548
G1 X90.093 Y83.257 E1.5527
G1 X95.873 Y89.038 E1.8171
G1 X104.247 Y91.282 E2.0973
G1 X112.622 Y89.038 E2.3776
G1 X118.752 Y82.907 E2.6579
G1 X120.995 Y74.534 E2.9382
G1 X118.752 Y66.160 E3.2184
G1 X112.972 Y60.379 E3.4827
G1 X112.972 Y52.254 E3.7454
G1 X125.530 Y52.254 E4.1514
G1 X125.530 Y116.314 E6.2224
G1 X123.972 Y116.314 E6.2727
G1 X123.972 Y105.812 E6.6122
G1 X108.527 Y105.812 E7.1116
G1 X108.527 Y116.314 E7.4511
G1 X106.333 Y116.314 E7.5220
G1 X106.133 Y116.314 F1240
; feature outer perimeter
G1 X105.927 Y116.794 F4800
G92 E0.0000
G1 X83.490 Y93.180 E1.0531 F880
G1 X83.490 Y82.777 E1.3894
G1 X90.292 Y82.777 E1.6093
G1 X96.122 Y88.608 E1.8758
G1 X104.247 Y90.785 E2.1478
G1 X112.373 Y88.608 E2.4198
G1 X118.321 Y82.659 E2.6917
G1 X120.498 Y74.534 E2.9637
G1 X118.321 Y66.408 E3.2356
G1 X112.492 Y60.578 E3.5022
G1 X112.492 Y51.774 E3.7868
G1 X126.010 Y51.774 E4.2238
G1 X126.010 Y116.794 E6.3258
G1 X123.492 Y116.794 E6.4072
G1 X123.492 Y106.292 E6.7468
G1 X109.007 Y106.292 E7.2151
G1 X109.007 Y116.794 E7.5546
G1 X106.127 Y116.794 E7.6477
G1 X105.927 Y116.794 F880
G92 E0.0000
G1 E-2.5000 F1800
; feature inner perimeter
G1 X118.411 Y92.342 F4800
G1 E-0.7500 F1800
G92 E0.0000
G1 X119.038 Y92.657 E0.0227 F1240
G1 X119.730 Y92.764 E0.0453
G1 X120.422 Y92.657 E0.0680
G1 X121.049 Y92.342 E0.0906
G1 X121.547 Y91.850 E0.1133
G1 X121.869 Y91.227 E0.1359
G1 X121.979 Y90.536 E0.1586
G1 X121.869 Y89.844 E0.1812
G1 X121.547 Y89.222 E0.2039
G1 X121.049 Y88.729 E0.2265
G1 X120.422 Y88.414 E0.2492
G1 X119.730 Y88.307 E0.2718
G1 X119.038 Y88.414 E0.2945
G1 X118.411 Y88.729 E0.3172
G1 X117.913 Y89.222 E0.3398
G1 X117.592 Y89.843 E0.3624
G1 X117.480 Y90.536 E0.3851
G1 X117.592 Y91.228 E0.4078
G1 X117.913 Y91.850 E0.4304
G1 X118.269 Y92.201 E0.4466
G1 X118.411 Y92.342 F1240
; feature outer perimeter
G1 X118.694 Y91.947 F4800
G92 E0.0000
G1 X119.186 Y92.194 E0.0178 F880
G1 X119.730 Y92.278 E0.0356
G1 X120.274 Y92.194 E0.0534
G1 X120.766 Y91.947 E0.0712
G1 X121.156 Y91.562 E0.0889
G1 X121.407 Y91.076 E0.1066
G1 X121.493 Y90.536 E0.1243
G1 X121.407 Y89.996 E0.1419
G1 X121.156 Y89.510 E0.1596
G1 X120.766 Y89.124 E0.1774
G1 X120.274 Y88.877 E0.1951
G1 X119.730 Y88.793 E0.2129
G1 X119.186 Y88.877 E0.2307
G1 X118.694 Y89.124 E0.2485
G1 X118.304 Y89.510 E0.2663
G1 X118.053 Y89.995 E0.2839
G1 X117.966 Y90.536 E0.3016
G1 X118.053 Y91.076 E0.3193
G1 X118.304 Y91.562 E0.3370
G1 X118.552 Y91.806 E0.3483
G1 X118.694 Y91.947 F880
; feature inner perimeter
G1 X91.016 Y90.536 F4800
G92 E0.0000
G1 X90.906 Y89.844 E0.0226 F1240
G1 X90.584 Y89.222 E0.0453
G1 X90.086 Y88.729 E0.0679
G1 X89.459 Y88.414 E0.0906
G1 X88.767 Y88.307 E0.1133
G1 X88.075 Y88.414 E0.1359
G1 X87.448 Y88.729 E0.1586
G1 X86.950 Y89.222 E0.1812
G1 X86.629 Y89.843 E0.2038
G1 X86.517 Y90.536 E0.2265
G1 X86.629 Y91.228 E0.2492
G1 X86.950 Y91.850 E0.2718
G1 X87.448 Y92.342 E0.2945
G1 X88.075 Y92.657 E0.3171
G1 X88.767 Y92.764 E0.3398
G1 X89.459 Y92.657 E0.3624
G1 X90.086 Y92.342 E0.3851
G1 X90.584 Y91.850 E0.4077
G1 X90.906 Y91.227 E0.4304
G1 X90.985 Y90.733 E0.4466
G1 X91.016 Y90.536 F1240
; feature outer perimeter
G1 X90.530 Y90.536 F4800
G92 E0.0000
G1 X90.444 Y89.996 E0.0177 F880
G1 X90.193 Y89.510 E0.0354
G1 X89.803 Y89.124 E0.0531
G1 X89.311 Y88.877 E0.0709
G1 X88.767 Y88.793 E0.0887
G1 X88.223 Y88.877 E0.1065
G1 X87.731 Y89.124 E0.1243
G1 X87.341 Y89.510 E0.1420
G1 X87.090 Y89.995 E0.1597
G1 X87.003 Y90.536 E0.1774
G1 X87.090 Y91.076 E0.1950
G1 X87.341 Y91.562 E0.2127
G1 X87.731 Y91.947 E0.2305
G1 X88.223 Y92.194 E0.2482
G1 X88.767 Y92.278 E0.2660
G1 X89.311 Y92.194 E0.2838
G1 X89.803 Y91.947 E0.3016
G1 X90.193 Y91.562 E0.3194
G1 X90.444 Y91.076 E0.3370
G1 X90.499 Y90.733 E0.3483
G1 X90.530 Y90.536 F880
G92 E0.0000
G1 E-2.5000 F1800
; feature inner perimeter
G1 X118.441 Y61.335 F4800
G1 E-0.7500 F1800
G92 E0.0000
G1 X119.062 Y61.652 E0.0225 F1240
G1 X119.750 Y61.760 E0.0451
G1 X120.439 Y61.652 E0.0676
G1 X121.060 Y61.335 E0.0902
G1 X121.554 Y60.842 E0.1127
G1 X121.870 Y60.221 E0.1353
G1 X121.979 Y59.532 E0.1578
G1 X121.870 Y58.843 E0.1804
G1 X121.554 Y58.221 E0.2029
G1 X121.060 Y57.728 E0.2255
G1 X120.439 Y57.411 E0.2480
G1 X119.750 Y57.303 E0.2706
G1 X119.062 Y57.411 E0.2931
G1 X118.441 Y57.728 E0.3156
G1 X117.947 Y58.221 E0.3382
G1 X117.631 Y58.842 E0.3607
G1 X117.521 Y59.532 E0.3833
G1 X117.631 Y60.221 E0.4059
G1 X117.947 Y60.842 E0.4284
G1 X118.299 Y61.194 E0.4445
G1 X118.441 Y61.335 F1240
; feature outer perimeter
G1 X118.726 Y60.942 F4800
G92 E0.0000
G1 X119.212 Y61.190 E0.0176 F880
