; G-Code generated by Simplify3D(R) Version 4.1.2
; May 26, 2020 at 3:40:08 PM
; Settings Summary
;   processName,Calibration Cube
;   applyToModels,2_Bottom_Tee_Plate,2_Bottom_Tee_Plate(2)
;   profileName,Anet A8 (modified)
;   profileVersion,2020-05-17 12:50:12
;   baseProfile,
;   printMaterial,PETG
;   printQuality,Medium
;   printExtruders,
;   extruderName,Primary Extruder
;   extruderToolheadNumber,0
;   extruderDiameter,0.4
;   extruderAutoWidth,1
;   extruderWidth,0.48
;   extrusionMultiplier,0.9
;   extruderUseRetract,1
;   extruderRetractionDistance,2.5
;   extruderExtraRestartDistance,-0.75
;   extruderRetractionZLift,0
;   extruderRetractionSpeed,1800
;   extruderUseCoasting,1
;   extruderCoastingDistance,0.2
;   extruderUseWipe,0
;   extruderWipeDistance,5
;   primaryExtruder,0
;   layerHeight,0.2
;   topSolidLayers,3
;   bottomSolidLayers,3
;   perimeterOutlines,2
;   printPerimetersInsideOut,1
;   startPointOption,2
;   startPointOriginX,0
;   startPointOriginY,0
;   sequentialIslands,0
;   spiralVaseMode,0
;   firstLayerHeightPercentage,90
;   firstLayerWidthPercentage,100
;   firstLayerUnderspeed,0.5
;   useRaft,0
;   raftExtruder,0
;   raftTopLayers,3
;   raftBaseLayers,2
;   raftOffset,3
;   raftSeparationDistance,0.14
;   raftTopInfill,100
;   aboveRaftSpeedMultiplier,0.3
;   useSkirt,1
;   skirtExtruder,0
;   skirtLayers,1
;   skirtOutlines,3
;   skirtOffset,5
;   usePrimePillar,0
;   primePillarExtruder,999
;   primePillarWidth,12
;   primePillarLocation,7
;   primePillarSpeedMultiplier,1
;   useOozeShield,0
;   oozeShieldExtruder,999
;   oozeShieldOffset,2
;   oozeShieldOutlines,1
;   oozeShieldSidewallShape,1
;   oozeShieldSidewallAngle,30
;   oozeShieldSpeedMultiplier,1
;   infillExtruder,0
;   internalInfillPattern,Rectilinear
;   externalInfillPattern,Rectilinear
;   infillPercentage,40
;   outlineOverlapPercentage,15
;   infillExtrusionWidthPercentage,100
;   minInfillLength,5
;   infillLayerInterval,1
;   internalInfillAngles,45,-45
;   overlapInternalInfillAngles,0
;   externalInfillAngles,45,-45
;   generateSupport,0
;   supportExtruder,0
;   supportInfillPercentage,70
;   supportExtraInflation,0
;   supportBaseLayers,0
;   denseSupportExtruder,0
;   denseSupportLayers,0
;   denseSupportInfillPercentage,70
;   supportLayerInterval,1
;   supportHorizontalPartOffset,0.3
;   supportUpperSeparationLayers,1
;   supportLowerSeparationLayers,1
;   supportType,0
;   supportGridSpacing,4
;   maxOverhangAngle,45
;   supportAngles,0
;   temperatureName,Primary Extruder,Heated Bed
;   temperatureNumber,0,0
;   temperatureSetpointCount,1,1
;   temperatureSetpointLayers,1,1
;   temperatureSetpointTemperatures,225,70
;   temperatureStabilizeAtStartup,1,1
;   temperatureHeatedBed,0,1
;   fanLayers,1,2
;   fanSpeeds,0,100
;   blipFanToFullPower,0
;   adjustSpeedForCooling,1
;   minSpeedLayerTime,15
;   minCoolingSpeedSlowdown,20
;   increaseFanForCooling,0
;   minFanLayerTime,45
;   maxCoolingFanSpeed,100
;   increaseFanForBridging,0
;   bridgingFanSpeed,100
;   use5D,1
;   relativeEdistances,0
;   allowEaxisZeroing,1
;   independentExtruderAxes,0
;   includeM10123,0
;   stickySupport,1
;   applyToolheadOffsets,0
;   gcodeXoffset,0
;   gcodeYoffset,0
;   gcodeZoffset,0
;   overrideMachineDefinition,1
;   machineTypeOverride,0
;   strokeXoverride,220
;   strokeYoverride,220
;   strokeZoverride,240
;   originOffsetXoverride,0
;   originOffsetYoverride,0
;   originOffsetZoverride,0
;   homeXdirOverride,-1
;   homeYdirOverride,-1
;   homeZdirOverride,-1
;   flipXoverride,1
;   flipYoverride,-1
;   flipZoverride,1
;   toolheadOffsets,0,0|0,0|0,0|0,0|0,0|0,0
;   overrideFirmwareConfiguration,1
;   firmwareTypeOverride,RepRap (Marlin/Repetier/Sprinter)
;   GPXconfigOverride,r2
;   baudRateOverride,115200
;   overridePrinterModels,1
;   printerModelsOverride
;   startingGcode,M107 ; fan off,G28 ; home all axes,G29 ; run auto bed leveling,M500 ; store level values in EEPROM,G1 X0 Y20 Z0.2 F3000 ; get ready to prime on lower end,; G1 X0 Y190 Z0.2 F3000 ; get ready to prime on high end,G92 E0 ; reset extrusion distance,G1 X200 E10 F600 ; prime nozzle
;   layerChangeGcode,
;   retractionGcode,
;   toolChangeGcode,
;   endingGcode,M104 S0 ; turn off extruder,M140 S0 ; turn off bed,G91 ; use relative coordinates for jogging,G1 Z20 F1000 ; raise Z by 20mm at 1000 mm/min,G90 ; switch back to absolute coordinates,G1 X0 Y200 F1000 ; prepare for part removal,M84 ; disable motors,M107 ; turn off fan
;   exportFileFormat,gcode
;   celebration,0
;   celebrationSong,Random Song
;   postProcessing,
;   defaultSpeed,3200
;   outlineUnderspeed,0.55
;   solidInfillUnderspeed,0.8
;   supportUnderspeed,0.8
;   rapidXYspeed,4800
;   rapidZspeed,1000
;   minBridgingArea,50
;   bridgingExtraInflation,0
;   bridgingExtrusionMultiplier,1
;   bridgingSpeedMultiplier,1
;   useFixedBridgingAngle,0
;   fixedBridgingAngle,0
;   applyBridgingToPerimeters,0
;   filamentDiameters,1.75|1.75|1.75|1.75|1.75|1.75
;   filamentPricesPerKg,23.99|46|46|46|46|46
;   filamentDensities,1.25|1.25|1.25|1.25|1.25|1.25
;   useMinPrintHeight,0
;   minPrintHeight,0
;   useMaxPrintHeight,0
;   maxPrintHeight,0
;   useDiaphragm,0
;   diaphragmLayerInterval,20
;   robustSlicing,1
;   mergeAllIntoSolid,0
;   onlyRetractWhenCrossingOutline,1
;   retractBetweenLayers,1
;   useRetractionMinTravel,0
;   retractionMinTravel,3
;   retractWhileWiping,0
;   onlyWipeOutlines,1
;   avoidCrossingOutline,0
;   maxMovementDetourFactor,3
;   toolChangeRetractionDistance,12
;   toolChangeExtraRestartDistance,-0.5
;   toolChangeRetractionSpeed,600
;   externalThinWallType,0
;   internalThinWallType,2
;   thinWallAllowedOverlapPercentage,10
;   singleExtrusionMinLength,1
;   singleExtrusionMinPrintingWidthPercentage,50
;   singleExtrusionMaxPrintingWidthPercentage,200
;   singleExtrusionEndpointExtension,0.2
;   horizontalSizeCompensation,0
G90
M82
M106 S0
M140 S70
M190 S70
M104 S225 T0
M109 S225 T0
M107 ; fan off
G28 ; home all axes
G29 ; run auto bed leveling
M500 ; store level values in EEPROM
G1 X0 Y20 Z0.2 F3000 ; get ready to prime on lower end
; G1 X0 Y190 Z0.2 F3000 ; get ready to prime on high end
G92 E0 ; reset extrusion distance
G1 X200 E10 F600 ; prime nozzle
; process Calibration Cube
; layer 1, Z = 0.180
T0
G92 E0.0000
G1 E-2.5000 F1800
; feature skirt
; tool H0.180 W0.480
G1 Z0.180 F1000
G1 X53.800 Y44.932 F4800
G1 E-0.7500 F1800
G92 E0.0000
G1 X57.432 Y41.300 E0.1660 F1600
G1 X162.568 Y41.300 E3.5650
G1 X166.200 Y44.932 E3.7310
G1 X166.200 Y68.733 E4.5005
G1 X165.256 Y71.012 E4.5802
G1 X126.268 Y110.000 E6.3628
G1 X165.256 Y148.988 E8.1453
G1 X166.200 Y151.267 E8.2250
G1 X166.200 Y175.068 E8.9945
G1 X162.568 Y178.700 E9.1606
G1 X57.432 Y178.700 E12.5595
G1 X53.800 Y175.068 E12.7255
G1 X53.800 Y151.267 E13.4950
G1 X54.744 Y148.988 E13.5748
G1 X93.732 Y110.000 E15.3573
G1 X54.744 Y71.012 E17.1398
G1 X53.800 Y68.733 E17.2195
G1 X53.800 Y44.932 E17.9890
G92 E0.0000
G1 E-2.5000 F1800
G1 X54.280 Y45.131 F4800
G1 E-0.7500 F1800
G92 E0.0000
G1 X57.631 Y41.780 E0.1532 F1600
G1 X162.369 Y41.780 E3.5393
G1 X165.720 Y45.131 E3.6925
G1 X165.720 Y68.638 E4.4524
G1 X164.849 Y70.740 E4.5260
G1 X125.589 Y110.000 E6.3209
G1 X164.849 Y149.260 E8.1159
G1 X165.720 Y151.362 E8.1895
G1 X165.720 Y174.869 E8.9494
G1 X162.369 Y178.220 E9.1026
G1 X57.631 Y178.220 E12.4887
G1 X54.280 Y174.869 E12.6419
G1 X54.280 Y151.362 E13.4019
G1 X55.151 Y149.260 E13.4754
G1 X94.411 Y110.000 E15.2704
G1 X55.151 Y70.740 E17.0653
G1 X54.280 Y68.638 E17.1389
G1 X54.280 Y45.131 E17.8989
G92 E0.0000
G1 E-2.5000 F1800
G1 X54.760 Y45.330 F4800
G1 E-0.7500 F1800
G92 E0.0000
G1 X57.830 Y42.260 E0.1403 F1600
G1 X162.170 Y42.260 E3.5136
G1 X165.240 Y45.330 E3.6539
G1 X165.240 Y68.542 E4.4043
G1 X164.442 Y70.468 E4.4717
G1 X124.910 Y110.000 E6.2791
G1 X164.442 Y149.532 E8.0865
G1 X165.240 Y151.458 E8.1539
G1 X165.240 Y174.670 E8.9043
G1 X162.170 Y177.740 E9.0447
G1 X57.830 Y177.740 E12.4179
G1 X54.760 Y174.670 E12.5582
G1 X54.760 Y151.458 E13.3087
G1 X55.558 Y149.532 E13.3761
G1 X95.090 Y110.000 E15.1835
G1 X55.558 Y70.468 E16.9909
G1 X54.760 Y68.542 E17.0583
G1 X54.760 Y45.330 E17.8087
G92 E0.0000
G1 E-2.5000 F1800
; feature inner perimeter
G1 X60.720 Y48.220 F4800
G1 E-0.7500 F1800
G92 E0.0000
G1 X159.280 Y48.220 E3.1863 F1240
G1 X159.280 Y67.202 E3.8000
G1 X119.702 Y106.780 E5.6095
G1 X100.298 Y106.780 E6.2368
G1 X60.720 Y67.202 E8.0463
G1 X60.720 Y48.420 E8.6535
G1 X60.720 Y48.220 F1240
; feature outer perimeter
G1 X60.240 Y47.740 F4800
G92 E0.0000
G1 X159.760 Y47.740 E3.2174 F880
G1 X159.760 Y67.401 E3.8530
G1 X119.901 Y107.260 E5.6753
G1 X100.099 Y107.260 E6.3155
G1 X60.240 Y67.401 E8.1379
G1 X60.240 Y47.940 E8.7670
G1 X60.240 Y47.740 F880
; feature inner perimeter
G1 X67.506 Y55.085 F4800
G92 E0.0000
G1 X67.218 Y55.424 E0.0144 F1240
G1 X66.975 Y55.797 E0.0288
G1 X66.782 Y56.198 E0.0432
G1 X66.641 Y56.625 E0.0577
G1 X66.557 Y57.056 E0.0719
G1 X66.529 Y57.500 E0.0863
G1 X66.557 Y57.944 E0.1007
G1 X66.642 Y58.381 E0.1150
G1 X66.782 Y58.803 E0.1294
G1 X66.975 Y59.204 E0.1438
G1 X67.218 Y59.576 E0.1582
G1 X67.506 Y59.915 E0.1726
G1 X67.836 Y60.214 E0.1870
G1 X68.200 Y60.469 E0.2013
G1 X68.595 Y60.674 E0.2157
G1 X69.012 Y60.828 E0.2301
G1 X69.446 Y60.927 E0.2445
G1 X69.889 Y60.970 E0.2589
G1 X70.333 Y60.955 E0.2732
G1 X70.772 Y60.884 E0.2876
G1 X71.199 Y60.758 E0.3020
G1 X71.606 Y60.578 E0.3164
G1 X71.986 Y60.347 E0.3308
G1 X72.334 Y60.070 E0.3451
G1 X72.643 Y59.750 E0.3595
G1 X72.909 Y59.394 E0.3739
G1 X73.128 Y59.006 E0.3883
G1 X73.295 Y58.594 E0.4027
G1 X73.407 Y58.164 E0.4170
G1 X73.464 Y57.722 E0.4314
G1 X73.464 Y57.278 E0.4458
G1 X73.407 Y56.836 E0.4602
G1 X73.295 Y56.406 E0.4746
G1 X73.128 Y55.994 E0.4890
G1 X72.909 Y55.606 E0.5033
G1 X72.643 Y55.250 E0.5177
G1 X72.334 Y54.930 E0.5321
G1 X71.986 Y54.653 E0.5465
G1 X71.606 Y54.422 E0.5609
G1 X71.199 Y54.242 E0.5752
G1 X70.772 Y54.116 E0.5896
G1 X70.333 Y54.045 E0.6040
G1 X69.889 Y54.030 E0.6184
G1 X69.446 Y54.073 E0.6328
G1 X69.012 Y54.172 E0.6471
G1 X68.595 Y54.326 E0.6615
G1 X68.200 Y54.531 E0.6759
G1 X67.836 Y54.786 E0.6903
G1 X67.654 Y54.950 E0.6982
G1 X67.506 Y55.085 F1240
; feature outer perimeter
G1 X67.852 Y55.420 F4800
G92 E0.0000
G1 X67.603 Y55.711 E0.0124 F880
G1 X67.394 Y56.033 E0.0248
G1 X67.228 Y56.378 E0.0372
G1 X67.106 Y56.747 E0.0497
G1 X67.034 Y57.118 E0.0619
G1 X67.010 Y57.500 E0.0743
G1 X67.034 Y57.882 E0.0867
G1 X67.107 Y58.259 E0.0991
G1 X67.228 Y58.622 E0.1115
G1 X67.394 Y58.967 E0.1239
G1 X67.603 Y59.289 E0.1363
G1 X67.852 Y59.580 E0.1487
G1 X68.135 Y59.838 E0.1610
G1 X68.450 Y60.057 E0.1734
G1 X68.789 Y60.235 E0.1858
G1 X69.149 Y60.367 E0.1982
G1 X69.523 Y60.452 E0.2106
G1 X69.904 Y60.489 E0.2230
G1 X70.287 Y60.477 E0.2354
G1 X70.665 Y60.416 E0.2478
G1 X71.033 Y60.306 E0.2602
G1 X71.383 Y60.151 E0.2725
G1 X71.711 Y59.953 E0.2849
G1 X72.011 Y59.714 E0.2973
G1 X72.277 Y59.439 E0.3097
G1 X72.506 Y59.131 E0.3221
G1 X72.694 Y58.798 E0.3345
G1 X72.838 Y58.442 E0.3469
G1 X72.935 Y58.072 E0.3593
G1 X72.984 Y57.692 E0.3717
G1 X72.984 Y57.308 E0.3840
G1 X72.935 Y56.928 E0.3964
G1 X72.838 Y56.558 E0.4088
G1 X72.694 Y56.202 E0.4212
G1 X72.506 Y55.869 E0.4336
G1 X72.277 Y55.561 E0.4460
G1 X72.011 Y55.286 E0.4584
G1 X71.711 Y55.047 E0.4708
G1 X71.383 Y54.849 E0.4832
G1 X71.033 Y54.694 E0.4955
G1 X70.665 Y54.584 E0.5079
G1 X70.287 Y54.523 E0.5203
G1 X69.904 Y54.511 E0.5327
G1 X69.523 Y54.548 E0.5451
G1 X69.149 Y54.633 E0.5575
G1 X68.790 Y54.765 E0.5699
G1 X68.450 Y54.943 E0.5823
G1 X68.135 Y55.162 E0.5946
G1 X68.000 Y55.285 E0.6006
G1 X67.852 Y55.420 F880
G92 E0.0000
G1 E-2.5000 F1800
; feature inner perimeter
G1 X74.609 Y67.023 F4800
G1 E-0.7500 F1800
G92 E0.0000
G1 X74.416 Y67.206 E0.0086 F1240
G1 X74.213 Y67.529 E0.0210
G1 X74.128 Y67.902 E0.0333
G1 X74.135 Y68.168 E0.0419
G1 X74.238 Y68.528 E0.0540
G1 X74.442 Y68.818 E0.0655
G1 X98.682 Y93.058 E1.1737
G1 X98.972 Y93.262 E1.1852
G1 X99.332 Y93.365 E1.1973
G1 X99.598 Y93.372 E1.2059
G1 X99.971 Y93.287 E1.2183
G1 X100.294 Y93.084 E1.2306
G1 X100.477 Y92.891 E1.2392
G1 X100.659 Y92.563 E1.2513
G1 X100.720 Y92.213 E1.2628
G1 X100.720 Y67.936 E2.0477
G1 X100.655 Y67.574 E2.0595
G1 X100.439 Y67.204 E2.0734
G1 X100.110 Y66.931 E2.0872
G1 X99.710 Y66.787 E2.1010
G1 X75.287 Y66.780 E2.8905
G1 X74.937 Y66.841 E2.9020
G1 X74.784 Y66.926 E2.9077
G1 X74.609 Y67.023 F1240
; feature outer perimeter
G1 X74.895 Y67.414 F4800
G92 E0.0000
G1 X74.790 Y67.513 E0.0047 F880
G1 X74.662 Y67.715 E0.0124
G1 X74.609 Y67.949 E0.0202
G1 X74.613 Y68.094 E0.0248
G1 X74.678 Y68.318 E0.0324
G1 X74.811 Y68.508 E0.0399
G1 X98.992 Y92.689 E1.1454
G1 X99.182 Y92.822 E1.1529
G1 X99.406 Y92.887 E1.1605
G1 X99.551 Y92.891 E1.1652
G1 X99.784 Y92.838 E1.1729
G1 X99.987 Y92.710 E1.1806
G1 X100.086 Y92.605 E1.1853
G1 X100.200 Y92.401 E1.1929
G1 X100.240 Y92.172 E1.2004
G1 X100.240 Y67.979 E1.9825
G1 X100.198 Y67.743 E1.9903
G1 X100.067 Y67.519 E1.9986
G1 X99.869 Y67.354 E2.0070
G1 X99.626 Y67.267 E2.0153
G1 X75.328 Y67.260 E2.8008
G1 X75.099 Y67.300 E2.8084
G1 X75.070 Y67.316 E2.8094
G1 X74.895 Y67.414 F880
; feature inner perimeter
G1 X87.218 Y59.576 F4800
G92 E0.0000
G1 X87.506 Y59.915 E0.0144 F1240
G1 X87.836 Y60.214 E0.0288
G1 X88.200 Y60.469 E0.0431
G1 X88.595 Y60.674 E0.0575
G1 X89.012 Y60.828 E0.0719
G1 X89.446 Y60.927 E0.0863
G1 X89.889 Y60.970 E0.1007
G1 X90.333 Y60.955 E0.1150
G1 X90.772 Y60.884 E0.1294
G1 X91.199 Y60.758 E0.1438
G1 X91.606 Y60.578 E0.1582
G1 X91.986 Y60.347 E0.1726
G1 X92.334 Y60.070 E0.1870
G1 X92.643 Y59.750 E0.2013
G1 X92.909 Y59.394 E0.2157
G1 X93.128 Y59.006 E0.2301
G1 X93.295 Y58.594 E0.2445
G1 X93.407 Y58.164 E0.2589
G1 X93.464 Y57.722 E0.2732
G1 X93.464 Y57.278 E0.2876
G1 X93.407 Y56.836 E0.3020
G1 X93.295 Y56.406 E0.3164
G1 X93.128 Y55.994 E0.3308
G1 X92.909 Y55.606 E0.3451
G1 X92.643 Y55.250 E0.3595
G1 X92.334 Y54.930 E0.3739
G1 X91.986 Y54.653 E0.3883
G1 X91.606 Y54.422 E0.4027
G1 X91.199 Y54.242 E0.4171
G1 X90.772 Y54.116 E0.4314
G1 X90.333 Y54.045 E0.4458
G1 X89.889 Y54.030 E0.4602
G1 X89.446 Y54.073 E0.4746
G1 X89.012 Y54.172 E0.4890
G1 X88.595 Y54.326 E0.5033
G1 X88.200 Y54.531 E0.5177
G1 X87.836 Y54.786 E0.5321
G1 X87.506 Y55.085 E0.5465
G1 X87.218 Y55.424 E0.5609
G1 X86.975 Y55.797 E0.5752
G1 X86.782 Y56.198 E0.5896
G1 X86.641 Y56.625 E0.6042
G1 X86.557 Y57.056 E0.6184
G1 X86.529 Y57.500 E0.6328
G1 X86.557 Y57.944 E0.6471
G1 X86.642 Y58.381 E0.6615
G1 X86.782 Y58.803 E0.6759
G1 X86.975 Y59.204 E0.6903
G1 X87.109 Y59.409 E0.6982
G1 X87.218 Y59.576 F1240
; feature outer perimeter
G1 X87.603 Y59.289 F4800
G92 E0.0000
G1 X87.852 Y59.580 E0.0124 F880
G1 X88.135 Y59.838 E0.0248
G1 X88.450 Y60.057 E0.0372
G1 X88.789 Y60.235 E0.0496
G1 X89.149 Y60.367 E0.0619
G1 X89.523 Y60.452 E0.0743
G1 X89.904 Y60.489 E0.0867
G1 X90.287 Y60.477 E0.0991
G1 X90.665 Y60.416 E0.1115
G1 X91.033 Y60.306 E0.1239
G1 X91.383 Y60.151 E0.1363
G1 X91.711 Y59.953 E0.1487
G1 X92.011 Y59.714 E0.1611
G1 X92.277 Y59.439 E0.1734
G1 X92.506 Y59.131 E0.1858
G1 X92.694 Y58.798 E0.1982
G1 X92.838 Y58.442 E0.2106
G1 X92.935 Y58.072 E0.2230
G1 X92.984 Y57.692 E0.2354
G1 X92.984 Y57.308 E0.2478
G1 X92.935 Y56.928 E0.2602
G1 X92.838 Y56.558 E0.2725
G1 X92.694 Y56.202 E0.2849
G1 X92.506 Y55.869 E0.2973
G1 X92.277 Y55.561 E0.3097
G1 X92.011 Y55.286 E0.3221
G1 X91.711 Y55.047 E0.3345
G1 X91.383 Y54.849 E0.3469
G1 X91.033 Y54.694 E0.3593
G1 X90.665 Y54.584 E0.3717
G1 X90.287 Y54.523 E0.3840
G1 X89.904 Y54.511 E0.3964
G1 X89.523 Y54.548 E0.4088
G1 X89.149 Y54.633 E0.4212
G1 X88.790 Y54.765 E0.4336
G1 X88.450 Y54.943 E0.4460
G1 X88.135 Y55.162 E0.4584
G1 X87.852 Y55.420 E0.4708
G1 X87.603 Y55.711 E0.4832
G1 X87.394 Y56.032 E0.4955
G1 X87.228 Y56.378 E0.5079
G1 X87.106 Y56.747 E0.5205
G1 X87.034 Y57.118 E0.5327
G1 X87.010 Y57.500 E0.5451
G1 X87.034 Y57.882 E0.5575
G1 X87.107 Y58.259 E0.5699
G1 X87.228 Y58.622 E0.5823
G1 X87.394 Y58.967 E0.5946
G1 X87.494 Y59.121 E0.6006
G1 X87.603 Y59.289 F880
G92 E0.0000
G1 E-2.5000 F1800
; feature inner perimeter
G1 X107.218 Y75.424 F4800
G1 E-0.7500 F1800
G92 E0.0000
