; G-Code generated by Simplify3D(R) Version 4.1.2
; May 31, 2020 at 7:16:11 PM
; Settings Summary
;   processName,Default
;   applyToModels,4_Bottom_Corner_Plate,4_Bottom_Corner_Plate(2),4_Bottom_Corner_Plate(3),4_Bottom_Corner_Plate(4)
;   profileName,Anet A8
;   profileVersion,2020-05-28 20:52:51
;   baseProfile,
;   printMaterial,PETG
;   printQuality,Medium
;   printExtruders,
;   extruderName,Primary Extruder
;   extruderToolheadNumber,0
;   extruderDiameter,0.4
;   extruderAutoWidth,0
;   extruderWidth,0.48
;   extrusionMultiplier,0.9
;   extruderUseRetract,1
;   extruderRetractionDistance,2.5
;   extruderExtraRestartDistance,-0.25
;   extruderRetractionZLift,0
;   extruderRetractionSpeed,1800
;   extruderUseCoasting,0
;   extruderCoastingDistance,0.2
;   extruderUseWipe,0
;   extruderWipeDistance,5
;   primaryExtruder,0
;   layerHeight,0.2
;   topSolidLayers,3
;   bottomSolidLayers,3
;   perimeterOutlines,2
;   printPerimetersInsideOut,1
;   startPointOption,2
;   startPointOriginX,0
;   startPointOriginY,0
;   sequentialIslands,0
;   spiralVaseMode,0
;   firstLayerHeightPercentage,90
;   firstLayerWidthPercentage,100
;   firstLayerUnderspeed,0.5
;   useRaft,0
;   raftExtruder,0
;   raftTopLayers,3
;   raftBaseLayers,2
;   raftOffset,3
;   raftSeparationDistance,0.14
;   raftTopInfill,100
;   aboveRaftSpeedMultiplier,0.3
;   useSkirt,1
;   skirtExtruder,0
;   skirtLayers,1
;   skirtOutlines,3
;   skirtOffset,5
;   usePrimePillar,0
;   primePillarExtruder,999
;   primePillarWidth,12
;   primePillarLocation,7
;   primePillarSpeedMultiplier,1
;   useOozeShield,0
;   oozeShieldExtruder,999
;   oozeShieldOffset,2
;   oozeShieldOutlines,1
;   oozeShieldSidewallShape,1
;   oozeShieldSidewallAngle,30
;   oozeShieldSpeedMultiplier,1
;   infillExtruder,0
;   internalInfillPattern,Rectilinear
;   externalInfillPattern,Rectilinear
;   infillPercentage,30
;   outlineOverlapPercentage,30
;   infillExtrusionWidthPercentage,100
;   minInfillLength,5
;   infillLayerInterval,1
;   internalInfillAngles,45,-45
;   overlapInternalInfillAngles,0
;   externalInfillAngles,45,-45
;   generateSupport,0
;   supportExtruder,0
;   supportInfillPercentage,70
;   supportExtraInflation,0
;   supportBaseLayers,0
;   denseSupportExtruder,0
;   denseSupportLayers,0
;   denseSupportInfillPercentage,70
;   supportLayerInterval,1
;   supportHorizontalPartOffset,0.3
;   supportUpperSeparationLayers,1
;   supportLowerSeparationLayers,1
;   supportType,0
;   supportGridSpacing,4
;   maxOverhangAngle,45
;   supportAngles,0
;   temperatureName,Primary Extruder,Heated Bed
;   temperatureNumber,0,0
;   temperatureSetpointCount,1,1
;   temperatureSetpointLayers,1,1
;   temperatureSetpointTemperatures,230,65
;   temperatureStabilizeAtStartup,1,1
;   temperatureHeatedBed,0,1
;   fanLayers,1,2
;   fanSpeeds,0,100
;   blipFanToFullPower,0
;   adjustSpeedForCooling,1
;   minSpeedLayerTime,15
;   minCoolingSpeedSlowdown,20
;   increaseFanForCooling,0
;   minFanLayerTime,45
;   maxCoolingFanSpeed,100
;   increaseFanForBridging,0
;   bridgingFanSpeed,100
;   use5D,1
;   relativeEdistances,0
;   allowEaxisZeroing,1
;   independentExtruderAxes,0
;   includeM10123,0
;   stickySupport,1
;   applyToolheadOffsets,0
;   gcodeXoffset,0
;   gcodeYoffset,0
;   gcodeZoffset,0
;   overrideMachineDefinition,1
;   machineTypeOverride,0
;   strokeXoverride,220
;   strokeYoverride,220
;   strokeZoverride,240
;   originOffsetXoverride,0
;   originOffsetYoverride,0
;   originOffsetZoverride,0
;   homeXdirOverride,-1
;   homeYdirOverride,-1
;   homeZdirOverride,-1
;   flipXoverride,1
;   flipYoverride,-1
;   flipZoverride,1
;   toolheadOffsets,0,0|0,0|0,0|0,0|0,0|0,0
;   overrideFirmwareConfiguration,1
;   firmwareTypeOverride,RepRap (Marlin/Repetier/Sprinter)
;   GPXconfigOverride,r2
;   baudRateOverride,115200
;   overridePrinterModels,1
;   printerModelsOverride
;   startingGcode,M107 ; fan off,G28 ; home all axes,G29 ; run auto bed leveling,M500 ; store level values in EEPROM,G1 X0 Y20 Z0.2 F3000 ; get ready to prime on lower end,; G1 X0 Y190 Z0.2 F3000 ; get ready to prime on high end,G92 E0 ; reset extrusion distance,G1 X200 E10 F600 ; prime nozzle
;   layerChangeGcode,
;   retractionGcode,
;   toolChangeGcode,
;   endingGcode,M104 S0 ; turn off extruder,M140 S0 ; turn off bed,G91 ; use relative coordinates for jogging,G1 Z20 F1000 ; raise Z by 20mm at 1000 mm/min,G90 ; switch back to absolute coordinates,G1 X0 Y200 F1000 ; prepare for part removal,M84 ; disable motors,M107 ; turn off fan
;   exportFileFormat,gcode
;   celebration,0
;   celebrationSong,Random Song
;   postProcessing,
;   defaultSpeed,2900
;   outlineUnderspeed,0.55
;   solidInfillUnderspeed,0.8
;   supportUnderspeed,0.8
;   rapidXYspeed,4800
;   rapidZspeed,1000
;   minBridgingArea,50
;   bridgingExtraInflation,0
;   bridgingExtrusionMultiplier,1
;   bridgingSpeedMultiplier,1
;   useFixedBridgingAngle,0
;   fixedBridgingAngle,0
;   applyBridgingToPerimeters,0
;   filamentDiameters,1.75|1.75|1.75|1.75|1.75|1.75
;   filamentPricesPerKg,23.99|46|46|46|46|46
;   filamentDensities,1.25|1.25|1.25|1.25|1.25|1.25
;   useMinPrintHeight,0
;   minPrintHeight,0
;   useMaxPrintHeight,0
;   maxPrintHeight,0
;   useDiaphragm,0
;   diaphragmLayerInterval,20
;   robustSlicing,1
;   mergeAllIntoSolid,0
;   onlyRetractWhenCrossingOutline,1
;   retractBetweenLayers,1
;   useRetractionMinTravel,0
;   retractionMinTravel,3
;   retractWhileWiping,0
;   onlyWipeOutlines,1
;   avoidCrossingOutline,0
;   maxMovementDetourFactor,3
;   toolChangeRetractionDistance,12
;   toolChangeExtraRestartDistance,-0.5
;   toolChangeRetractionSpeed,600
;   externalThinWallType,0
;   internalThinWallType,2
;   thinWallAllowedOverlapPercentage,10
;   singleExtrusionMinLength,1
;   singleExtrusionMinPrintingWidthPercentage,50
;   singleExtrusionMaxPrintingWidthPercentage,200
;   singleExtrusionEndpointExtension,0.2
;   horizontalSizeCompensation,0
G90
M82
M106 S0
M140 S65
M190 S65
M104 S230 T0
M109 S230 T0
M107 ; fan off
G28 ; home all axes
G29 ; run auto bed leveling
M500 ; store level values in EEPROM
G1 X0 Y20 Z0.2 F3000 ; get ready to prime on lower end
; G1 X0 Y190 Z0.2 F3000 ; get ready to prime on high end
G92 E0 ; reset extrusion distance
G1 X200 E10 F600 ; prime nozzle
; process Default
; layer 1, Z = 0.180
T0
G92 E0.0000
G1 E-2.5000 F1800
; feature skirt
; tool H0.180 W0.480
G1 Z0.180 F1000
G1 X46.663 Y46.071 F4800
G1 E-0.2500 F1800
G92 E0.0000
G1 X176.799 Y46.071 E4.2072 F1450
G1 X180.431 Y49.703 E4.3732
G1 X180.431 Y73.504 E5.1427
G1 X179.487 Y75.783 E5.2224
G1 X145.066 Y110.204 E6.7961
G1 X176.855 Y110.204 E7.8238
G1 X180.487 Y113.836 E7.9899
G1 X180.487 Y137.637 E8.7594
G1 X179.543 Y139.916 E8.8391
G1 X137.799 Y181.660 E10.7476
G1 X135.520 Y182.604 E10.8274
G1 X111.719 Y182.604 E11.5968
G1 X108.087 Y178.972 E11.7629
G1 X108.087 Y147.183 E12.7906
G1 X72.743 Y182.527 E14.4065
G1 X70.464 Y183.471 E14.4863
G1 X46.663 Y183.471 E15.2557
G1 X43.031 Y179.839 E15.4218
G1 X43.031 Y49.703 E19.6289
G1 X46.663 Y46.071 E19.7950
G92 E0.0000
G1 E-2.5000 F1800
G1 X46.862 Y46.551 F4800
G1 E-0.2500 F1800
G92 E0.0000
G1 X111.600 Y46.551 E2.0929 F1450
G1 X111.731 Y46.681 E2.0989
G1 X111.862 Y46.551 E2.1049
G1 X176.600 Y46.551 E4.1978
G1 X179.951 Y49.901 E4.3510
G1 X179.951 Y73.409 E5.1110
G1 X179.080 Y75.511 E5.1845
G1 X143.907 Y110.684 E6.7926
G1 X176.656 Y110.684 E7.8514
G1 X180.007 Y114.034 E8.0046
G1 X180.007 Y137.542 E8.7645
G1 X179.136 Y139.644 E8.8381
G1 X137.527 Y181.253 E10.7404
G1 X135.425 Y182.124 E10.8140
G1 X111.918 Y182.124 E11.5740
G1 X108.567 Y178.773 E11.7272
G1 X108.567 Y146.024 E12.7859
G1 X72.471 Y182.120 E14.4362
G1 X70.369 Y182.991 E14.5098
G1 X46.862 Y182.991 E15.2697
G1 X43.511 Y179.640 E15.4229
G1 X43.511 Y114.901 E17.5158
G1 X43.642 Y114.771 E17.5218
G1 X43.511 Y114.640 E17.5278
G1 X43.511 Y49.901 E19.6207
G1 X46.862 Y46.551 E19.7739
G92 E0.0000
G1 E-2.5000 F1800
G1 X47.061 Y47.031 F4800
G1 E-0.2500 F1800
G92 E0.0000
G1 X111.401 Y47.031 E2.0801 F1450
G1 X111.731 Y47.360 E2.0951
G1 X112.061 Y47.031 E2.1102
G1 X176.401 Y47.031 E4.1903
G1 X179.471 Y50.100 E4.3306
G1 X179.471 Y73.313 E5.0811
G1 X178.673 Y75.239 E5.1484
G1 X142.748 Y111.164 E6.7909
G1 X176.458 Y111.164 E7.8807
G1 X179.527 Y114.233 E8.0210
G1 X179.527 Y137.446 E8.7715
G1 X178.729 Y139.372 E8.8389
G1 X137.255 Y180.846 E10.7351
G1 X135.329 Y181.644 E10.8025
G1 X112.117 Y181.644 E11.5529
G1 X109.047 Y178.574 E11.6932
G1 X109.047 Y144.865 E12.7830
G1 X72.199 Y181.713 E14.4677
G1 X70.273 Y182.511 E14.5351
G1 X47.061 Y182.511 E15.2855
G1 X43.991 Y179.441 E15.4259
G1 X43.991 Y115.100 E17.5059
G1 X44.321 Y114.771 E17.5210
G1 X43.991 Y114.441 E17.5361
G1 X43.991 Y50.100 E19.6161
G1 X47.061 Y47.031 E19.7565
G92 E0.0000
G1 E-2.5000 F1800
; feature inner perimeter
G1 X49.951 Y52.991 F4800
G1 E-0.2500 F1800
G92 E0.0000
G1 X108.511 Y52.991 E1.8932 F1124
G1 X108.511 Y71.973 E2.5068
G1 X68.933 Y111.551 E4.3163
G1 X49.951 Y111.551 E4.9300
G1 X49.951 Y52.991 E6.8232
; feature outer perimeter
G1 X49.471 Y52.511 F4800
G92 E0.0000
G1 X108.991 Y52.511 E1.9242 F798
G1 X108.991 Y72.171 E2.5598
G1 X69.132 Y112.031 E4.3822
G1 X49.471 Y112.031 E5.0178
G1 X49.471 Y52.511 E6.9420
; feature inner perimeter
G1 X56.743 Y59.850 F4800
G92 E0.0000
G1 X56.492 Y60.139 E0.0124 F1124
G1 X56.274 Y60.453 E0.0247
G1 X56.092 Y60.789 E0.0371
G1 X55.948 Y61.144 E0.0495
G1 X55.843 Y61.518 E0.0620
G1 X55.781 Y61.889 E0.0742
G1 X55.760 Y62.271 E0.0865
G1 X55.781 Y62.653 E0.0989
G1 X55.844 Y63.030 E0.1113
G1 X55.948 Y63.398 E0.1236
G1 X56.092 Y63.752 E0.1360
G1 X56.274 Y64.088 E0.1484
G1 X56.492 Y64.403 E0.1607
G1 X56.743 Y64.691 E0.1731
G1 X57.024 Y64.950 E0.1855
G1 X57.333 Y65.177 E0.1978
G1 X57.664 Y65.368 E0.2102
G1 X58.014 Y65.522 E0.2225
G1 X58.379 Y65.636 E0.2349
G1 X58.754 Y65.709 E0.2473
G1 X59.135 Y65.741 E0.2596
G1 X59.518 Y65.730 E0.2720
G1 X59.896 Y65.677 E0.2844
G1 X60.267 Y65.584 E0.2967
G1 X60.625 Y65.450 E0.3091
G1 X60.967 Y65.277 E0.3214
G1 X61.287 Y65.068 E0.3338
G1 X61.582 Y64.825 E0.3462
G1 X61.849 Y64.550 E0.3585
G1 X62.084 Y64.249 E0.3709
G1 X62.284 Y63.923 E0.3833
G1 X62.447 Y63.577 E0.3956
G1 X62.571 Y63.215 E0.4080
G1 X62.655 Y62.842 E0.4204
G1 X62.697 Y62.462 E0.4327
G1 X62.697 Y62.080 E0.4451
G1 X62.655 Y61.699 E0.4574
G1 X62.571 Y61.326 E0.4698
G1 X62.447 Y60.965 E0.4822
G1 X62.284 Y60.619 E0.4945
G1 X62.083 Y60.293 E0.5069
G1 X61.849 Y59.991 E0.5193
G1 X61.582 Y59.717 E0.5316
G1 X61.287 Y59.474 E0.5440
G1 X60.967 Y59.265 E0.5564
G1 X60.625 Y59.092 E0.5687
G1 X60.267 Y58.958 E0.5811
G1 X59.896 Y58.864 E0.5934
G1 X59.518 Y58.812 E0.6058
G1 X59.135 Y58.801 E0.6182
G1 X58.754 Y58.833 E0.6305
G1 X58.379 Y58.906 E0.6429
G1 X58.014 Y59.020 E0.6553
G1 X57.664 Y59.174 E0.6676
G1 X57.333 Y59.365 E0.6800
G1 X57.024 Y59.591 E0.6924
G1 X56.743 Y59.850 E0.7047
; feature outer perimeter
G1 X57.088 Y60.186 F4800
G92 E0.0000
G1 X56.871 Y60.434 E0.0107 F798
G1 X56.683 Y60.705 E0.0213
G1 X56.527 Y60.995 E0.0320
G1 X56.403 Y61.300 E0.0426
G1 X56.312 Y61.622 E0.0534
G1 X56.259 Y61.942 E0.0639
G1 X56.241 Y62.271 E0.0746
G1 X56.259 Y62.600 E0.0852
G1 X56.313 Y62.925 E0.0959
G1 X56.403 Y63.242 E0.1065
G1 X56.527 Y63.547 E0.1172
G1 X56.683 Y63.837 E0.1278
G1 X56.871 Y64.108 E0.1385
G1 X57.088 Y64.356 E0.1491
G1 X57.330 Y64.579 E0.1598
G1 X57.595 Y64.774 E0.1704
G1 X57.881 Y64.939 E0.1811
G1 X58.182 Y65.071 E0.1917
G1 X58.497 Y65.170 E0.2024
G1 X58.820 Y65.233 E0.2130
G1 X59.149 Y65.260 E0.2237
G1 X59.478 Y65.251 E0.2343
G1 X59.804 Y65.206 E0.2450
G1 X60.124 Y65.125 E0.2556
G1 X60.432 Y65.009 E0.2663
G1 X60.726 Y64.861 E0.2769
G1 X61.002 Y64.680 E0.2876
G1 X61.256 Y64.471 E0.2982
G1 X61.486 Y64.235 E0.3089
G1 X61.688 Y63.975 E0.3195
G1 X61.861 Y63.694 E0.3302
G1 X62.002 Y63.396 E0.3408
G1 X62.109 Y63.084 E0.3515
G1 X62.181 Y62.763 E0.3621
G1 X62.217 Y62.436 E0.3728
G1 X62.217 Y62.106 E0.3834
G1 X62.181 Y61.779 E0.3941
G1 X62.109 Y61.457 E0.4047
G1 X62.002 Y61.145 E0.4154
G1 X61.861 Y60.848 E0.4260
G1 X61.688 Y60.567 E0.4367
G1 X61.486 Y60.307 E0.4474
G1 X61.256 Y60.071 E0.4580
G1 X61.002 Y59.861 E0.4687
G1 X60.726 Y59.681 E0.4793
G1 X60.432 Y59.532 E0.4900
G1 X60.124 Y59.417 E0.5006
G1 X59.804 Y59.336 E0.5113
G1 X59.478 Y59.291 E0.5219
G1 X59.149 Y59.282 E0.5326
G1 X58.820 Y59.309 E0.5432
G1 X58.497 Y59.372 E0.5539
G1 X58.182 Y59.470 E0.5645
G1 X57.881 Y59.603 E0.5752
G1 X57.595 Y59.767 E0.5858
G1 X57.330 Y59.962 E0.5965
G1 X57.088 Y60.186 E0.6071
G92 E0.0000
G1 E-2.5000 F1800
; feature inner perimeter
G1 X68.511 Y71.551 F4800
G1 E-0.2500 F1800
G92 E0.0000
G1 X68.511 Y106.938 E1.1440 F1124
G1 X103.898 Y71.551 E2.7619
G1 X68.511 Y71.551 E3.9059
; feature outer perimeter
G1 X68.991 Y72.031 F4800
G92 E0.0000
G1 X68.991 Y105.779 E1.0910 F798
G1 X102.739 Y72.031 E2.6340
G1 X68.991 Y72.031 E3.7251
; feature inner perimeter
G1 X76.743 Y64.691 F4800
G92 E0.0000
G1 X77.024 Y64.950 E0.0124 F1124
G1 X77.332 Y65.177 E0.0247
G1 X77.664 Y65.368 E0.0371
G1 X78.014 Y65.522 E0.0495
G1 X78.379 Y65.636 E0.0618
G1 X78.754 Y65.709 E0.0742
G1 X79.135 Y65.741 E0.0865
G1 X79.518 Y65.730 E0.0989
G1 X79.896 Y65.677 E0.1113
G1 X80.267 Y65.584 E0.1236
G1 X80.625 Y65.450 E0.1360
G1 X80.967 Y65.277 E0.1484
G1 X81.287 Y65.068 E0.1607
G1 X81.582 Y64.825 E0.1731
G1 X81.849 Y64.550 E0.1855
G1 X82.084 Y64.249 E0.1978
G1 X82.284 Y63.923 E0.2102
G1 X82.447 Y63.577 E0.2225
G1 X82.571 Y63.215 E0.2349
G1 X82.655 Y62.842 E0.2473
G1 X82.697 Y62.462 E0.2596
G1 X82.697 Y62.080 E0.2720
G1 X82.655 Y61.699 E0.2844
G1 X82.571 Y61.326 E0.2967
G1 X82.447 Y60.965 E0.3091
G1 X82.284 Y60.619 E0.3214
G1 X82.083 Y60.293 E0.3338
G1 X81.849 Y59.991 E0.3462
G1 X81.582 Y59.717 E0.3585
G1 X81.287 Y59.474 E0.3709
G1 X80.967 Y59.265 E0.3833
G1 X80.625 Y59.092 E0.3956
G1 X80.267 Y58.958 E0.4080
G1 X79.891 Y58.863 E0.4205
G1 X79.518 Y58.812 E0.4327
G1 X79.135 Y58.801 E0.4451
G1 X78.754 Y58.833 E0.4574
G1 X78.379 Y58.906 E0.4698
G1 X78.014 Y59.020 E0.4822
G1 X77.664 Y59.174 E0.4945
G1 X77.333 Y59.365 E0.5069
G1 X77.024 Y59.591 E0.5193
G1 X76.743 Y59.850 E0.5316
G1 X76.492 Y60.139 E0.5440
G1 X76.274 Y60.453 E0.5564
G1 X76.092 Y60.789 E0.5687
G1 X75.948 Y61.144 E0.5811
G1 X75.844 Y61.512 E0.5934
G1 X75.781 Y61.889 E0.6058
G1 X75.760 Y62.271 E0.6182
G1 X75.781 Y62.653 E0.6305
G1 X75.844 Y63.030 E0.6429
G1 X75.948 Y63.398 E0.6553
G1 X76.092 Y63.752 E0.6676
G1 X76.274 Y64.088 E0.6800
G1 X76.492 Y64.403 E0.6924
G1 X76.743 Y64.691 E0.7047
; feature outer perimeter
G1 X77.088 Y64.356 F4800
G92 E0.0000
G1 X77.330 Y64.579 E0.0107 F798
G1 X77.595 Y64.774 E0.0213
G1 X77.881 Y64.939 E0.0320
G1 X78.182 Y65.071 E0.0426
G1 X78.497 Y65.170 E0.0533
G1 X78.820 Y65.233 E0.0639
G1 X79.149 Y65.260 E0.0746
G1 X79.478 Y65.251 E0.0852
G1 X79.804 Y65.206 E0.0959
G1 X80.124 Y65.125 E0.1065
G1 X80.432 Y65.009 E0.1172
G1 X80.726 Y64.861 E0.1278
G1 X81.002 Y64.680 E0.1385
G1 X81.256 Y64.471 E0.1491
G1 X81.486 Y64.235 E0.1598
G1 X81.688 Y63.975 E0.1704
G1 X81.861 Y63.694 E0.1811
G1 X82.002 Y63.396 E0.1917
G1 X82.109 Y63.084 E0.2024
G1 X82.181 Y62.763 E0.2130
G1 X82.217 Y62.436 E0.2237
G1 X82.217 Y62.106 E0.2343
G1 X82.181 Y61.779 E0.2450
G1 X82.109 Y61.457 E0.2556
G1 X82.002 Y61.145 E0.2663
G1 X81.861 Y60.848 E0.2769
G1 X81.688 Y60.567 E0.2876
G1 X81.486 Y60.307 E0.2982
G1 X81.256 Y60.071 E0.3089
G1 X81.002 Y59.861 E0.3195
G1 X80.726 Y59.681 E0.3302
G1 X80.432 Y59.532 E0.3408
G1 X80.124 Y59.417 E0.3515
G1 X79.800 Y59.335 E0.3623
G1 X79.478 Y59.291 E0.3728
G1 X79.149 Y59.282 E0.3834
G1 X78.820 Y59.309 E0.3941
G1 X78.497 Y59.372 E0.4047
G1 X78.182 Y59.470 E0.4154
G1 X77.881 Y59.603 E0.4260
G1 X77.595 Y59.767 E0.4367
G1 X77.330 Y59.962 E0.4474
G1 X77.088 Y60.186 E0.4580
G1 X76.871 Y60.434 E0.4687
G1 X76.683 Y60.705 E0.4793
G1 X76.527 Y60.995 E0.4900
G1 X76.403 Y61.300 E0.5006
G1 X76.313 Y61.617 E0.5113
G1 X76.259 Y61.942 E0.5219
G1 X76.241 Y62.271 E0.5326
G1 X76.259 Y62.600 E0.5432
G1 X76.313 Y62.925 E0.5539
G1 X76.403 Y63.242 E0.5645
G1 X76.527 Y63.547 E0.5752
G1 X76.683 Y63.837 E0.5858
G1 X76.871 Y64.108 E0.5965
G1 X77.088 Y64.356 E0.6071
G92 E0.0000
G1 E-2.5000 F1800
