; G-Code generated by Simplify3D(R) Version 4.1.2
; May 31, 2020 at 7:50:55 PM
; Settings Summary
;   processName,Default
;   applyToModels,4_Bottom_Corner_Plate,4_Bottom_Corner_Plate(2),4_Bottom_Corner_Plate(3),4_Bottom_Corner_Plate(4)
;   profileName,Anet A8
;   profileVersion,2020-05-28 20:52:51
;   baseProfile,
;   printMaterial,PETG
;   printQuality,Medium
;   printExtruders,
;   extruderName,Primary Extruder
;   extruderToolheadNumber,0
;   extruderDiameter,0.4
;   extruderAutoWidth,1
;   extruderWidth,0.48
;   extrusionMultiplier,1
;   extruderUseRetract,1
;   extruderRetractionDistance,2.7
;   extruderExtraRestartDistance,-0.3
;   extruderRetractionZLift,0
;   extruderRetractionSpeed,1800
;   extruderUseCoasting,0
;   extruderCoastingDistance,0.2
;   extruderUseWipe,0
;   extruderWipeDistance,5
;   primaryExtruder,0
;   layerHeight,0.2
;   topSolidLayers,3
;   bottomSolidLayers,3
;   perimeterOutlines,2
;   printPerimetersInsideOut,1
;   startPointOption,2
;   startPointOriginX,0
;   startPointOriginY,0
;   sequentialIslands,0
;   spiralVaseMode,0
;   firstLayerHeightPercentage,90
;   firstLayerWidthPercentage,100
;   firstLayerUnderspeed,0.5
;   useRaft,0
;   raftExtruder,0
;   raftTopLayers,3
;   raftBaseLayers,2
;   raftOffset,3
;   raftSeparationDistance,0.14
;   raftTopInfill,100
;   aboveRaftSpeedMultiplier,0.3
;   useSkirt,1
;   skirtExtruder,0
;   skirtLayers,3
;   skirtOutlines,3
;   skirtOffset,5
;   usePrimePillar,0
;   primePillarExtruder,999
;   primePillarWidth,12
;   primePillarLocation,7
;   primePillarSpeedMultiplier,1
;   useOozeShield,0
;   oozeShieldExtruder,999
;   oozeShieldOffset,2
;   oozeShieldOutlines,1
;   oozeShieldSidewallShape,1
;   oozeShieldSidewallAngle,30
;   oozeShieldSpeedMultiplier,1
;   infillExtruder,0
;   internalInfillPattern,Rectilinear
;   externalInfillPattern,Rectilinear
;   infillPercentage,30
;   outlineOverlapPercentage,35
;   infillExtrusionWidthPercentage,100
;   minInfillLength,5
;   infillLayerInterval,1
;   internalInfillAngles,45,-45
;   overlapInternalInfillAngles,0
;   externalInfillAngles,45,-45
;   generateSupport,0
;   supportExtruder,0
;   supportInfillPercentage,70
;   supportExtraInflation,0
;   supportBaseLayers,0
;   denseSupportExtruder,0
;   denseSupportLayers,0
;   denseSupportInfillPercentage,70
;   supportLayerInterval,1
;   supportHorizontalPartOffset,0.3
;   supportUpperSeparationLayers,1
;   supportLowerSeparationLayers,1
;   supportType,0
;   supportGridSpacing,4
;   maxOverhangAngle,45
;   supportAngles,0
;   temperatureName,Primary Extruder,Heated Bed
;   temperatureNumber,0,0
;   temperatureSetpointCount,1,1
;   temperatureSetpointLayers,1,1
;   temperatureSetpointTemperatures,225,65
;   temperatureStabilizeAtStartup,1,1
;   temperatureHeatedBed,0,1
;   fanLayers,1,2
;   fanSpeeds,0,100
;   blipFanToFullPower,0
;   adjustSpeedForCooling,1
;   minSpeedLayerTime,15
;   minCoolingSpeedSlowdown,20
;   increaseFanForCooling,0
;   minFanLayerTime,45
;   maxCoolingFanSpeed,100
;   increaseFanForBridging,0
;   bridgingFanSpeed,100
;   use5D,1
;   relativeEdistances,0
;   allowEaxisZeroing,1
;   independentExtruderAxes,0
;   includeM10123,0
;   stickySupport,1
;   applyToolheadOffsets,0
;   gcodeXoffset,0
;   gcodeYoffset,0
;   gcodeZoffset,0
;   overrideMachineDefinition,1
;   machineTypeOverride,0
;   strokeXoverride,220
;   strokeYoverride,220
;   strokeZoverride,240
;   originOffsetXoverride,0
;   originOffsetYoverride,0
;   originOffsetZoverride,0
;   homeXdirOverride,-1
;   homeYdirOverride,-1
;   homeZdirOverride,-1
;   flipXoverride,1
;   flipYoverride,-1
;   flipZoverride,1
;   toolheadOffsets,0,0|0,0|0,0|0,0|0,0|0,0
;   overrideFirmwareConfiguration,1
;   firmwareTypeOverride,RepRap (Marlin/Repetier/Sprinter)
;   GPXconfigOverride,r2
;   baudRateOverride,115200
;   overridePrinterModels,1
;   printerModelsOverride
;   startingGcode,M107 ; fan off,G28 ; home all axes,G29 ; run auto bed leveling,M500 ; store level values in EEPROM,G1 X0 Y20 Z0.2 F3000 ; get ready to prime on lower end,; G1 X0 Y190 Z0.2 F3000 ; get ready to prime on high end,G92 E0 ; reset extrusion distance,G1 X200 E10 F600 ; prime nozzle
;   layerChangeGcode,
;   retractionGcode,
;   toolChangeGcode,
;   endingGcode,M104 S0 ; turn off extruder,M140 S0 ; turn off bed,G91 ; use relative coordinates for jogging,G1 Z20 F1000 ; raise Z by 20mm at 1000 mm/min,G90 ; switch back to absolute coordinates,G1 X0 Y200 F1000 ; prepare for part removal,M84 ; disable motors,M107 ; turn off fan
;   exportFileFormat,gcode
;   celebration,0
;   celebrationSong,Random Song
;   postProcessing,
;   defaultSpeed,2800
;   outlineUnderspeed,0.55
;   solidInfillUnderspeed,0.8
;   supportUnderspeed,0.8
;   rapidXYspeed,4800
;   rapidZspeed,1000
;   minBridgingArea,50
;   bridgingExtraInflation,0
;   bridgingExtrusionMultiplier,1
;   bridgingSpeedMultiplier,1
;   useFixedBridgingAngle,0
;   fixedBridgingAngle,0
;   applyBridgingToPerimeters,0
;   filamentDiameters,1.75|1.75|1.75|1.75|1.75|1.75
;   filamentPricesPerKg,23.99|46|46|46|46|46
;   filamentDensities,1.25|1.25|1.25|1.25|1.25|1.25
;   useMinPrintHeight,0
;   minPrintHeight,0
;   useMaxPrintHeight,0
;   maxPrintHeight,0
;   useDiaphragm,0
;   diaphragmLayerInterval,20
;   robustSlicing,1
;   mergeAllIntoSolid,0
;   onlyRetractWhenCrossingOutline,1
;   retractBetweenLayers,1
;   useRetractionMinTravel,0
;   retractionMinTravel,3
;   retractWhileWiping,0
;   onlyWipeOutlines,1
;   avoidCrossingOutline,0
;   maxMovementDetourFactor,3
;   toolChangeRetractionDistance,12
;   toolChangeExtraRestartDistance,-0.5
;   toolChangeRetractionSpeed,600
;   externalThinWallType,0
;   internalThinWallType,2
;   thinWallAllowedOverlapPercentage,10
;   singleExtrusionMinLength,1
;   singleExtrusionMinPrintingWidthPercentage,50
;   singleExtrusionMaxPrintingWidthPercentage,200
;   singleExtrusionEndpointExtension,0.2
;   horizontalSizeCompensation,0
G90
M82
M106 S0
M140 S65
M190 S65
M104 S225 T0
M109 S225 T0
M107 ; fan off
G28 ; home all axes
G29 ; run auto bed leveling
M500 ; store level values in EEPROM
G1 X0 Y20 Z0.2 F3000 ; get ready to prime on lower end
; G1 X0 Y190 Z0.2 F3000 ; get ready to prime on high end
G92 E0 ; reset extrusion distance
G1 X200 E10 F600 ; prime nozzle
; process Default
; layer 1, Z = 0.180
T0
G92 E0.0000
G1 E-2.7000 F1800
; feature skirt
; tool H0.180 W0.480
G1 Z0.180 F1000
G1 X46.663 Y46.071 F4800
G1 E-0.3000 F1800
G92 E0.0000
G1 X176.799 Y46.071 E4.6746 F1400
G1 X180.431 Y49.703 E4.8591
G1 X180.431 Y73.504 E5.7141
G1 X179.487 Y75.783 E5.8027
G1 X145.066 Y110.204 E7.5513
G1 X176.855 Y110.204 E8.6932
G1 X180.487 Y113.836 E8.8777
G1 X180.487 Y137.637 E9.7326
G1 X179.543 Y139.916 E9.8212
G1 X137.799 Y181.660 E11.9418
G1 X135.520 Y182.604 E12.0304
G1 X111.719 Y182.604 E12.8854
G1 X108.087 Y178.972 E13.0699
G1 X108.087 Y147.183 E14.2118
G1 X72.743 Y182.527 E16.0073
G1 X70.464 Y183.471 E16.0959
G1 X46.663 Y183.471 E16.9508
G1 X43.031 Y179.839 E17.1353
G1 X43.031 Y49.703 E21.8099
G1 X46.663 Y46.071 E21.9944
G92 E0.0000
G1 E-2.7000 F1800
G1 X46.862 Y46.551 F4800
G1 E-0.3000 F1800
G92 E0.0000
G1 X111.600 Y46.551 E2.3255 F1400
G1 X111.731 Y46.681 E2.3321
G1 X111.862 Y46.551 E2.3388
G1 X176.600 Y46.551 E4.6642
G1 X179.951 Y49.901 E4.8344
G1 X179.951 Y73.409 E5.6788
G1 X179.080 Y75.511 E5.7606
G1 X143.907 Y110.684 E7.5474
G1 X176.656 Y110.684 E8.7237
G1 X180.007 Y114.034 E8.8939
G1 X180.007 Y137.542 E9.7383
G1 X179.136 Y139.644 E9.8201
G1 X137.527 Y181.253 E11.9338
G1 X135.425 Y182.124 E12.0156
G1 X111.918 Y182.124 E12.8600
G1 X108.567 Y178.773 E13.0302
G1 X108.567 Y146.024 E14.2065
G1 X72.471 Y182.120 E16.0402
G1 X70.369 Y182.991 E16.1220
G1 X46.862 Y182.991 E16.9664
G1 X43.511 Y179.640 E17.1366
G1 X43.511 Y114.901 E19.4620
G1 X43.642 Y114.771 E19.4687
G1 X43.511 Y114.640 E19.4753
G1 X43.511 Y49.901 E21.8008
G1 X46.862 Y46.551 E21.9710
G92 E0.0000
G1 E-2.7000 F1800
G1 X47.061 Y47.031 F4800
G1 E-0.3000 F1800
G92 E0.0000
G1 X111.401 Y47.031 E2.3112 F1400
G1 X111.731 Y47.360 E2.3279
G1 X112.061 Y47.031 E2.3447
G1 X176.401 Y47.031 E4.6559
G1 X179.471 Y50.100 E4.8118
G1 X179.471 Y73.313 E5.6456
G1 X178.673 Y75.239 E5.7205
G1 X142.748 Y111.164 E7.5455
G1 X176.458 Y111.164 E8.7563
G1 X179.527 Y114.233 E8.9123
G1 X179.527 Y137.446 E9.7461
G1 X178.729 Y139.372 E9.8210
G1 X137.255 Y180.846 E11.9278
G1 X135.329 Y181.644 E12.0027
G1 X112.117 Y181.644 E12.8365
G1 X109.047 Y178.574 E12.9925
G1 X109.047 Y144.865 E14.2033
G1 X72.199 Y181.713 E16.0752
G1 X70.273 Y182.511 E16.1501
G1 X47.061 Y182.511 E16.9839
G1 X43.991 Y179.441 E17.1398
G1 X43.991 Y115.100 E19.4510
G1 X44.321 Y114.771 E19.4678
G1 X43.991 Y114.441 E19.4845
G1 X43.991 Y50.100 E21.7957
G1 X47.061 Y47.031 E21.9516
G92 E0.0000
G1 E-2.7000 F1800
; feature inner perimeter
G1 X49.951 Y52.991 F4800
G1 E-0.3000 F1800
G92 E0.0000
G1 X108.511 Y52.991 E2.1035 F1085
G1 X108.511 Y71.973 E2.7854
G1 X68.933 Y111.551 E4.7959
G1 X49.951 Y111.551 E5.4778
G1 X49.951 Y52.991 E7.5813
; feature outer perimeter
G1 X49.471 Y52.511 F4800
G92 E0.0000
G1 X108.991 Y52.511 E2.1380 F770
G1 X108.991 Y72.171 E2.8442
G1 X69.132 Y112.031 E4.8691
G1 X49.471 Y112.031 E5.5753
G1 X49.471 Y52.511 E7.7133
; feature inner perimeter
G1 X56.743 Y59.850 F4800
G92 E0.0000
G1 X56.492 Y60.139 E0.0137 F1085
G1 X56.274 Y60.453 E0.0275
G1 X56.092 Y60.789 E0.0412
G1 X55.948 Y61.144 E0.0550
G1 X55.843 Y61.518 E0.0689
G1 X55.781 Y61.889 E0.0824
G1 X55.760 Y62.271 E0.0962
G1 X55.781 Y62.653 E0.1099
G1 X55.844 Y63.030 E0.1236
G1 X55.948 Y63.398 E0.1374
G1 X56.092 Y63.752 E0.1511
G1 X56.274 Y64.088 E0.1648
G1 X56.492 Y64.403 E0.1786
G1 X56.743 Y64.691 E0.1923
G1 X57.024 Y64.950 E0.2061
G1 X57.333 Y65.177 E0.2198
G1 X57.664 Y65.368 E0.2335
G1 X58.014 Y65.522 E0.2473
G1 X58.379 Y65.636 E0.2610
G1 X58.754 Y65.709 E0.2747
G1 X59.135 Y65.741 E0.2885
G1 X59.518 Y65.730 E0.3022
G1 X59.896 Y65.677 E0.3160
G1 X60.267 Y65.584 E0.3297
G1 X60.625 Y65.450 E0.3434
G1 X60.967 Y65.277 E0.3572
G1 X61.287 Y65.068 E0.3709
G1 X61.582 Y64.825 E0.3846
G1 X61.849 Y64.550 E0.3984
G1 X62.084 Y64.249 E0.4121
G1 X62.284 Y63.923 E0.4258
G1 X62.447 Y63.577 E0.4396
G1 X62.571 Y63.215 E0.4533
G1 X62.655 Y62.842 E0.4671
G1 X62.697 Y62.462 E0.4808
G1 X62.697 Y62.080 E0.4945
G1 X62.655 Y61.699 E0.5083
G1 X62.571 Y61.326 E0.5220
G1 X62.447 Y60.965 E0.5357
G1 X62.284 Y60.619 E0.5495
G1 X62.083 Y60.293 E0.5632
G1 X61.849 Y59.991 E0.5770
G1 X61.582 Y59.717 E0.5907
G1 X61.287 Y59.474 E0.6044
G1 X60.967 Y59.265 E0.6182
G1 X60.625 Y59.092 E0.6319
G1 X60.267 Y58.958 E0.6456
G1 X59.896 Y58.864 E0.6594
G1 X59.518 Y58.812 E0.6731
G1 X59.135 Y58.801 E0.6869
G1 X58.754 Y58.833 E0.7006
G1 X58.379 Y58.906 E0.7143
G1 X58.014 Y59.020 E0.7281
G1 X57.664 Y59.174 E0.7418
G1 X57.333 Y59.365 E0.7555
G1 X57.024 Y59.591 E0.7693
G1 X56.743 Y59.850 E0.7830
; feature outer perimeter
G1 X57.088 Y60.186 F4800
G92 E0.0000
G1 X56.871 Y60.434 E0.0118 F770
G1 X56.683 Y60.705 E0.0237
G1 X56.527 Y60.995 E0.0355
G1 X56.403 Y61.300 E0.0473
G1 X56.312 Y61.622 E0.0594
G1 X56.259 Y61.942 E0.0710
G1 X56.241 Y62.271 E0.0828
G1 X56.259 Y62.600 E0.0947
G1 X56.313 Y62.925 E0.1065
G1 X56.403 Y63.242 E0.1183
G1 X56.527 Y63.547 E0.1302
G1 X56.683 Y63.837 E0.1420
G1 X56.871 Y64.108 E0.1538
G1 X57.088 Y64.356 E0.1657
G1 X57.330 Y64.579 E0.1775
G1 X57.595 Y64.774 E0.1894
G1 X57.881 Y64.939 E0.2012
G1 X58.182 Y65.071 E0.2130
G1 X58.497 Y65.170 E0.2249
G1 X58.820 Y65.233 E0.2367
G1 X59.149 Y65.260 E0.2485
G1 X59.478 Y65.251 E0.2604
G1 X59.804 Y65.206 E0.2722
G1 X60.124 Y65.125 E0.2840
G1 X60.432 Y65.009 E0.2959
G1 X60.726 Y64.861 E0.3077
G1 X61.002 Y64.680 E0.3195
G1 X61.256 Y64.471 E0.3314
G1 X61.486 Y64.235 E0.3432
G1 X61.688 Y63.975 E0.3550
G1 X61.861 Y63.694 E0.3669
G1 X62.002 Y63.396 E0.3787
G1 X62.109 Y63.084 E0.3905
G1 X62.181 Y62.763 E0.4024
G1 X62.217 Y62.436 E0.4142
G1 X62.217 Y62.106 E0.4260
G1 X62.181 Y61.779 E0.4379
G1 X62.109 Y61.457 E0.4497
G1 X62.002 Y61.145 E0.4616
G1 X61.861 Y60.848 E0.4734
G1 X61.688 Y60.567 E0.4852
G1 X61.486 Y60.307 E0.4971
G1 X61.256 Y60.071 E0.5089
G1 X61.002 Y59.861 E0.5207
G1 X60.726 Y59.681 E0.5326
G1 X60.432 Y59.532 E0.5444
G1 X60.124 Y59.417 E0.5562
G1 X59.804 Y59.336 E0.5681
G1 X59.478 Y59.291 E0.5799
G1 X59.149 Y59.282 E0.5917
G1 X58.820 Y59.309 E0.6036
G1 X58.497 Y59.372 E0.6154
G1 X58.182 Y59.470 E0.6272
G1 X57.881 Y59.603 E0.6391
G1 X57.595 Y59.767 E0.6509
G1 X57.330 Y59.962 E0.6627
G1 X57.088 Y60.186 E0.6746
G92 E0.0000
G1 E-2.7000 F1800
; feature inner perimeter
G1 X68.511 Y71.551 F4800
G1 E-0.3000 F1800
G92 E0.0000
G1 X68.511 Y106.938 E1.2711 F1085
G1 X103.898 Y71.551 E3.0688
G1 X68.511 Y71.551 E4.3399
; feature outer perimeter
G1 X68.991 Y72.031 F4800
G92 E0.0000
G1 X68.991 Y105.779 E1.2123 F770
G1 X102.739 Y72.031 E2.9267
G1 X68.991 Y72.031 E4.1390
; feature inner perimeter
G1 X76.743 Y64.691 F4800
G92 E0.0000
G1 X77.024 Y64.950 E0.0137 F1085
G1 X77.332 Y65.177 E0.0275
G1 X77.664 Y65.368 E0.0412
G1 X78.014 Y65.522 E0.0549
G1 X78.379 Y65.636 E0.0687
G1 X78.754 Y65.709 E0.0824
G1 X79.135 Y65.741 E0.0962
G1 X79.518 Y65.730 E0.1099
G1 X79.896 Y65.677 E0.1236
G1 X80.267 Y65.584 E0.1374
G1 X80.625 Y65.450 E0.1511
G1 X80.967 Y65.277 E0.1648
G1 X81.287 Y65.068 E0.1786
G1 X81.582 Y64.825 E0.1923
G1 X81.849 Y64.550 E0.2061
G1 X82.084 Y64.249 E0.2198
G1 X82.284 Y63.923 E0.2335
G1 X82.447 Y63.577 E0.2473
G1 X82.571 Y63.215 E0.2610
G1 X82.655 Y62.842 E0.2747
G1 X82.697 Y62.462 E0.2885
G1 X82.697 Y62.080 E0.3022
G1 X82.655 Y61.699 E0.3160
G1 X82.571 Y61.326 E0.3297
G1 X82.447 Y60.965 E0.3434
G1 X82.284 Y60.619 E0.3572
G1 X82.083 Y60.293 E0.3709
G1 X81.849 Y59.991 E0.3846
G1 X81.582 Y59.717 E0.3984
G1 X81.287 Y59.474 E0.4121
G1 X80.967 Y59.265 E0.4259
G1 X80.625 Y59.092 E0.4396
G1 X80.267 Y58.958 E0.4533
G1 X79.891 Y58.863 E0.4672
G1 X79.518 Y58.812 E0.4808
G1 X79.135 Y58.801 E0.4945
G1 X78.754 Y58.833 E0.5083
G1 X78.379 Y58.906 E0.5220
G1 X78.014 Y59.020 E0.5357
G1 X77.664 Y59.174 E0.5495
G1 X77.333 Y59.365 E0.5632
G1 X77.024 Y59.591 E0.5770
G1 X76.743 Y59.850 E0.5907
G1 X76.492 Y60.139 E0.6044
G1 X76.274 Y60.453 E0.6182
G1 X76.092 Y60.789 E0.6319
G1 X75.948 Y61.144 E0.6456
G1 X75.844 Y61.512 E0.6594
G1 X75.781 Y61.889 E0.6731
G1 X75.760 Y62.271 E0.6869
G1 X75.781 Y62.653 E0.7006
G1 X75.844 Y63.030 E0.7143
G1 X75.948 Y63.398 E0.7281
G1 X76.092 Y63.752 E0.7418
G1 X76.274 Y64.088 E0.7555
G1 X76.492 Y64.403 E0.7693
G1 X76.743 Y64.691 E0.7830
; feature outer perimeter
G1 X77.088 Y64.356 F4800
G92 E0.0000
G1 X77.330 Y64.579 E0.0118 F770
G1 X77.595 Y64.774 E0.0237
G1 X77.881 Y64.939 E0.0355
G1 X78.182 Y65.071 E0.0473
G1 X78.497 Y65.170 E0.0592
G1 X78.820 Y65.233 E0.0710
G1 X79.149 Y65.260 E0.0828
G1 X79.478 Y65.251 E0.0947
G1 X79.804 Y65.206 E0.1065
G1 X80.124 Y65.125 E0.1183
G1 X80.432 Y65.009 E0.1302
G1 X80.726 Y64.861 E0.1420
G1 X81.002 Y64.680 E0.1539
G1 X81.256 Y64.471 E0.1657
G1 X81.486 Y64.235 E0.1775
G1 X81.688 Y63.975 E0.1894
G1 X81.861 Y63.694 E0.2012
G1 X82.002 Y63.396 E0.2130
G1 X82.109 Y63.084 E0.2249
G1 X82.181 Y62.763 E0.2367
G1 X82.217 Y62.436 E0.2485
G1 X82.217 Y62.106 E0.2604
G1 X82.181 Y61.779 E0.2722
G1 X82.109 Y61.457 E0.2840
G1 X82.002 Y61.145 E0.2959
G1 X81.861 Y60.848 E0.3077
G1 X81.688 Y60.567 E0.3195
G1 X81.486 Y60.307 E0.3314
G1 X81.256 Y60.071 E0.3432
G1 X81.002 Y59.861 E0.3550
G1 X80.726 Y59.681 E0.3669
G1 X80.432 Y59.532 E0.3787
G1 X80.124 Y59.417 E0.3906
G1 X79.800 Y59.335 E0.4025
G1 X79.478 Y59.291 E0.4142
G1 X79.149 Y59.282 E0.4260
G1 X78.820 Y59.309 E0.4379
G1 X78.497 Y59.372 E0.4497
G1 X78.182 Y59.470 E0.4616
G1 X77.881 Y59.603 E0.4734
G1 X77.595 Y59.767 E0.4852
G1 X77.330 Y59.962 E0.4971
G1 X77.088 Y60.186 E0.5089
G1 X76.871 Y60.434 E0.5207
G1 X76.683 Y60.705 E0.5326
G1 X76.527 Y60.995 E0.5444
G1 X76.403 Y61.300 E0.5562
G1 X76.313 Y61.617 E0.5681
G1 X76.259 Y61.942 E0.5799
G1 X76.241 Y62.271 E0.5917
G1 X76.259 Y62.600 E0.6036
G1 X76.313 Y62.925 E0.6154
G1 X76.403 Y63.242 E0.6272
G1 X76.527 Y63.547 E0.6391
G1 X76.683 Y63.837 E0.6509
G1 X76.871 Y64.108 E0.6627
G1 X77.088 Y64.356 E0.6746
G92 E0.0000
G1 E-2.7000 F1800
