; G-Code generated by Simplify3D(R) Version 4.1.2
; May 26, 2020 at 3:44:25 PM
; Settings Summary
;   processName,Calibration Cube
;   applyToModels,4_Bottom_Corner_Plate,4_Bottom_Corner_Plate(2),4_Bottom_Corner_Plate(3),4_Bottom_Corner_Plate(4)
;   profileName,Anet A8 (modified)
;   profileVersion,2020-05-17 12:50:12
;   baseProfile,
;   printMaterial,PETG
;   printQuality,Medium
;   printExtruders,
;   extruderName,Primary Extruder
;   extruderToolheadNumber,0
;   extruderDiameter,0.4
;   extruderAutoWidth,1
;   extruderWidth,0.48
;   extrusionMultiplier,0.9
;   extruderUseRetract,1
;   extruderRetractionDistance,2.5
;   extruderExtraRestartDistance,-0.75
;   extruderRetractionZLift,0
;   extruderRetractionSpeed,1800
;   extruderUseCoasting,1
;   extruderCoastingDistance,0.2
;   extruderUseWipe,0
;   extruderWipeDistance,5
;   primaryExtruder,0
;   layerHeight,0.2
;   topSolidLayers,3
;   bottomSolidLayers,3
;   perimeterOutlines,2
;   printPerimetersInsideOut,1
;   startPointOption,2
;   startPointOriginX,0
;   startPointOriginY,0
;   sequentialIslands,0
;   spiralVaseMode,0
;   firstLayerHeightPercentage,90
;   firstLayerWidthPercentage,100
;   firstLayerUnderspeed,0.5
;   useRaft,0
;   raftExtruder,0
;   raftTopLayers,3
;   raftBaseLayers,2
;   raftOffset,3
;   raftSeparationDistance,0.14
;   raftTopInfill,100
;   aboveRaftSpeedMultiplier,0.3
;   useSkirt,1
;   skirtExtruder,0
;   skirtLayers,1
;   skirtOutlines,3
;   skirtOffset,5
;   usePrimePillar,0
;   primePillarExtruder,999
;   primePillarWidth,12
;   primePillarLocation,7
;   primePillarSpeedMultiplier,1
;   useOozeShield,0
;   oozeShieldExtruder,999
;   oozeShieldOffset,2
;   oozeShieldOutlines,1
;   oozeShieldSidewallShape,1
;   oozeShieldSidewallAngle,30
;   oozeShieldSpeedMultiplier,1
;   infillExtruder,0
;   internalInfillPattern,Rectilinear
;   externalInfillPattern,Rectilinear
;   infillPercentage,40
;   outlineOverlapPercentage,15
;   infillExtrusionWidthPercentage,100
;   minInfillLength,5
;   infillLayerInterval,1
;   internalInfillAngles,45,-45
;   overlapInternalInfillAngles,0
;   externalInfillAngles,45,-45
;   generateSupport,0
;   supportExtruder,0
;   supportInfillPercentage,70
;   supportExtraInflation,0
;   supportBaseLayers,0
;   denseSupportExtruder,0
;   denseSupportLayers,0
;   denseSupportInfillPercentage,70
;   supportLayerInterval,1
;   supportHorizontalPartOffset,0.3
;   supportUpperSeparationLayers,1
;   supportLowerSeparationLayers,1
;   supportType,0
;   supportGridSpacing,4
;   maxOverhangAngle,45
;   supportAngles,0
;   temperatureName,Primary Extruder,Heated Bed
;   temperatureNumber,0,0
;   temperatureSetpointCount,1,1
;   temperatureSetpointLayers,1,1
;   temperatureSetpointTemperatures,225,70
;   temperatureStabilizeAtStartup,1,1
;   temperatureHeatedBed,0,1
;   fanLayers,1,2
;   fanSpeeds,0,100
;   blipFanToFullPower,0
;   adjustSpeedForCooling,1
;   minSpeedLayerTime,15
;   minCoolingSpeedSlowdown,20
;   increaseFanForCooling,0
;   minFanLayerTime,45
;   maxCoolingFanSpeed,100
;   increaseFanForBridging,0
;   bridgingFanSpeed,100
;   use5D,1
;   relativeEdistances,0
;   allowEaxisZeroing,1
;   independentExtruderAxes,0
;   includeM10123,0
;   stickySupport,1
;   applyToolheadOffsets,0
;   gcodeXoffset,0
;   gcodeYoffset,0
;   gcodeZoffset,0
;   overrideMachineDefinition,1
;   machineTypeOverride,0
;   strokeXoverride,220
;   strokeYoverride,220
;   strokeZoverride,240
;   originOffsetXoverride,0
;   originOffsetYoverride,0
;   originOffsetZoverride,0
;   homeXdirOverride,-1
;   homeYdirOverride,-1
;   homeZdirOverride,-1
;   flipXoverride,1
;   flipYoverride,-1
;   flipZoverride,1
;   toolheadOffsets,0,0|0,0|0,0|0,0|0,0|0,0
;   overrideFirmwareConfiguration,1
;   firmwareTypeOverride,RepRap (Marlin/Repetier/Sprinter)
;   GPXconfigOverride,r2
;   baudRateOverride,115200
;   overridePrinterModels,1
;   printerModelsOverride
;   startingGcode,M107 ; fan off,G28 ; home all axes,G29 ; run auto bed leveling,M500 ; store level values in EEPROM,G1 X0 Y20 Z0.2 F3000 ; get ready to prime on lower end,; G1 X0 Y190 Z0.2 F3000 ; get ready to prime on high end,G92 E0 ; reset extrusion distance,G1 X200 E10 F600 ; prime nozzle
;   layerChangeGcode,
;   retractionGcode,
;   toolChangeGcode,
;   endingGcode,M104 S0 ; turn off extruder,M140 S0 ; turn off bed,G91 ; use relative coordinates for jogging,G1 Z20 F1000 ; raise Z by 20mm at 1000 mm/min,G90 ; switch back to absolute coordinates,G1 X0 Y200 F1000 ; prepare for part removal,M84 ; disable motors,M107 ; turn off fan
;   exportFileFormat,gcode
;   celebration,0
;   celebrationSong,Random Song
;   postProcessing,
;   defaultSpeed,3200
;   outlineUnderspeed,0.55
;   solidInfillUnderspeed,0.8
;   supportUnderspeed,0.8
;   rapidXYspeed,4800
;   rapidZspeed,1000
;   minBridgingArea,50
;   bridgingExtraInflation,0
;   bridgingExtrusionMultiplier,1
;   bridgingSpeedMultiplier,1
;   useFixedBridgingAngle,0
;   fixedBridgingAngle,0
;   applyBridgingToPerimeters,0
;   filamentDiameters,1.75|1.75|1.75|1.75|1.75|1.75
;   filamentPricesPerKg,23.99|46|46|46|46|46
;   filamentDensities,1.25|1.25|1.25|1.25|1.25|1.25
;   useMinPrintHeight,0
;   minPrintHeight,0
;   useMaxPrintHeight,0
;   maxPrintHeight,0
;   useDiaphragm,0
;   diaphragmLayerInterval,20
;   robustSlicing,1
;   mergeAllIntoSolid,0
;   onlyRetractWhenCrossingOutline,1
;   retractBetweenLayers,1
;   useRetractionMinTravel,0
;   retractionMinTravel,3
;   retractWhileWiping,0
;   onlyWipeOutlines,1
;   avoidCrossingOutline,0
;   maxMovementDetourFactor,3
;   toolChangeRetractionDistance,12
;   toolChangeExtraRestartDistance,-0.5
;   toolChangeRetractionSpeed,600
;   externalThinWallType,0
;   internalThinWallType,2
;   thinWallAllowedOverlapPercentage,10
;   singleExtrusionMinLength,1
;   singleExtrusionMinPrintingWidthPercentage,50
;   singleExtrusionMaxPrintingWidthPercentage,200
;   singleExtrusionEndpointExtension,0.2
;   horizontalSizeCompensation,0
G90
M82
M106 S0
M140 S70
M190 S70
M104 S225 T0
M109 S225 T0
M107 ; fan off
G28 ; home all axes
G29 ; run auto bed leveling
M500 ; store level values in EEPROM
G1 X0 Y20 Z0.2 F3000 ; get ready to prime on lower end
; G1 X0 Y190 Z0.2 F3000 ; get ready to prime on high end
G92 E0 ; reset extrusion distance
G1 X200 E10 F600 ; prime nozzle
; process Calibration Cube
; layer 1, Z = 0.180
T0
G92 E0.0000
G1 E-2.5000 F1800
; feature skirt
; tool H0.180 W0.480
G1 Z0.180 F1000
G1 X41.993 Y42.907 F4800
G1 E-0.7500 F1800
G92 E0.0000
G1 X45.625 Y39.275 E0.1660 F1600
G1 X108.656 Y39.275 E2.2038
G1 X109.644 Y38.287 E2.2489
G1 X174.780 Y38.287 E4.3547
G1 X178.412 Y41.919 E4.5208
G1 X178.412 Y107.055 E6.6266
G1 X176.247 Y109.221 E6.7256
G1 X178.019 Y110.993 E6.8066
G1 X178.019 Y176.129 E8.9123
G1 X174.387 Y179.761 E9.0784
G1 X109.251 Y179.761 E11.1842
G1 X109.236 Y179.746 E11.1848
G1 X44.734 Y179.746 E13.2701
G1 X41.102 Y176.114 E13.4362
G1 X41.102 Y110.978 E15.5420
G1 X43.015 Y109.065 E15.6294
G1 X41.993 Y108.043 E15.6762
G1 X41.993 Y42.907 E17.7819
G92 E0.0000
G1 E-2.5000 F1800
G1 X42.473 Y43.106 F4800
G1 E-0.7500 F1800
G92 E0.0000
G1 X45.824 Y39.755 E0.1532 F1600
G1 X108.855 Y39.755 E2.1909
G1 X109.843 Y38.767 E2.2361
G1 X174.582 Y38.767 E4.3290
G1 X177.932 Y42.118 E4.4822
G1 X177.932 Y106.856 E6.5751
G1 X175.568 Y109.221 E6.6832
G1 X177.539 Y111.192 E6.7733
G1 X177.539 Y175.930 E8.8663
G1 X174.188 Y179.281 E9.0194
G1 X109.450 Y179.281 E11.1124
G1 X109.435 Y179.266 E11.1130
G1 X44.932 Y179.266 E13.1983
G1 X41.582 Y175.916 E13.3515
G1 X41.582 Y111.177 E15.4444
G1 X43.694 Y109.065 E15.5410
G1 X42.473 Y107.844 E15.5968
G1 X42.473 Y43.106 E17.6897
G92 E0.0000
G1 E-2.5000 F1800
G1 X42.953 Y43.304 F4800
G1 E-0.7500 F1800
G92 E0.0000
G1 X46.023 Y40.235 E0.1403 F1600
G1 X109.054 Y40.235 E2.1781
G1 X110.042 Y39.247 E2.2232
G1 X174.383 Y39.247 E4.3033
G1 X177.452 Y42.317 E4.4436
G1 X177.452 Y106.658 E6.5237
G1 X174.889 Y109.221 E6.6409
G1 X177.059 Y111.390 E6.7401
G1 X177.059 Y175.731 E8.8202
G1 X173.989 Y178.801 E8.9605
G1 X109.648 Y178.801 E11.0406
G1 X109.553 Y178.705 E11.0449
G1 X109.472 Y178.786 E11.0486
G1 X45.131 Y178.786 E13.1287
G1 X42.062 Y175.717 E13.2690
G1 X42.062 Y111.376 E15.3491
G1 X44.373 Y109.065 E15.4547
G1 X42.953 Y107.645 E15.5196
G1 X42.953 Y43.304 E17.5997
G92 E0.0000
G1 E-2.5000 F1800
; feature inner perimeter
G1 X48.913 Y46.195 F4800
G1 E-0.7500 F1800
G92 E0.0000
G1 X107.473 Y46.195 E1.8932 F1240
G1 X107.473 Y65.177 E2.5068
G1 X67.895 Y104.755 E4.3163
G1 X48.913 Y104.755 E4.9300
G1 X48.913 Y46.395 E6.8167
G1 X48.913 Y46.195 F1240
; feature outer perimeter
G1 X48.433 Y45.715 F4800
G92 E0.0000
G1 X107.953 Y45.715 E1.9242 F880
G1 X107.953 Y65.376 E2.5598
G1 X68.094 Y105.235 E4.3822
G1 X48.433 Y105.235 E5.0178
G1 X48.433 Y45.915 E6.9355
G1 X48.433 Y45.715 F880
; feature inner perimeter
G1 X55.705 Y53.055 F4800
G92 E0.0000
G1 X55.454 Y53.343 E0.0124 F1240
G1 X55.236 Y53.657 E0.0247
G1 X55.054 Y53.994 E0.0371
G1 X54.910 Y54.349 E0.0495
G1 X54.805 Y54.722 E0.0620
G1 X54.743 Y55.093 E0.0742
G1 X54.722 Y55.475 E0.0865
G1 X54.743 Y55.857 E0.0989
G1 X54.806 Y56.234 E0.1113
G1 X54.910 Y56.602 E0.1236
G1 X55.054 Y56.956 E0.1360
G1 X55.236 Y57.293 E0.1484
G1 X55.454 Y57.607 E0.1607
G1 X55.705 Y57.895 E0.1731
G1 X55.987 Y58.154 E0.1855
G1 X56.295 Y58.381 E0.1978
G1 X56.626 Y58.572 E0.2102
G1 X56.976 Y58.726 E0.2225
G1 X57.341 Y58.840 E0.2349
G1 X57.716 Y58.913 E0.2473
G1 X58.097 Y58.945 E0.2596
G1 X58.480 Y58.934 E0.2720
G1 X58.859 Y58.882 E0.2844
G1 X59.229 Y58.788 E0.2967
G1 X59.587 Y58.654 E0.3091
G1 X59.929 Y58.481 E0.3215
G1 X60.249 Y58.272 E0.3338
G1 X60.544 Y58.029 E0.3462
G1 X60.811 Y57.755 E0.3585
G1 X61.046 Y57.453 E0.3709
G1 X61.246 Y57.127 E0.3833
G1 X61.409 Y56.781 E0.3956
G1 X61.533 Y56.419 E0.4080
G1 X61.617 Y56.046 E0.4204
G1 X61.659 Y55.666 E0.4327
G1 X61.659 Y55.284 E0.4451
G1 X61.617 Y54.904 E0.4575
G1 X61.533 Y54.530 E0.4698
G1 X61.409 Y54.169 E0.4822
G1 X61.246 Y53.823 E0.4945
G1 X61.046 Y53.497 E0.5069
G1 X60.811 Y53.195 E0.5193
G1 X60.544 Y52.921 E0.5316
G1 X60.249 Y52.678 E0.5440
G1 X59.929 Y52.469 E0.5564
G1 X59.587 Y52.296 E0.5687
G1 X59.229 Y52.162 E0.5811
G1 X58.859 Y52.068 E0.5934
G1 X58.480 Y52.016 E0.6058
G1 X58.097 Y52.005 E0.6182
G1 X57.716 Y52.037 E0.6305
G1 X57.341 Y52.110 E0.6429
G1 X56.976 Y52.224 E0.6553
G1 X56.626 Y52.378 E0.6676
G1 X56.295 Y52.569 E0.6800
G1 X55.987 Y52.796 E0.6924
G1 X55.852 Y52.919 E0.6983
G1 X55.705 Y53.055 F1240
; feature outer perimeter
G1 X56.050 Y53.390 F4800
G92 E0.0000
G1 X55.833 Y53.638 E0.0107 F880
G1 X55.646 Y53.909 E0.0213
G1 X55.489 Y54.199 E0.0320
G1 X55.365 Y54.504 E0.0426
G1 X55.274 Y54.827 E0.0534
G1 X55.221 Y55.146 E0.0639
G1 X55.203 Y55.475 E0.0746
G1 X55.221 Y55.804 E0.0852
G1 X55.275 Y56.129 E0.0959
G1 X55.365 Y56.446 E0.1065
G1 X55.489 Y56.751 E0.1172
G1 X55.646 Y57.041 E0.1278
G1 X55.833 Y57.312 E0.1385
G1 X56.050 Y57.560 E0.1491
G1 X56.292 Y57.783 E0.1598
G1 X56.558 Y57.978 E0.1704
G1 X56.843 Y58.143 E0.1811
G1 X57.145 Y58.275 E0.1917
G1 X57.459 Y58.374 E0.2024
G1 X57.782 Y58.437 E0.2130
G1 X58.111 Y58.464 E0.2237
G1 X58.440 Y58.455 E0.2343
G1 X58.766 Y58.410 E0.2450
G1 X59.086 Y58.329 E0.2556
G1 X59.394 Y58.213 E0.2663
G1 X59.688 Y58.065 E0.2769
G1 X59.964 Y57.885 E0.2876
G1 X60.218 Y57.675 E0.2982
G1 X60.448 Y57.439 E0.3089
G1 X60.651 Y57.179 E0.3195
G1 X60.823 Y56.898 E0.3302
G1 X60.964 Y56.600 E0.3408
G1 X61.071 Y56.289 E0.3515
G1 X61.143 Y55.967 E0.3621
G1 X61.179 Y55.640 E0.3728
G1 X61.179 Y55.310 E0.3834
G1 X61.143 Y54.983 E0.3941
G1 X61.071 Y54.661 E0.4047
G1 X60.964 Y54.350 E0.4154
G1 X60.823 Y54.052 E0.4260
G1 X60.651 Y53.771 E0.4367
G1 X60.448 Y53.511 E0.4474
G1 X60.218 Y53.275 E0.4580
G1 X59.964 Y53.065 E0.4687
G1 X59.688 Y52.885 E0.4793
G1 X59.394 Y52.736 E0.4900
G1 X59.086 Y52.621 E0.5006
G1 X58.766 Y52.540 E0.5113
G1 X58.440 Y52.495 E0.5219
G1 X58.111 Y52.486 E0.5326
G1 X57.782 Y52.513 E0.5432
G1 X57.459 Y52.576 E0.5539
G1 X57.145 Y52.674 E0.5645
G1 X56.843 Y52.807 E0.5752
G1 X56.558 Y52.972 E0.5858
G1 X56.292 Y53.167 E0.5965
G1 X56.197 Y53.254 E0.6007
G1 X56.050 Y53.390 F880
G92 E0.0000
G1 E-2.5000 F1800
; feature inner perimeter
G1 X67.473 Y64.755 F4800
G1 E-0.7500 F1800
G92 E0.0000
G1 X67.473 Y100.142 E1.1440 F1240
G1 X102.860 Y64.755 E2.7619
G1 X67.673 Y64.755 E3.8995
G1 X67.473 Y64.755 F1240
; feature outer perimeter
G1 X67.953 Y65.235 F4800
G92 E0.0000
G1 X67.953 Y98.983 E1.0910 F880
G1 X101.701 Y65.235 E2.6340
G1 X68.153 Y65.235 E3.7186
G1 X67.953 Y65.235 F880
; feature inner perimeter
G1 X75.705 Y57.895 F4800
G92 E0.0000
G1 X75.987 Y58.154 E0.0124 F1240
G1 X76.295 Y58.381 E0.0247
G1 X76.626 Y58.572 E0.0371
G1 X76.976 Y58.726 E0.0495
G1 X77.341 Y58.840 E0.0618
G1 X77.716 Y58.913 E0.0742
G1 X78.097 Y58.945 E0.0865
G1 X78.480 Y58.934 E0.0989
G1 X78.859 Y58.882 E0.1113
G1 X79.229 Y58.788 E0.1236
G1 X79.587 Y58.654 E0.1360
G1 X79.929 Y58.481 E0.1484
G1 X80.249 Y58.272 E0.1607
G1 X80.544 Y58.029 E0.1731
G1 X80.811 Y57.755 E0.1855
G1 X81.046 Y57.453 E0.1978
G1 X81.246 Y57.127 E0.2102
G1 X81.409 Y56.781 E0.2225
G1 X81.533 Y56.419 E0.2349
G1 X81.617 Y56.046 E0.2473
G1 X81.659 Y55.666 E0.2596
G1 X81.659 Y55.284 E0.2720
G1 X81.617 Y54.904 E0.2844
G1 X81.533 Y54.530 E0.2967
G1 X81.409 Y54.169 E0.3091
G1 X81.246 Y53.823 E0.3214
G1 X81.046 Y53.497 E0.3338
G1 X80.811 Y53.195 E0.3462
G1 X80.544 Y52.921 E0.3585
G1 X80.249 Y52.678 E0.3709
G1 X79.929 Y52.469 E0.3833
G1 X79.587 Y52.296 E0.3956
G1 X79.229 Y52.162 E0.4080
G1 X78.853 Y52.068 E0.4205
G1 X78.480 Y52.016 E0.4327
G1 X78.097 Y52.005 E0.4451
G1 X77.716 Y52.037 E0.4574
G1 X77.341 Y52.110 E0.4698
G1 X76.976 Y52.224 E0.4822
G1 X76.626 Y52.378 E0.4945
G1 X76.295 Y52.569 E0.5069
G1 X75.987 Y52.796 E0.5193
G1 X75.705 Y53.055 E0.5316
G1 X75.454 Y53.343 E0.5440
G1 X75.236 Y53.657 E0.5564
G1 X75.054 Y53.994 E0.5687
G1 X74.910 Y54.348 E0.5811
G1 X74.806 Y54.716 E0.5934
G1 X74.743 Y55.093 E0.6058
G1 X74.722 Y55.475 E0.6182
G1 X74.743 Y55.857 E0.6305
G1 X74.806 Y56.234 E0.6429
G1 X74.910 Y56.602 E0.6553
G1 X75.054 Y56.956 E0.6676
G1 X75.236 Y57.293 E0.6800
G1 X75.454 Y57.607 E0.6924
G1 X75.574 Y57.745 E0.6983
G1 X75.705 Y57.895 F1240
; feature outer perimeter
G1 X76.050 Y57.560 F4800
G92 E0.0000
G1 X76.292 Y57.783 E0.0107 F880
G1 X76.558 Y57.978 E0.0213
G1 X76.843 Y58.143 E0.0320
G1 X77.145 Y58.275 E0.0426
G1 X77.459 Y58.374 E0.0533
G1 X77.782 Y58.437 E0.0639
G1 X78.111 Y58.464 E0.0746
G1 X78.440 Y58.455 E0.0852
G1 X78.766 Y58.410 E0.0959
G1 X79.086 Y58.329 E0.1065
G1 X79.394 Y58.213 E0.1172
G1 X79.688 Y58.065 E0.1278
G1 X79.964 Y57.885 E0.1385
G1 X80.218 Y57.675 E0.1491
G1 X80.448 Y57.439 E0.1598
G1 X80.651 Y57.179 E0.1704
G1 X80.823 Y56.898 E0.1811
G1 X80.964 Y56.600 E0.1917
G1 X81.071 Y56.289 E0.2024
G1 X81.143 Y55.967 E0.2130
G1 X81.179 Y55.640 E0.2237
G1 X81.179 Y55.310 E0.2343
G1 X81.143 Y54.983 E0.2450
G1 X81.071 Y54.661 E0.2556
G1 X80.964 Y54.350 E0.2663
G1 X80.823 Y54.052 E0.2769
G1 X80.651 Y53.771 E0.2876
G1 X80.448 Y53.511 E0.2982
G1 X80.218 Y53.275 E0.3089
G1 X79.964 Y53.065 E0.3195
G1 X79.688 Y52.885 E0.3302
G1 X79.394 Y52.736 E0.3408
G1 X79.086 Y52.621 E0.3515
G1 X78.762 Y52.539 E0.3623
G1 X78.440 Y52.495 E0.3728
G1 X78.111 Y52.486 E0.3834
G1 X77.782 Y52.513 E0.3941
G1 X77.459 Y52.576 E0.4047
G1 X77.145 Y52.674 E0.4154
G1 X76.843 Y52.807 E0.4260
G1 X76.558 Y52.972 E0.4367
G1 X76.292 Y53.167 E0.4474
G1 X76.050 Y53.390 E0.4580
G1 X75.833 Y53.638 E0.4687
G1 X75.646 Y53.909 E0.4793
G1 X75.489 Y54.199 E0.4900
G1 X75.365 Y54.504 E0.5006
G1 X75.275 Y54.821 E0.5113
G1 X75.221 Y55.146 E0.5219
G1 X75.203 Y55.475 E0.5326
G1 X75.221 Y55.804 E0.5432
G1 X75.275 Y56.129 E0.5539
G1 X75.365 Y56.446 E0.5645
G1 X75.489 Y56.751 E0.5752
G1 X75.646 Y57.041 E0.5858
G1 X75.833 Y57.312 E0.5965
G1 X75.918 Y57.409 E0.6007
G1 X76.050 Y57.560 F880
G92 E0.0000
G1 E-2.5000 F1800
; feature inner perimeter
G1 X94.743 Y55.857 F4800
G1 E-0.7500 F1800
G92 E0.0000
G1 X94.806 Y56.234 E0.0124 F1240
G1 X94.910 Y56.602 E0.0247
G1 X95.054 Y56.956 E0.0371
G1 X95.236 Y57.293 E0.0495
G1 X95.454 Y57.607 E0.0618
G1 X95.705 Y57.895 E0.0742
G1 X95.986 Y58.154 E0.0865
