; G-Code generated by Simplify3D(R) Version 4.1.2
; May 26, 2020 at 3:45:10 PM
; Settings Summary
;   processName,Calibration Cube
;   applyToModels,Anet_Board_Mount_No_Fan
;   profileName,Anet A8 (modified)
;   profileVersion,2020-05-17 12:50:12
;   baseProfile,
;   printMaterial,PETG
;   printQuality,Medium
;   printExtruders,
;   extruderName,Primary Extruder
;   extruderToolheadNumber,0
;   extruderDiameter,0.4
;   extruderAutoWidth,1
;   extruderWidth,0.48
;   extrusionMultiplier,0.9
;   extruderUseRetract,1
;   extruderRetractionDistance,2.5
;   extruderExtraRestartDistance,-0.75
;   extruderRetractionZLift,0
;   extruderRetractionSpeed,1800
;   extruderUseCoasting,1
;   extruderCoastingDistance,0.2
;   extruderUseWipe,0
;   extruderWipeDistance,5
;   primaryExtruder,0
;   layerHeight,0.2
;   topSolidLayers,3
;   bottomSolidLayers,3
;   perimeterOutlines,2
;   printPerimetersInsideOut,1
;   startPointOption,2
;   startPointOriginX,0
;   startPointOriginY,0
;   sequentialIslands,0
;   spiralVaseMode,0
;   firstLayerHeightPercentage,90
;   firstLayerWidthPercentage,100
;   firstLayerUnderspeed,0.5
;   useRaft,0
;   raftExtruder,0
;   raftTopLayers,3
;   raftBaseLayers,2
;   raftOffset,3
;   raftSeparationDistance,0.14
;   raftTopInfill,100
;   aboveRaftSpeedMultiplier,0.3
;   useSkirt,1
;   skirtExtruder,0
;   skirtLayers,1
;   skirtOutlines,3
;   skirtOffset,5
;   usePrimePillar,0
;   primePillarExtruder,999
;   primePillarWidth,12
;   primePillarLocation,7
;   primePillarSpeedMultiplier,1
;   useOozeShield,0
;   oozeShieldExtruder,999
;   oozeShieldOffset,2
;   oozeShieldOutlines,1
;   oozeShieldSidewallShape,1
;   oozeShieldSidewallAngle,30
;   oozeShieldSpeedMultiplier,1
;   infillExtruder,0
;   internalInfillPattern,Rectilinear
;   externalInfillPattern,Rectilinear
;   infillPercentage,30
;   outlineOverlapPercentage,15
;   infillExtrusionWidthPercentage,100
;   minInfillLength,5
;   infillLayerInterval,1
;   internalInfillAngles,45,-45
;   overlapInternalInfillAngles,0
;   externalInfillAngles,45,-45
;   generateSupport,0
;   supportExtruder,0
;   supportInfillPercentage,70
;   supportExtraInflation,0
;   supportBaseLayers,0
;   denseSupportExtruder,0
;   denseSupportLayers,0
;   denseSupportInfillPercentage,70
;   supportLayerInterval,1
;   supportHorizontalPartOffset,0.3
;   supportUpperSeparationLayers,1
;   supportLowerSeparationLayers,1
;   supportType,0
;   supportGridSpacing,4
;   maxOverhangAngle,45
;   supportAngles,0
;   temperatureName,Primary Extruder,Heated Bed
;   temperatureNumber,0,0
;   temperatureSetpointCount,1,1
;   temperatureSetpointLayers,1,1
;   temperatureSetpointTemperatures,225,70
;   temperatureStabilizeAtStartup,1,1
;   temperatureHeatedBed,0,1
;   fanLayers,1,2
;   fanSpeeds,0,100
;   blipFanToFullPower,0
;   adjustSpeedForCooling,1
;   minSpeedLayerTime,15
;   minCoolingSpeedSlowdown,20
;   increaseFanForCooling,0
;   minFanLayerTime,45
;   maxCoolingFanSpeed,100
;   increaseFanForBridging,0
;   bridgingFanSpeed,100
;   use5D,1
;   relativeEdistances,0
;   allowEaxisZeroing,1
;   independentExtruderAxes,0
;   includeM10123,0
;   stickySupport,1
;   applyToolheadOffsets,0
;   gcodeXoffset,0
;   gcodeYoffset,0
;   gcodeZoffset,0
;   overrideMachineDefinition,1
;   machineTypeOverride,0
;   strokeXoverride,220
;   strokeYoverride,220
;   strokeZoverride,240
;   originOffsetXoverride,0
;   originOffsetYoverride,0
;   originOffsetZoverride,0
;   homeXdirOverride,-1
;   homeYdirOverride,-1
;   homeZdirOverride,-1
;   flipXoverride,1
;   flipYoverride,-1
;   flipZoverride,1
;   toolheadOffsets,0,0|0,0|0,0|0,0|0,0|0,0
;   overrideFirmwareConfiguration,1
;   firmwareTypeOverride,RepRap (Marlin/Repetier/Sprinter)
;   GPXconfigOverride,r2
;   baudRateOverride,115200
;   overridePrinterModels,1
;   printerModelsOverride
;   startingGcode,M107 ; fan off,G28 ; home all axes,G29 ; run auto bed leveling,M500 ; store level values in EEPROM,G1 X0 Y20 Z0.2 F3000 ; get ready to prime on lower end,; G1 X0 Y190 Z0.2 F3000 ; get ready to prime on high end,G92 E0 ; reset extrusion distance,G1 X200 E10 F600 ; prime nozzle
;   layerChangeGcode,
;   retractionGcode,
;   toolChangeGcode,
;   endingGcode,M104 S0 ; turn off extruder,M140 S0 ; turn off bed,G91 ; use relative coordinates for jogging,G1 Z20 F1000 ; raise Z by 20mm at 1000 mm/min,G90 ; switch back to absolute coordinates,G1 X0 Y200 F1000 ; prepare for part removal,M84 ; disable motors,M107 ; turn off fan
;   exportFileFormat,gcode
;   celebration,0
;   celebrationSong,Random Song
;   postProcessing,
;   defaultSpeed,3200
;   outlineUnderspeed,0.55
;   solidInfillUnderspeed,0.8
;   supportUnderspeed,0.8
;   rapidXYspeed,4800
;   rapidZspeed,1000
;   minBridgingArea,50
;   bridgingExtraInflation,0
;   bridgingExtrusionMultiplier,1
;   bridgingSpeedMultiplier,1
;   useFixedBridgingAngle,0
;   fixedBridgingAngle,0
;   applyBridgingToPerimeters,0
;   filamentDiameters,1.75|1.75|1.75|1.75|1.75|1.75
;   filamentPricesPerKg,23.99|46|46|46|46|46
;   filamentDensities,1.25|1.25|1.25|1.25|1.25|1.25
;   useMinPrintHeight,0
;   minPrintHeight,0
;   useMaxPrintHeight,0
;   maxPrintHeight,0
;   useDiaphragm,0
;   diaphragmLayerInterval,20
;   robustSlicing,1
;   mergeAllIntoSolid,0
;   onlyRetractWhenCrossingOutline,1
;   retractBetweenLayers,1
;   useRetractionMinTravel,0
;   retractionMinTravel,3
;   retractWhileWiping,0
;   onlyWipeOutlines,1
;   avoidCrossingOutline,0
;   maxMovementDetourFactor,3
;   toolChangeRetractionDistance,12
;   toolChangeExtraRestartDistance,-0.5
;   toolChangeRetractionSpeed,600
;   externalThinWallType,0
;   internalThinWallType,2
;   thinWallAllowedOverlapPercentage,10
;   singleExtrusionMinLength,1
;   singleExtrusionMinPrintingWidthPercentage,50
;   singleExtrusionMaxPrintingWidthPercentage,200
;   singleExtrusionEndpointExtension,0.2
;   horizontalSizeCompensation,0
G90
M82
M106 S0
M140 S70
M190 S70
M104 S225 T0
M109 S225 T0
M107 ; fan off
G28 ; home all axes
G29 ; run auto bed leveling
M500 ; store level values in EEPROM
G1 X0 Y20 Z0.2 F3000 ; get ready to prime on lower end
; G1 X0 Y190 Z0.2 F3000 ; get ready to prime on high end
G92 E0 ; reset extrusion distance
G1 X200 E10 F600 ; prime nozzle
; process Calibration Cube
; layer 1, Z = 0.180
T0
G92 E0.0000
G1 E-2.5000 F1800
; feature skirt
; tool H0.180 W0.480
G1 Z0.180 F1000
G1 X42.182 Y53.550 F4800
G1 E-0.7500 F1800
G92 E0.0000
G1 X177.818 Y53.550 E4.3850 F1600
G1 X181.450 Y57.182 E4.5510
G1 X181.450 Y82.318 E5.3636
G1 X177.818 Y85.950 E5.5297
G1 X171.450 Y85.950 E5.7356
G1 X171.450 Y134.050 E7.2906
G1 X177.818 Y134.050 E7.4965
G1 X181.450 Y137.682 E7.6625
G1 X181.450 Y162.818 E8.4751
G1 X177.818 Y166.450 E8.6412
G1 X42.182 Y166.450 E13.0261
G1 X38.550 Y162.818 E13.1922
G1 X38.550 Y57.182 E16.6073
G1 X42.182 Y53.550 E16.7733
G92 E0.0000
G1 E-2.5000 F1800
G1 X42.381 Y54.030 F4800
G1 E-0.7500 F1800
G92 E0.0000
G1 X177.619 Y54.030 E4.3721 F1600
G1 X180.970 Y57.381 E4.5253
G1 X180.970 Y82.119 E5.3251
G1 X177.619 Y85.470 E5.4783
G1 X170.970 Y85.470 E5.6932
G1 X170.970 Y134.530 E7.2793
G1 X177.619 Y134.530 E7.4942
G1 X180.970 Y137.881 E7.6474
G1 X180.970 Y162.619 E8.4472
G1 X177.619 Y165.970 E8.6004
G1 X42.381 Y165.970 E12.9725
G1 X39.030 Y162.619 E13.1257
G1 X39.030 Y57.381 E16.5280
G1 X42.381 Y54.030 E16.6811
G92 E0.0000
G1 E-2.5000 F1800
G1 X42.580 Y54.510 F4800
G1 E-0.7500 F1800
G92 E0.0000
G1 X177.420 Y54.510 E4.3593 F1600
G1 X180.490 Y57.580 E4.4996
G1 X180.490 Y81.920 E5.2865
G1 X177.420 Y84.990 E5.4268
G1 X170.490 Y84.990 E5.6509
G1 X170.490 Y135.010 E7.2680
G1 X177.420 Y135.010 E7.4920
G1 X180.490 Y138.080 E7.6324
G1 X180.490 Y162.420 E8.4193
G1 X177.420 Y165.490 E8.5596
G1 X42.580 Y165.490 E12.9189
G1 X39.510 Y162.420 E13.0592
G1 X39.510 Y57.580 E16.4486
G1 X42.580 Y54.510 E16.5890
G92 E0.0000
G1 E-2.5000 F1800
; feature inner perimeter
G1 X45.470 Y60.470 F4800
G1 E-0.7500 F1800
G92 E0.0000
G1 X174.530 Y60.470 E4.1724 F1240
G1 X174.530 Y79.030 E4.7724
G1 X164.530 Y79.030 E5.0957
G1 X164.530 Y140.970 E7.0981
G1 X174.530 Y140.970 E7.4214
G1 X174.530 Y159.530 E8.0214
G1 X45.470 Y159.530 E12.1938
G1 X45.470 Y60.670 E15.3898
G1 X45.470 Y60.470 F1240
; feature outer perimeter
G1 X44.990 Y59.990 F4800
G92 E0.0000
G1 X175.010 Y59.990 E4.2034 F880
G1 X175.010 Y79.510 E4.8345
G1 X165.010 Y79.510 E5.1577
G1 X165.010 Y140.490 E7.1292
G1 X175.010 Y140.490 E7.4524
G1 X175.010 Y160.010 E8.0835
G1 X44.990 Y160.010 E12.2869
G1 X44.990 Y60.190 E15.5140
G1 X44.990 Y59.990 F880
; feature inner perimeter
G1 X48.000 Y62.664 F4800
G92 E0.0000
G1 X47.664 Y63.000 E0.0153 F1240
G1 X47.391 Y63.390 E0.0307
G1 X47.190 Y63.826 E0.0463
G1 X47.069 Y64.277 E0.0614
G1 X47.027 Y64.750 E0.0767
G1 X47.069 Y65.223 E0.0921
G1 X47.191 Y65.681 E0.1074
G1 X47.392 Y66.111 E0.1227
G1 X47.664 Y66.500 E0.1381
G1 X48.000 Y66.836 E0.1534
G1 X48.389 Y67.108 E0.1688
G1 X48.819 Y67.309 E0.1841
G1 X49.277 Y67.431 E0.1995
G1 X49.750 Y67.473 E0.2148
G1 X50.223 Y67.431 E0.2301
G1 X50.681 Y67.309 E0.2455
G1 X51.111 Y67.108 E0.2608
G1 X51.500 Y66.836 E0.2762
G1 X51.836 Y66.500 E0.2915
G1 X52.108 Y66.111 E0.3069
G1 X52.309 Y65.681 E0.3222
G1 X52.431 Y65.223 E0.3376
G1 X52.473 Y64.750 E0.3529
G1 X52.431 Y64.277 E0.3682
G1 X52.309 Y63.819 E0.3836
G1 X52.108 Y63.389 E0.3989
G1 X51.836 Y63.000 E0.4143
G1 X51.500 Y62.664 E0.4296
G1 X51.111 Y62.392 E0.4450
G1 X50.681 Y62.191 E0.4603
G1 X50.223 Y62.069 E0.4756
G1 X49.750 Y62.027 E0.4910
G1 X49.277 Y62.069 E0.5063
G1 X48.819 Y62.191 E0.5217
G1 X48.389 Y62.392 E0.5370
G1 X48.164 Y62.550 E0.5459
G1 X48.000 Y62.664 F1240
; feature outer perimeter
G1 X48.310 Y63.033 F4800
G92 E0.0000
G1 X48.033 Y63.310 E0.0126 F880
G1 X47.809 Y63.630 E0.0253
G1 X47.643 Y63.990 E0.0381
G1 X47.543 Y64.361 E0.0505
G1 X47.509 Y64.750 E0.0631
G1 X47.543 Y65.139 E0.0758
G1 X47.644 Y65.516 E0.0884
G1 X47.809 Y65.870 E0.1010
G1 X48.033 Y66.190 E0.1137
G1 X48.310 Y66.467 E0.1263
G1 X48.630 Y66.691 E0.1389
G1 X48.984 Y66.856 E0.1515
G1 X49.361 Y66.957 E0.1642
G1 X49.750 Y66.991 E0.1768
G1 X50.139 Y66.957 E0.1894
G1 X50.516 Y66.856 E0.2020
G1 X50.870 Y66.691 E0.2147
G1 X51.190 Y66.467 E0.2273
G1 X51.467 Y66.190 E0.2399
G1 X51.691 Y65.870 E0.2526
G1 X51.856 Y65.516 E0.2652
G1 X51.957 Y65.139 E0.2778
G1 X51.991 Y64.750 E0.2904
G1 X51.957 Y64.361 E0.3031
G1 X51.856 Y63.984 E0.3157
G1 X51.691 Y63.630 E0.3283
G1 X51.467 Y63.310 E0.3410
G1 X51.190 Y63.033 E0.3536
G1 X50.870 Y62.809 E0.3662
G1 X50.516 Y62.644 E0.3788
G1 X50.139 Y62.543 E0.3915
G1 X49.750 Y62.509 E0.4041
G1 X49.361 Y62.543 E0.4167
G1 X48.984 Y62.644 E0.4294
G1 X48.630 Y62.809 E0.4420
G1 X48.473 Y62.919 E0.4481
G1 X48.310 Y63.033 F880
G92 E0.0000
G1 E-2.5000 F1800
; feature inner perimeter
G1 X54.030 Y69.030 F4800
G1 E-0.7500 F1800
G92 E0.0000
G1 X54.030 Y108.220 E1.2670 F1240
G1 X130.970 Y108.220 E3.7543
G1 X130.970 Y69.030 E5.0213
G1 X54.230 Y69.030 E7.5022
G1 X54.030 Y69.030 F1240
; feature outer perimeter
G1 X54.510 Y69.510 F4800
G92 E0.0000
G1 X54.510 Y107.740 E1.2359 F880
G1 X130.490 Y107.740 E3.6923
G1 X130.490 Y69.510 E4.9282
G1 X54.710 Y69.510 E7.3781
G1 X54.510 Y69.510 F880
; feature inner perimeter
G1 X54.030 Y111.780 F4800
G92 E0.0000
G1 X54.030 Y150.970 E1.2670 F1240
G1 X130.970 Y150.970 E3.7543
G1 X130.970 Y111.780 E5.0213
G1 X54.230 Y111.780 E7.5022
G1 X54.030 Y111.780 F1240
; feature outer perimeter
G1 X54.510 Y112.260 F4800
G92 E0.0000
G1 X54.510 Y150.490 E1.2359 F880
G1 X130.490 Y150.490 E3.6923
G1 X130.490 Y112.260 E4.9282
G1 X54.710 Y112.260 E7.3781
G1 X54.510 Y112.260 F880
; feature inner perimeter
G1 X50.223 Y152.569 F4800
G92 E0.0000
G1 X49.750 Y152.527 E0.0153 F1240
G1 X49.277 Y152.569 E0.0307
G1 X48.819 Y152.691 E0.0460
G1 X48.389 Y152.892 E0.0614
G1 X48.000 Y153.164 E0.0767
G1 X47.664 Y153.500 E0.0921
G1 X47.391 Y153.890 E0.1074
G1 X47.190 Y154.326 E0.1230
G1 X47.069 Y154.777 E0.1381
G1 X47.027 Y155.250 E0.1534
G1 X47.069 Y155.723 E0.1688
G1 X47.191 Y156.181 E0.1841
G1 X47.392 Y156.611 E0.1995
G1 X47.664 Y157.000 E0.2148
G1 X48.000 Y157.336 E0.2301
G1 X48.389 Y157.608 E0.2455
G1 X48.819 Y157.809 E0.2608
G1 X49.277 Y157.931 E0.2762
G1 X49.750 Y157.973 E0.2915
G1 X50.223 Y157.931 E0.3069
G1 X50.681 Y157.809 E0.3222
G1 X51.111 Y157.608 E0.3376
G1 X51.500 Y157.336 E0.3529
G1 X51.836 Y157.000 E0.3682
G1 X52.108 Y156.611 E0.3836
G1 X52.309 Y156.181 E0.3989
G1 X52.431 Y155.723 E0.4143
G1 X52.473 Y155.250 E0.4296
G1 X52.431 Y154.777 E0.4450
G1 X52.309 Y154.319 E0.4603
G1 X52.108 Y153.889 E0.4756
G1 X51.836 Y153.500 E0.4910
G1 X51.500 Y153.164 E0.5063
G1 X51.111 Y152.892 E0.5217
G1 X50.681 Y152.691 E0.5370
G1 X50.416 Y152.620 E0.5459
G1 X50.223 Y152.569 F1240
; feature outer perimeter
G1 X50.139 Y153.043 F4800
G92 E0.0000
G1 X49.750 Y153.009 E0.0126 F880
G1 X49.361 Y153.043 E0.0253
G1 X48.984 Y153.144 E0.0379
G1 X48.630 Y153.309 E0.0505
G1 X48.310 Y153.533 E0.0631
G1 X48.033 Y153.810 E0.0758
G1 X47.809 Y154.130 E0.0884
G1 X47.643 Y154.490 E0.1012
G1 X47.543 Y154.861 E0.1137
G1 X47.509 Y155.250 E0.1263
G1 X47.543 Y155.639 E0.1389
G1 X47.644 Y156.016 E0.1515
G1 X47.809 Y156.370 E0.1642
G1 X48.033 Y156.690 E0.1768
G1 X48.310 Y156.967 E0.1894
G1 X48.630 Y157.191 E0.2020
G1 X48.984 Y157.356 E0.2147
G1 X49.361 Y157.457 E0.2273
G1 X49.750 Y157.491 E0.2399
G1 X50.139 Y157.457 E0.2526
G1 X50.516 Y157.356 E0.2652
G1 X50.870 Y157.191 E0.2778
G1 X51.190 Y156.967 E0.2904
G1 X51.467 Y156.690 E0.3031
G1 X51.691 Y156.370 E0.3157
G1 X51.856 Y156.016 E0.3283
G1 X51.957 Y155.639 E0.3410
G1 X51.991 Y155.250 E0.3536
G1 X51.957 Y154.861 E0.3662
G1 X51.856 Y154.484 E0.3788
G1 X51.691 Y154.130 E0.3915
G1 X51.467 Y153.810 E0.4041
G1 X51.190 Y153.533 E0.4167
G1 X50.870 Y153.309 E0.4294
G1 X50.516 Y153.144 E0.4420
G1 X50.332 Y153.095 E0.4481
G1 X50.139 Y153.043 F880
; feature inner perimeter
G1 X132.527 Y155.250 F4800
G92 E0.0000
G1 X132.569 Y155.723 E0.0153 F1240
G1 X132.691 Y156.181 E0.0307
G1 X132.892 Y156.611 E0.0460
G1 X133.164 Y157.000 E0.0614
G1 X133.500 Y157.336 E0.0767
G1 X133.889 Y157.608 E0.0921
G1 X134.319 Y157.809 E0.1074
G1 X134.777 Y157.931 E0.1227
G1 X135.250 Y157.973 E0.1381
G1 X135.723 Y157.931 E0.1534
G1 X136.181 Y157.809 E0.1688
G1 X136.611 Y157.608 E0.1841
G1 X137.000 Y157.336 E0.1995
G1 X137.336 Y157.000 E0.2148
G1 X137.608 Y156.611 E0.2302
G1 X137.809 Y156.181 E0.2455
G1 X137.931 Y155.723 E0.2608
G1 X137.973 Y155.250 E0.2762
G1 X137.931 Y154.777 E0.2915
G1 X137.809 Y154.319 E0.3069
G1 X137.608 Y153.889 E0.3222
G1 X137.336 Y153.500 E0.3376
G1 X137.000 Y153.164 E0.3529
G1 X136.611 Y152.892 E0.3682
G1 X136.181 Y152.691 E0.3836
G1 X135.723 Y152.569 E0.3989
G1 X135.250 Y152.527 E0.4143
G1 X134.777 Y152.569 E0.4296
G1 X134.319 Y152.691 E0.4450
G1 X133.889 Y152.892 E0.4603
G1 X133.500 Y153.164 E0.4756
G1 X133.164 Y153.500 E0.4910
G1 X132.891 Y153.890 E0.5064
G1 X132.690 Y154.326 E0.5219
G1 X132.569 Y154.777 E0.5370
G1 X132.545 Y155.051 E0.5459
G1 X132.527 Y155.250 F1240
; feature outer perimeter
G1 X133.009 Y155.250 F4800
G92 E0.0000
G1 X133.043 Y155.639 E0.0126 F880
G1 X133.144 Y156.016 E0.0253
G1 X133.309 Y156.370 E0.0379
G1 X133.533 Y156.690 E0.0505
G1 X133.810 Y156.967 E0.0631
G1 X134.130 Y157.191 E0.0758
G1 X134.484 Y157.356 E0.0884
G1 X134.861 Y157.457 E0.1010
G1 X135.250 Y157.491 E0.1137
G1 X135.639 Y157.457 E0.1263
G1 X136.016 Y157.356 E0.1389
G1 X136.370 Y157.191 E0.1515
G1 X136.690 Y156.967 E0.1642
G1 X136.967 Y156.690 E0.1768
G1 X137.191 Y156.370 E0.1894
G1 X137.356 Y156.016 E0.2021
G1 X137.457 Y155.639 E0.2147
G1 X137.491 Y155.250 E0.2273
G1 X137.457 Y154.861 E0.2399
G1 X137.356 Y154.484 E0.2526
G1 X137.191 Y154.130 E0.2652
G1 X136.967 Y153.810 E0.2778
G1 X136.690 Y153.533 E0.2904
G1 X136.370 Y153.309 E0.3031
G1 X136.016 Y153.144 E0.3157
G1 X135.639 Y153.043 E0.3283
G1 X135.250 Y153.009 E0.3410
G1 X134.861 Y153.043 E0.3536
G1 X134.484 Y153.144 E0.3662
G1 X134.130 Y153.309 E0.3788
G1 X133.810 Y153.533 E0.3915
G1 X133.533 Y153.810 E0.4041
G1 X133.309 Y154.130 E0.4167
G1 X133.143 Y154.490 E0.4296
G1 X133.043 Y154.861 E0.4420
G1 X133.027 Y155.051 E0.4481
G1 X133.009 Y155.250 F880
G92 E0.0000
G1 E-2.5000 F1800
