; G-Code generated by Simplify3D(R) Version 4.1.2
; May 26, 2020 at 3:29:45 PM
; Settings Summary
;   processName,Calibration Cube
;   applyToModels,1_LCD_Case_Top_V2
;   profileName,Anet A8 (modified)
;   profileVersion,2020-05-17 12:50:12
;   baseProfile,
;   printMaterial,PETG
;   printQuality,Medium
;   printExtruders,
;   extruderName,Primary Extruder
;   extruderToolheadNumber,0
;   extruderDiameter,0.4
;   extruderAutoWidth,1
;   extruderWidth,0.48
;   extrusionMultiplier,0.9
;   extruderUseRetract,1
;   extruderRetractionDistance,2.5
;   extruderExtraRestartDistance,-0.75
;   extruderRetractionZLift,0
;   extruderRetractionSpeed,1800
;   extruderUseCoasting,1
;   extruderCoastingDistance,0.2
;   extruderUseWipe,0
;   extruderWipeDistance,5
;   primaryExtruder,0
;   layerHeight,0.2
;   topSolidLayers,3
;   bottomSolidLayers,3
;   perimeterOutlines,2
;   printPerimetersInsideOut,1
;   startPointOption,2
;   startPointOriginX,0
;   startPointOriginY,0
;   sequentialIslands,0
;   spiralVaseMode,0
;   firstLayerHeightPercentage,90
;   firstLayerWidthPercentage,100
;   firstLayerUnderspeed,0.5
;   useRaft,0
;   raftExtruder,0
;   raftTopLayers,3
;   raftBaseLayers,2
;   raftOffset,3
;   raftSeparationDistance,0.14
;   raftTopInfill,100
;   aboveRaftSpeedMultiplier,0.3
;   useSkirt,1
;   skirtExtruder,0
;   skirtLayers,1
;   skirtOutlines,3
;   skirtOffset,5
;   usePrimePillar,0
;   primePillarExtruder,999
;   primePillarWidth,12
;   primePillarLocation,7
;   primePillarSpeedMultiplier,1
;   useOozeShield,0
;   oozeShieldExtruder,999
;   oozeShieldOffset,2
;   oozeShieldOutlines,1
;   oozeShieldSidewallShape,1
;   oozeShieldSidewallAngle,30
;   oozeShieldSpeedMultiplier,1
;   infillExtruder,0
;   internalInfillPattern,Rectilinear
;   externalInfillPattern,Rectilinear
;   infillPercentage,30
;   outlineOverlapPercentage,15
;   infillExtrusionWidthPercentage,100
;   minInfillLength,5
;   infillLayerInterval,1
;   internalInfillAngles,45,-45
;   overlapInternalInfillAngles,0
;   externalInfillAngles,45,-45
;   generateSupport,0
;   supportExtruder,0
;   supportInfillPercentage,70
;   supportExtraInflation,0
;   supportBaseLayers,0
;   denseSupportExtruder,0
;   denseSupportLayers,0
;   denseSupportInfillPercentage,70
;   supportLayerInterval,1
;   supportHorizontalPartOffset,0.3
;   supportUpperSeparationLayers,1
;   supportLowerSeparationLayers,1
;   supportType,0
;   supportGridSpacing,4
;   maxOverhangAngle,45
;   supportAngles,0
;   temperatureName,Primary Extruder,Heated Bed
;   temperatureNumber,0,0
;   temperatureSetpointCount,1,1
;   temperatureSetpointLayers,1,1
;   temperatureSetpointTemperatures,225,70
;   temperatureStabilizeAtStartup,1,1
;   temperatureHeatedBed,0,1
;   fanLayers,1,2
;   fanSpeeds,0,100
;   blipFanToFullPower,0
;   adjustSpeedForCooling,1
;   minSpeedLayerTime,15
;   minCoolingSpeedSlowdown,20
;   increaseFanForCooling,0
;   minFanLayerTime,45
;   maxCoolingFanSpeed,100
;   increaseFanForBridging,0
;   bridgingFanSpeed,100
;   use5D,1
;   relativeEdistances,0
;   allowEaxisZeroing,1
;   independentExtruderAxes,0
;   includeM10123,0
;   stickySupport,1
;   applyToolheadOffsets,0
;   gcodeXoffset,0
;   gcodeYoffset,0
;   gcodeZoffset,0
;   overrideMachineDefinition,1
;   machineTypeOverride,0
;   strokeXoverride,220
;   strokeYoverride,220
;   strokeZoverride,240
;   originOffsetXoverride,0
;   originOffsetYoverride,0
;   originOffsetZoverride,0
;   homeXdirOverride,-1
;   homeYdirOverride,-1
;   homeZdirOverride,-1
;   flipXoverride,1
;   flipYoverride,-1
;   flipZoverride,1
;   toolheadOffsets,0,0|0,0|0,0|0,0|0,0|0,0
;   overrideFirmwareConfiguration,1
;   firmwareTypeOverride,RepRap (Marlin/Repetier/Sprinter)
;   GPXconfigOverride,r2
;   baudRateOverride,115200
;   overridePrinterModels,1
;   printerModelsOverride
;   startingGcode,M107 ; fan off,G28 ; home all axes,G29 ; run auto bed leveling,M500 ; store level values in EEPROM,G1 X0 Y20 Z0.2 F3000 ; get ready to prime on lower end,; G1 X0 Y190 Z0.2 F3000 ; get ready to prime on high end,G92 E0 ; reset extrusion distance,G1 X200 E10 F600 ; prime nozzle
;   layerChangeGcode,
;   retractionGcode,
;   toolChangeGcode,
;   endingGcode,M104 S0 ; turn off extruder,M140 S0 ; turn off bed,G91 ; use relative coordinates for jogging,G1 Z20 F1000 ; raise Z by 20mm at 1000 mm/min,G90 ; switch back to absolute coordinates,G1 X0 Y200 F1000 ; prepare for part removal,M84 ; disable motors,M107 ; turn off fan
;   exportFileFormat,gcode
;   celebration,0
;   celebrationSong,Random Song
;   postProcessing,
;   defaultSpeed,3200
;   outlineUnderspeed,0.55
;   solidInfillUnderspeed,0.8
;   supportUnderspeed,0.8
;   rapidXYspeed,4800
;   rapidZspeed,1000
;   minBridgingArea,50
;   bridgingExtraInflation,0
;   bridgingExtrusionMultiplier,1
;   bridgingSpeedMultiplier,1
;   useFixedBridgingAngle,0
;   fixedBridgingAngle,0
;   applyBridgingToPerimeters,0
;   filamentDiameters,1.75|1.75|1.75|1.75|1.75|1.75
;   filamentPricesPerKg,23.99|46|46|46|46|46
;   filamentDensities,1.25|1.25|1.25|1.25|1.25|1.25
;   useMinPrintHeight,0
;   minPrintHeight,0
;   useMaxPrintHeight,0
;   maxPrintHeight,0
;   useDiaphragm,0
;   diaphragmLayerInterval,20
;   robustSlicing,1
;   mergeAllIntoSolid,0
;   onlyRetractWhenCrossingOutline,1
;   retractBetweenLayers,1
;   useRetractionMinTravel,0
;   retractionMinTravel,3
;   retractWhileWiping,0
;   onlyWipeOutlines,1
;   avoidCrossingOutline,0
;   maxMovementDetourFactor,3
;   toolChangeRetractionDistance,12
;   toolChangeExtraRestartDistance,-0.5
;   toolChangeRetractionSpeed,600
;   externalThinWallType,0
;   internalThinWallType,2
;   thinWallAllowedOverlapPercentage,10
;   singleExtrusionMinLength,1
;   singleExtrusionMinPrintingWidthPercentage,50
;   singleExtrusionMaxPrintingWidthPercentage,200
;   singleExtrusionEndpointExtension,0.2
;   horizontalSizeCompensation,0
G90
M82
M106 S0
M140 S70
M190 S70
M104 S225 T0
M109 S225 T0
M107 ; fan off
G28 ; home all axes
G29 ; run auto bed leveling
M500 ; store level values in EEPROM
G1 X0 Y20 Z0.2 F3000 ; get ready to prime on lower end
; G1 X0 Y190 Z0.2 F3000 ; get ready to prime on high end
G92 E0 ; reset extrusion distance
G1 X200 E10 F600 ; prime nozzle
; process Calibration Cube
; layer 1, Z = 0.180
T0
G92 E0.0000
G1 E-2.5000 F1800
; feature skirt
; tool H0.180 W0.480
G1 Z0.180 F1000
G1 X69.210 Y26.567 F4800
G1 E-0.7500 F1800
G92 E0.0000
G1 X70.154 Y24.288 E0.0797 F1600
G1 X71.988 Y22.454 E0.1636
G1 X74.267 Y21.510 E0.2433
G1 X145.733 Y21.510 E2.5538
G1 X148.012 Y22.454 E2.6335
G1 X149.846 Y24.288 E2.7174
G1 X150.790 Y26.567 E2.7971
G1 X150.790 Y193.433 E8.1917
G1 X149.846 Y195.712 E8.2714
G1 X148.012 Y197.546 E8.3553
G1 X145.733 Y198.490 E8.4350
G1 X74.267 Y198.490 E10.7455
G1 X71.988 Y197.546 E10.8252
G1 X70.154 Y195.712 E10.9090
G1 X69.210 Y193.433 E10.9888
G1 X69.210 Y26.567 E16.3834
G92 E0.0000
G1 E-2.5000 F1800
G1 X69.690 Y26.662 F4800
G1 E-0.7500 F1800
G92 E0.0000
G1 X70.561 Y24.560 E0.0736 F1600
G1 X72.260 Y22.861 E0.1512
G1 X74.362 Y21.990 E0.2248
G1 X145.638 Y21.990 E2.5291
G1 X147.740 Y22.861 E2.6026
G1 X149.439 Y24.560 E2.6803
G1 X150.310 Y26.662 E2.7539
G1 X150.310 Y193.338 E8.1423
G1 X149.439 Y195.440 E8.2159
G1 X147.740 Y197.139 E8.2935
G1 X145.638 Y198.010 E8.3671
G1 X74.362 Y198.010 E10.6714
G1 X72.260 Y197.139 E10.7449
G1 X70.561 Y195.440 E10.8226
G1 X69.690 Y193.338 E10.8962
G1 X69.690 Y26.662 E16.2846
G92 E0.0000
G1 E-2.5000 F1800
G1 X70.170 Y26.758 F4800
G1 E-0.7500 F1800
G92 E0.0000
G1 X70.968 Y24.832 E0.0674 F1600
G1 X72.531 Y23.268 E0.1389
G1 X74.457 Y22.470 E0.2063
G1 X145.543 Y22.470 E2.5044
G1 X147.469 Y23.268 E2.5718
G1 X149.032 Y24.832 E2.6433
G1 X149.830 Y26.758 E2.7107
G1 X149.830 Y193.242 E8.0929
G1 X149.032 Y195.168 E8.1603
G1 X147.469 Y196.732 E8.2318
G1 X145.543 Y197.530 E8.2992
G1 X74.457 Y197.530 E10.5973
G1 X72.531 Y196.732 E10.6647
G1 X70.968 Y195.168 E10.7362
G1 X70.170 Y193.242 E10.8036
G1 X70.170 Y26.758 E16.1858
G92 E0.0000
G1 E-2.5000 F1800
; feature inner perimeter
G1 X76.130 Y28.430 F4800
G1 E-0.7500 F1800
G92 E0.0000
G1 X141.402 Y28.430 E2.1102 F1240
G1 X143.870 Y28.430 E2.1900
G1 X143.870 Y191.570 E7.4641
G1 X76.130 Y191.570 E9.6540
G1 X76.130 Y152.025 E10.9325
G1 X91.280 Y157.244 E11.4505
G1 X91.280 Y183.220 E12.2903
G1 X132.720 Y183.220 E13.6300
G1 X132.720 Y83.780 E16.8448
G1 X91.280 Y83.780 E18.1845
G1 X91.280 Y115.575 E19.2124
G1 X90.908 Y115.627 E19.2245
G1 X90.828 Y115.348 E19.2339
G1 X90.611 Y114.691 E19.2562
G1 X90.330 Y114.123 E19.2767
G1 X90.145 Y113.802 E19.2887
G1 X89.980 Y113.560 E19.2982
G1 X89.737 Y113.264 E19.3106
G1 X89.472 Y112.996 E19.3227
G1 X88.999 Y112.576 E19.3432
G1 X88.465 Y112.262 E19.3632
G1 X88.144 Y112.105 E19.3748
G1 X87.838 Y111.989 E19.3854
G1 X87.523 Y111.907 E19.3959
G1 X87.252 Y111.862 E19.4048
G1 X86.584 Y111.796 E19.4265
G1 X85.989 Y111.841 E19.4458
G1 X85.647 Y111.891 E19.4569
G1 X85.338 Y111.964 E19.4672
G1 X85.022 Y112.075 E19.4780
G1 X84.201 Y112.493 E19.5078
G1 X83.684 Y112.956 E19.5303
G1 X83.417 Y113.232 E19.5427
G1 X83.147 Y113.564 E19.5565
G1 X82.791 Y113.197 E19.5731
G1 X82.337 Y112.817 E19.5922
G1 X81.814 Y112.511 E19.6118
G1 X81.517 Y112.372 E19.6224
G1 X81.198 Y112.260 E19.6333
G1 X80.744 Y112.164 E19.6483
G1 X80.130 Y112.101 E19.6683
G1 X79.571 Y112.156 E19.6864
G1 X79.253 Y112.212 E19.6969
G1 X79.000 Y112.282 E19.7053
G1 X78.687 Y112.404 E19.7162
G1 X78.397 Y112.556 E19.7268
G1 X77.934 Y112.840 E19.7443
G1 X77.481 Y113.262 E19.7644
G1 X77.093 Y113.704 E19.7834
G1 X76.889 Y114.008 E19.7952
G1 X76.760 Y114.240 E19.8038
G1 X76.465 Y114.846 E19.8256
G1 X76.130 Y114.769 E19.8367
G1 X76.130 Y28.630 E22.6215
G1 X76.130 Y28.430 F1240
G1 X76.465 Y120.156 F4800
G92 E0.0000
G1 X76.744 Y120.729 E0.0206 F1240
G1 X77.047 Y121.233 E0.0396
G1 X77.275 Y121.522 E0.0515
G1 X77.459 Y121.718 E0.0602
G1 X77.942 Y122.175 E0.0817
G1 X78.412 Y122.473 E0.0997
G1 X78.697 Y122.624 E0.1101
G1 X78.987 Y122.744 E0.1203
G1 X79.487 Y122.863 E0.1369
G1 X80.109 Y122.933 E0.1571
G1 X80.666 Y122.886 E0.1752
G1 X81.201 Y122.786 E0.1928
G1 X81.713 Y122.591 E0.2105
G1 X82.260 Y122.309 E0.2304
G1 X82.719 Y121.943 E0.2494
G1 X83.130 Y121.569 E0.2673
G1 X83.589 Y122.095 E0.2899
G1 X84.121 Y122.591 E0.3134
G1 X84.681 Y122.912 E0.3343
G1 X85.012 Y123.068 E0.3461
G1 X85.328 Y123.180 E0.3570
G1 X85.650 Y123.256 E0.3677
G1 X85.925 Y123.296 E0.3767
G1 X86.628 Y123.352 E0.3995
G1 X87.590 Y123.209 E0.4309
G1 X88.047 Y123.087 E0.4462
G1 X88.493 Y122.900 E0.4618
G1 X88.901 Y122.643 E0.4774
G1 X89.262 Y122.344 E0.4926
G1 X89.931 Y121.657 E0.5236
G1 X90.491 Y120.666 E0.5604
G1 X90.712 Y120.184 E0.5775
G1 X90.919 Y119.584 E0.5980
G1 X91.280 Y119.644 E0.6099
G1 X91.280 Y123.859 E0.7461
G1 X76.130 Y123.859 E1.2359
G1 X76.130 Y120.233 E1.3531
G1 X76.270 Y120.201 E1.3578
G1 X76.465 Y120.156 F1240
G1 X76.130 Y131.019 F4800
G92 E0.0000
G1 X81.865 Y132.381 E0.1906 F1240
G1 X81.867 Y132.720 E0.2015
G1 X76.130 Y134.167 E0.3928
G1 X76.130 Y131.219 E0.4881
G1 X76.130 Y131.019 F1240
G1 X76.130 Y141.410 F4800
G92 E0.0000
G1 X89.362 Y141.410 E0.4278 F1240
G1 X89.420 Y141.775 E0.4397
G1 X76.130 Y146.084 E0.8914
G1 X76.130 Y141.610 E1.0360
G1 X76.130 Y141.410 F1240
G92 E0.0000
G1 E-2.5000 F1800
G1 X87.768 Y136.476 F4800
G1 E-0.7500 F1800
G92 E0.0000
G1 X87.720 Y136.099 E0.0123 F1240
G1 X91.280 Y135.176 E0.1312
G1 X91.280 Y136.476 E0.1732
G1 X87.968 Y136.476 E0.2803
G1 X87.768 Y136.476 F1240
G92 E0.0000
G1 E-2.5000 F1800
G1 X87.718 Y129.608 F4800
G1 E-0.7500 F1800
G92 E0.0000
G1 X87.764 Y129.228 E0.0124 F1240
G1 X91.280 Y129.230 E0.1260
G1 X91.280 Y130.480 E0.1665
G1 X87.913 Y129.656 E0.2785
G1 X87.718 Y129.608 F1240
G92 E0.0000
G1 E-2.5000 F1800
G1 X91.280 Y147.088 F4800
G1 E-0.7500 F1800
G92 E0.0000
G1 X91.280 Y151.338 E0.1374 F1240
G1 X88.482 Y150.617 E0.2308
G1 X88.482 Y147.755 E0.3233
G1 X91.085 Y147.134 E0.4098
G1 X91.280 Y147.088 F1240
G92 E0.0000
G1 E-2.5000 F1800
; feature outer perimeter
G1 X75.650 Y192.050 F4800
G1 E-0.7500 F1800
G92 E0.0000
G1 X75.650 Y27.950 E5.3052 F880
G1 X141.402 Y27.950 E7.4308
G1 X144.350 Y27.950 E7.5261
G1 X144.350 Y192.050 E12.8313
G1 X75.850 Y192.050 E15.0458
G1 X75.650 Y192.050 F880
; feature inner perimeter
G1 X78.580 Y189.128 F4800
G92 E0.0000
G1 X78.975 Y189.507 E0.0177 F1240
G1 X79.428 Y189.814 E0.0354
G1 X79.933 Y190.040 E0.0533
G1 X80.462 Y190.177 E0.0709
G1 X81.000 Y190.223 E0.0884
G1 X81.538 Y190.177 E0.1058
G1 X82.073 Y190.039 E0.1237
G1 X82.572 Y189.813 E0.1414
G1 X83.025 Y189.507 E0.1591
G1 X83.420 Y189.128 E0.1768
G1 X83.745 Y188.689 E0.1944
G1 X83.991 Y188.200 E0.2121
G1 X84.151 Y187.677 E0.2298
G1 X84.220 Y187.135 E0.2475
G1 X84.197 Y186.595 E0.2649
G1 X84.081 Y186.055 E0.2828
G1 X83.876 Y185.547 E0.3005
G1 X83.589 Y185.082 E0.3182
G1 X83.228 Y184.672 E0.3358
G1 X82.807 Y184.332 E0.3533
G1 X82.325 Y184.062 E0.3712
G1 X81.808 Y183.881 E0.3889
G1 X81.270 Y183.789 E0.4066
G1 X80.723 Y183.789 E0.4242
G1 X80.191 Y183.881 E0.4417
G1 X79.676 Y184.062 E0.4593
G1 X79.198 Y184.328 E0.4770
G1 X78.772 Y184.672 E0.4947
G1 X78.411 Y185.082 E0.5124
G1 X78.124 Y185.547 E0.5301
G1 X77.919 Y186.054 E0.5477
G1 X77.804 Y186.589 E0.5654
G1 X77.781 Y187.142 E0.5833
G1 X77.849 Y187.677 E0.6008
G1 X78.009 Y188.200 E0.6184
G1 X78.255 Y188.689 E0.6361
G1 X78.461 Y188.967 E0.6473
G1 X78.580 Y189.128 F1240
; feature outer perimeter
G1 X78.942 Y188.810 F4800
G92 E0.0000
G1 X79.277 Y189.132 E0.0150 F880
G1 X79.663 Y189.393 E0.0301
G1 X80.093 Y189.586 E0.0453
G1 X80.543 Y189.702 E0.0603
G1 X81.000 Y189.741 E0.0752
G1 X81.457 Y189.702 E0.0900
G1 X81.913 Y189.584 E0.1052
G1 X82.337 Y189.393 E0.1203
G1 X82.722 Y189.132 E0.1353
G1 X83.058 Y188.810 E0.1503
G1 X83.334 Y188.436 E0.1654
G1 X83.544 Y188.021 E0.1804
G1 X83.680 Y187.576 E0.1954
G1 X83.738 Y187.115 E0.2105
G1 X83.719 Y186.656 E0.2253
G1 X83.620 Y186.196 E0.2405
G1 X83.446 Y185.764 E0.2556
G1 X83.202 Y185.368 E0.2706
G1 X82.895 Y185.020 E0.2856
G1 X82.538 Y184.731 E0.3005
G1 X82.126 Y184.501 E0.3157
G1 X81.688 Y184.347 E0.3308
G1 X81.229 Y184.269 E0.3458
G1 X80.764 Y184.269 E0.3608
G1 X80.312 Y184.347 E0.3757
G1 X79.874 Y184.501 E0.3907
G1 X79.467 Y184.728 E0.4057
G1 X79.105 Y185.020 E0.4208
G1 X78.798 Y185.368 E0.4358
G1 X78.554 Y185.764 E0.4508
G1 X78.380 Y186.196 E0.4659
G1 X78.281 Y186.650 E0.4809
G1 X78.262 Y187.121 E0.4961
G1 X78.320 Y187.576 E0.5110
G1 X78.456 Y188.021 E0.5260
G1 X78.665 Y188.436 E0.5410
G1 X78.823 Y188.649 E0.5496
G1 X78.942 Y188.810 F880
G92 E0.0000
G1 E-2.5000 F1800
G1 X91.760 Y182.740 F4800
G1 E-0.7500 F1800
G92 E0.0000
G1 X132.240 Y182.740 E1.3087 F880
G1 X132.240 Y84.260 E4.4924
G1 X91.760 Y84.260 E5.8011
G1 X91.760 Y182.540 E8.9784
G1 X91.760 Y182.740 F880
G1 X90.451 Y156.451 F4800
G92 E0.0000
G1 X90.451 Y151.620 E0.1562 F880
G1 X88.002 Y150.989 E0.2379
G1 X88.002 Y147.376 E0.3547
G1 X90.451 Y146.792 E0.4361
G1 X90.451 Y141.945 E0.5928
G1 X76.690 Y146.408 E1.0605
G1 X76.690 Y151.710 E1.2319
G1 X90.262 Y156.386 E1.6960
G1 X90.451 Y156.451 F880
G1 X90.451 Y140.930 F4800
G92 E0.0000
G1 X90.451 Y136.956 E0.1285 F880
G1 X83.948 Y136.956 E0.3387
G1 X82.697 Y136.987 E0.3792
G1 X82.697 Y136.906 E0.3818
G1 X90.451 Y134.895 E0.6408
G1 X90.451 Y130.771 E0.7741
G1 X82.697 Y128.873 E1.0321
G1 X82.697 Y128.745 E1.0363
G1 X90.451 Y128.749 E1.2870
G1 X90.451 Y124.339 E1.4296
G1 X76.690 Y124.339 E1.8745
G1 X76.690 Y130.659 E2.0788
G1 X84.061 Y132.409 E2.3237
G1 X84.129 Y132.422 E2.3259
G1 X84.129 Y132.644 E2.3331
G1 X76.690 Y134.521 E2.5812
G1 X76.690 Y140.930 E2.7884
G1 X90.251 Y140.930 E3.2268
G1 X90.451 Y140.930 F880
G92 E0.0000
G1 E-2.5000 F1800
G1 X87.493 Y122.738 F4800
G1 E-0.7500 F1800
G92 E0.0000
G1 X87.892 Y122.632 E0.0133 F880
G1 X88.271 Y122.473 E0.0266
G1 X88.618 Y122.254 E0.0399
G1 X88.936 Y121.991 E0.0532
G1 X89.544 Y121.367 E0.0814
G1 X90.063 Y120.447 E0.1155
G1 X90.266 Y120.005 E0.1313
G1 X90.425 Y119.547 E0.1470
G1 X90.532 Y119.073 E0.1626
G1 X90.598 Y118.593 E0.1783
G1 X90.665 Y117.574 E0.2113
G1 X90.623 Y116.803 E0.2363
G1 X90.556 Y116.243 E0.2545
G1 X90.475 Y115.861 E0.2672
G1 X90.369 Y115.489 E0.2797
