; G-Code generated by Simplify3D(R) Version 4.1.2
; May 26, 2020 at 3:26:05 PM
; Settings Summary
;   processName,Calibration Cube
;   applyToModels,1_LCD_Base_Left,1_LCD_Base_Right
;   profileName,Anet A8
;   profileVersion,2020-05-17 12:50:12
;   baseProfile,
;   printMaterial,PETG
;   printQuality,Medium
;   printExtruders,
;   extruderName,Primary Extruder
;   extruderToolheadNumber,0
;   extruderDiameter,0.4
;   extruderAutoWidth,1
;   extruderWidth,0.48
;   extrusionMultiplier,0.9
;   extruderUseRetract,1
;   extruderRetractionDistance,2.5
;   extruderExtraRestartDistance,-0.75
;   extruderRetractionZLift,0
;   extruderRetractionSpeed,1800
;   extruderUseCoasting,1
;   extruderCoastingDistance,0.2
;   extruderUseWipe,0
;   extruderWipeDistance,5
;   primaryExtruder,0
;   layerHeight,0.2
;   topSolidLayers,3
;   bottomSolidLayers,3
;   perimeterOutlines,2
;   printPerimetersInsideOut,1
;   startPointOption,2
;   startPointOriginX,0
;   startPointOriginY,0
;   sequentialIslands,0
;   spiralVaseMode,0
;   firstLayerHeightPercentage,90
;   firstLayerWidthPercentage,100
;   firstLayerUnderspeed,0.5
;   useRaft,0
;   raftExtruder,0
;   raftTopLayers,3
;   raftBaseLayers,2
;   raftOffset,3
;   raftSeparationDistance,0.14
;   raftTopInfill,100
;   aboveRaftSpeedMultiplier,0.3
;   useSkirt,1
;   skirtExtruder,0
;   skirtLayers,1
;   skirtOutlines,3
;   skirtOffset,5
;   usePrimePillar,0
;   primePillarExtruder,999
;   primePillarWidth,12
;   primePillarLocation,7
;   primePillarSpeedMultiplier,1
;   useOozeShield,0
;   oozeShieldExtruder,999
;   oozeShieldOffset,2
;   oozeShieldOutlines,1
;   oozeShieldSidewallShape,1
;   oozeShieldSidewallAngle,30
;   oozeShieldSpeedMultiplier,1
;   infillExtruder,0
;   internalInfillPattern,Rectilinear
;   externalInfillPattern,Rectilinear
;   infillPercentage,30
;   outlineOverlapPercentage,15
;   infillExtrusionWidthPercentage,100
;   minInfillLength,5
;   infillLayerInterval,1
;   internalInfillAngles,45,-45
;   overlapInternalInfillAngles,0
;   externalInfillAngles,45,-45
;   generateSupport,0
;   supportExtruder,0
;   supportInfillPercentage,70
;   supportExtraInflation,0
;   supportBaseLayers,0
;   denseSupportExtruder,0
;   denseSupportLayers,0
;   denseSupportInfillPercentage,70
;   supportLayerInterval,1
;   supportHorizontalPartOffset,0.3
;   supportUpperSeparationLayers,1
;   supportLowerSeparationLayers,1
;   supportType,0
;   supportGridSpacing,4
;   maxOverhangAngle,45
;   supportAngles,0
;   temperatureName,Primary Extruder,Heated Bed
;   temperatureNumber,0,0
;   temperatureSetpointCount,1,1
;   temperatureSetpointLayers,1,1
;   temperatureSetpointTemperatures,225,70
;   temperatureStabilizeAtStartup,1,1
;   temperatureHeatedBed,0,1
;   fanLayers,1,2
;   fanSpeeds,0,100
;   blipFanToFullPower,0
;   adjustSpeedForCooling,1
;   minSpeedLayerTime,15
;   minCoolingSpeedSlowdown,20
;   increaseFanForCooling,0
;   minFanLayerTime,45
;   maxCoolingFanSpeed,100
;   increaseFanForBridging,0
;   bridgingFanSpeed,100
;   use5D,1
;   relativeEdistances,0
;   allowEaxisZeroing,1
;   independentExtruderAxes,0
;   includeM10123,0
;   stickySupport,1
;   applyToolheadOffsets,0
;   gcodeXoffset,0
;   gcodeYoffset,0
;   gcodeZoffset,0
;   overrideMachineDefinition,1
;   machineTypeOverride,0
;   strokeXoverride,220
;   strokeYoverride,220
;   strokeZoverride,240
;   originOffsetXoverride,0
;   originOffsetYoverride,0
;   originOffsetZoverride,0
;   homeXdirOverride,-1
;   homeYdirOverride,-1
;   homeZdirOverride,-1
;   flipXoverride,1
;   flipYoverride,-1
;   flipZoverride,1
;   toolheadOffsets,0,0|0,0|0,0|0,0|0,0|0,0
;   overrideFirmwareConfiguration,1
;   firmwareTypeOverride,RepRap (Marlin/Repetier/Sprinter)
;   GPXconfigOverride,r2
;   baudRateOverride,115200
;   overridePrinterModels,1
;   printerModelsOverride
;   startingGcode,M107 ; fan off,G28 ; home all axes,G29 ; run auto bed leveling,M500 ; store level values in EEPROM,G1 X0 Y20 Z0.2 F3000 ; get ready to prime on lower end,; G1 X0 Y190 Z0.2 F3000 ; get ready to prime on high end,G92 E0 ; reset extrusion distance,G1 X200 E10 F600 ; prime nozzle
;   layerChangeGcode,
;   retractionGcode,
;   toolChangeGcode,
;   endingGcode,M104 S0 ; turn off extruder,M140 S0 ; turn off bed,G91 ; use relative coordinates for jogging,G1 Z20 F1000 ; raise Z by 20mm at 1000 mm/min,G90 ; switch back to absolute coordinates,G1 X0 Y200 F1000 ; prepare for part removal,M84 ; disable motors,M107 ; turn off fan
;   exportFileFormat,gcode
;   celebration,0
;   celebrationSong,Random Song
;   postProcessing,
;   defaultSpeed,3200
;   outlineUnderspeed,0.55
;   solidInfillUnderspeed,0.8
;   supportUnderspeed,0.8
;   rapidXYspeed,4800
;   rapidZspeed,1000
;   minBridgingArea,50
;   bridgingExtraInflation,0
;   bridgingExtrusionMultiplier,1
;   bridgingSpeedMultiplier,1
;   useFixedBridgingAngle,0
;   fixedBridgingAngle,0
;   applyBridgingToPerimeters,0
;   filamentDiameters,1.75|1.75|1.75|1.75|1.75|1.75
;   filamentPricesPerKg,23.99|46|46|46|46|46
;   filamentDensities,1.25|1.25|1.25|1.25|1.25|1.25
;   useMinPrintHeight,0
;   minPrintHeight,0
;   useMaxPrintHeight,0
;   maxPrintHeight,0
;   useDiaphragm,0
;   diaphragmLayerInterval,20
;   robustSlicing,1
;   mergeAllIntoSolid,0
;   onlyRetractWhenCrossingOutline,1
;   retractBetweenLayers,1
;   useRetractionMinTravel,0
;   retractionMinTravel,3
;   retractWhileWiping,0
;   onlyWipeOutlines,1
;   avoidCrossingOutline,0
;   maxMovementDetourFactor,3
;   toolChangeRetractionDistance,12
;   toolChangeExtraRestartDistance,-0.5
;   toolChangeRetractionSpeed,600
;   externalThinWallType,0
;   internalThinWallType,2
;   thinWallAllowedOverlapPercentage,10
;   singleExtrusionMinLength,1
;   singleExtrusionMinPrintingWidthPercentage,50
;   singleExtrusionMaxPrintingWidthPercentage,200
;   singleExtrusionEndpointExtension,0.2
;   horizontalSizeCompensation,0
G90
M82
M106 S0
M140 S70
M190 S70
M104 S225 T0
M109 S225 T0
M107 ; fan off
G28 ; home all axes
G29 ; run auto bed leveling
M500 ; store level values in EEPROM
G1 X0 Y20 Z0.2 F3000 ; get ready to prime on lower end
; G1 X0 Y190 Z0.2 F3000 ; get ready to prime on high end
G92 E0 ; reset extrusion distance
G1 X200 E10 F600 ; prime nozzle
; process Calibration Cube
; layer 1, Z = 0.180
T0
G92 E0.0000
G1 E-2.5000 F1800
; feature skirt
; tool H0.180 W0.480
G1 Z0.180 F1000
G1 X75.551 Y55.434 F4800
G1 E-0.7500 F1800
G92 E0.0000
G1 X79.183 Y51.803 E0.1660 F1600
G1 X142.391 Y51.803 E2.2095
G1 X145.562 Y59.457 E2.4774
G1 X129.503 Y75.516 E3.2116
G1 X124.367 Y75.516 E3.3776
G1 X121.278 Y72.427 E3.5188
G1 X103.883 Y89.822 E4.3141
G1 X106.972 Y92.911 E4.4553
G1 X106.972 Y98.047 E4.6214
G1 X95.019 Y110.000 E5.1679
G1 X106.972 Y121.953 E5.7143
G1 X106.972 Y127.089 E5.8804
G1 X103.883 Y130.178 E6.0216
G1 X121.278 Y147.572 E6.8169
G1 X124.367 Y144.484 E6.9581
G1 X129.503 Y144.484 E7.1242
G1 X145.562 Y160.543 E7.8584
G1 X142.391 Y168.197 E8.1262
G1 X79.183 Y168.197 E10.1697
G1 X75.551 Y164.566 E10.3357
G1 X75.551 Y55.434 E13.8638
G92 E0.0000
G1 E-2.5000 F1800
G1 X76.031 Y55.633 F4800
G1 E-0.7500 F1800
G92 E0.0000
G1 X79.382 Y52.283 E0.1532 F1600
G1 X142.071 Y52.283 E2.1798
G1 X144.996 Y59.345 E2.4270
G1 X129.304 Y75.036 E3.1444
G1 X124.566 Y75.036 E3.2976
G1 X121.278 Y71.749 E3.4479
G1 X103.205 Y89.822 E4.2742
G1 X106.492 Y93.110 E4.4245
G1 X106.492 Y97.848 E4.5777
G1 X94.341 Y110.000 E5.1333
G1 X106.492 Y122.152 E5.6888
G1 X106.492 Y126.890 E5.8420
G1 X103.205 Y130.178 E5.9923
G1 X121.278 Y148.251 E6.8187
G1 X124.566 Y144.964 E6.9690
G1 X129.304 Y144.964 E7.1222
G1 X144.996 Y160.655 E7.8396
G1 X142.071 Y167.717 E8.0867
G1 X79.382 Y167.717 E10.1134
G1 X76.031 Y164.367 E10.2666
G1 X76.031 Y110.131 E12.0199
G1 X76.162 Y110.000 E12.0259
G1 X76.031 Y109.869 E12.0319
G1 X76.031 Y55.633 E13.7853
G92 E0.0000
G1 E-2.5000 F1800
G1 X76.511 Y55.832 F4800
G1 E-0.7500 F1800
G92 E0.0000
G1 X79.581 Y52.763 E0.1403 F1600
G1 X141.750 Y52.763 E2.1502
G1 X144.430 Y59.232 E2.3766
G1 X129.106 Y74.556 E3.0772
G1 X124.765 Y74.556 E3.2175
G1 X121.278 Y71.070 E3.3769
G1 X102.526 Y89.822 E4.2343
G1 X106.012 Y93.309 E4.3937
G1 X106.012 Y97.650 E4.5340
G1 X93.662 Y110.000 E5.0987
G1 X106.012 Y122.350 E5.6633
G1 X106.012 Y126.691 E5.8037
G1 X102.526 Y130.178 E5.9631
G1 X121.278 Y148.930 E6.8204
G1 X124.765 Y145.444 E6.9798
G1 X129.105 Y145.444 E7.1202
G1 X144.430 Y160.768 E7.8208
G1 X141.750 Y167.237 E8.0472
G1 X79.581 Y167.237 E10.0570
G1 X76.511 Y164.168 E10.1974
G1 X76.511 Y110.330 E11.9379
G1 X76.841 Y110.000 E11.9530
G1 X76.511 Y109.670 E11.9680
G1 X76.511 Y55.832 E13.7086
G92 E0.0000
G1 E-2.5000 F1800
; feature inner perimeter
G1 X82.471 Y58.723 F4800
G1 E-0.7500 F1800
G92 E0.0000
G1 X129.439 Y58.723 E1.5184 F1240
G1 X125.210 Y62.952 E1.7118
G1 X128.745 Y66.488 E1.8735
G1 X126.935 Y68.298 E1.9562
G1 X121.278 Y62.641 E2.2148
G1 X94.097 Y89.822 E3.4576
G1 X99.754 Y95.479 E3.7162
G1 X97.944 Y97.289 E3.7990
G1 X94.408 Y93.754 E3.9606
G1 X89.147 Y99.015 E4.2011
G1 X92.683 Y102.550 E4.3628
G1 X88.453 Y106.780 E4.5562
G1 X82.471 Y106.780 E4.7495
G1 X82.471 Y58.923 E6.2967
G1 X82.471 Y58.723 F1240
G92 E0.0000
G1 E-2.5000 F1800
G1 X131.502 Y58.723 F4800
G1 E-0.7500 F1800
G92 E0.0000
G1 X136.511 Y58.723 E0.1619 F1240
G1 X134.006 Y61.227 E0.2764
G1 X131.643 Y58.864 E0.3845
G1 X131.502 Y58.723 F1240
; feature outer perimeter
G1 X137.669 Y58.243 F4800
G92 E0.0000
G1 X126.935 Y68.977 E0.4908 F880
G1 X121.278 Y63.320 E0.7494
G1 X94.776 Y89.822 E1.9611
G1 X100.433 Y95.479 E2.2197
G1 X88.652 Y107.260 E2.7583
G1 X81.991 Y107.260 E2.9737
G1 X81.991 Y58.243 E4.5583
G1 X137.469 Y58.243 E6.3519
G1 X137.669 Y58.243 F880
G1 X133.285 Y61.184 F4800
G92 E0.0000
G1 X130.471 Y58.370 E0.1287 F880
G1 X125.889 Y62.952 E0.3382
G1 X128.703 Y65.767 E0.4668
G1 X133.143 Y61.326 E0.6699
G1 X133.285 Y61.184 F880
G92 E0.0000
G1 E-2.5000 F1800
G1 X97.222 Y97.247 F4800
G1 E-0.7500 F1800
G92 E0.0000
G1 X94.408 Y94.433 E0.1287 F880
G1 X89.826 Y99.015 E0.3382
G1 X92.640 Y101.829 E0.4668
G1 X97.081 Y97.388 E0.6699
G1 X97.222 Y97.247 F880
; feature gap fill
G1 X97.523 Y97.523 F4800
G92 E0.0000
G1 X97.667 Y97.667 E0.0066 F1600
G1 X97.328 Y98.007 E0.0221
G1 X97.184 Y97.863 E0.0287
G1 X96.844 Y98.202 E0.0442
G1 X96.989 Y98.346 E0.0508
G1 X96.649 Y98.686 E0.0663
G1 X96.505 Y98.541 E0.0729
G1 X96.166 Y98.881 E0.0885
G1 X96.310 Y99.025 E0.0950
G1 X95.970 Y99.364 E0.1106
G1 X95.826 Y99.220 E0.1172
G1 X95.487 Y99.560 E0.1327
G1 X95.631 Y99.704 E0.1393
G1 X95.292 Y100.043 E0.1548
G1 X95.147 Y99.899 E0.1614
G1 X94.808 Y100.238 E0.1769
G1 X94.952 Y100.383 E0.1835
G1 X94.613 Y100.722 E0.1990
G1 X94.468 Y100.578 E0.2056
G1 X94.129 Y100.917 E0.2211
G1 X94.273 Y101.062 E0.2277
G1 X93.934 Y101.401 E0.2432
G1 X93.790 Y101.257 E0.2498
G1 X93.450 Y101.596 E0.2654
G1 X93.594 Y101.740 E0.2719
G1 X93.255 Y102.080 E0.2875
G1 X93.111 Y101.936 F1600
G92 E0.0000
G1 E-2.5000 F1800
G1 X129.088 Y65.958 F4800
G1 E-0.7500 F1800
G92 E0.0000
G1 X129.233 Y66.102 E0.0066 F1600
G1 X129.572 Y65.763 E0.0221
G1 X129.428 Y65.619 E0.0287
G1 X129.767 Y65.279 E0.0442
G1 X129.911 Y65.423 E0.0508
G1 X130.251 Y65.084 E0.0663
G1 X130.107 Y64.940 E0.0729
G1 X130.446 Y64.600 E0.0885
G1 X130.590 Y64.745 E0.0950
G1 X130.930 Y64.405 E0.1106
G1 X130.785 Y64.261 E0.1172
G1 X131.125 Y63.921 E0.1327
G1 X131.269 Y64.066 E0.1393
G1 X131.609 Y63.726 E0.1548
G1 X131.464 Y63.582 E0.1614
G1 X131.804 Y63.243 E0.1769
G1 X131.948 Y63.387 E0.1835
G1 X132.287 Y63.047 E0.1990
G1 X132.143 Y62.903 E0.2056
G1 X132.483 Y62.564 E0.2211
G1 X132.627 Y62.708 E0.2277
G1 X132.966 Y62.369 E0.2432
G1 X132.822 Y62.224 E0.2498
G1 X133.161 Y61.885 E0.2654
G1 X133.306 Y62.029 E0.2719
G1 X133.645 Y61.690 E0.2875
G1 X133.501 Y61.546 F1600
; feature solid layer
G1 X133.122 Y59.131 F4800
G92 E0.0000
G1 X134.324 Y60.332 E0.0549 F1280
G1 X134.663 Y59.993 E0.0705
G1 X133.801 Y59.131 E0.1099
G1 X134.480 Y59.131 E0.1318
G1 X135.003 Y59.653 E0.1557
G1 X135.342 Y59.314 E0.1712
G1 X135.300 Y59.272 E0.1732
G1 X135.159 Y59.131 F1280
G92 E0.0000
G1 E-2.5000 F1800
G1 X128.370 Y59.131 F4800
G1 E-0.7500 F1800
G92 E0.0000
G1 X128.412 Y59.173 E0.0019 F1280
G1 X128.073 Y59.512 E0.0174
G1 X127.692 Y59.131 E0.0349
G1 X127.013 Y59.131 E0.0568
G1 X127.734 Y59.851 E0.0898
G1 X127.394 Y60.191 E0.1053
G1 X126.334 Y59.131 E0.1538
G1 X125.655 Y59.131 E0.1757
G1 X127.055 Y60.530 E0.2397
G1 X126.715 Y60.870 E0.2552
G1 X124.976 Y59.131 E0.3347
G1 X124.297 Y59.131 E0.3567
G1 X126.376 Y61.209 E0.4517
G1 X126.037 Y61.548 E0.4672
G1 X123.619 Y59.131 E0.5778
G1 X122.940 Y59.131 E0.5997
G1 X125.697 Y61.888 E0.7258
G1 X125.358 Y62.227 E0.7413
G1 X122.261 Y59.131 E0.8829
G1 X121.582 Y59.131 E0.9048
G1 X125.018 Y62.567 E1.0619
G1 X124.679 Y62.906 E1.0774
G1 X120.903 Y59.131 E1.2501
G1 X120.225 Y59.131 E1.2720
G1 X127.875 Y66.781 E1.6218
G1 X127.536 Y67.120 E1.6373
G1 X119.546 Y59.131 E2.0026
G1 X118.867 Y59.131 E2.0245
G1 X127.196 Y67.460 E2.4054
G1 X126.935 Y67.721 E2.4173
G1 X121.278 Y62.064 E2.6759
G1 X121.200 Y62.142 E2.6795
G1 X118.188 Y59.131 E2.8172
G1 X117.509 Y59.131 E2.8392
G1 X120.861 Y62.482 E2.9924
G1 X120.521 Y62.821 E3.0079
G1 X116.830 Y59.131 E3.1766
G1 X116.152 Y59.131 E3.1986
G1 X120.182 Y63.161 E3.3828
G1 X119.842 Y63.500 E3.3983
G1 X115.473 Y59.131 E3.5981
G1 X114.794 Y59.131 E3.6201
G1 X119.503 Y63.839 E3.8354
G1 X119.163 Y64.179 E3.8509
G1 X114.115 Y59.131 E4.0817
G1 X113.436 Y59.131 E4.1036
G1 X118.824 Y64.518 E4.3500
G1 X118.485 Y64.858 E4.3655
G1 X112.758 Y59.131 E4.6273
G1 X112.079 Y59.131 E4.6493
G1 X118.145 Y65.197 E4.9266
G1 X117.806 Y65.536 E4.9421
G1 X111.400 Y59.131 E5.2350
G1 X110.721 Y59.131 E5.2570
G1 X117.466 Y65.876 E5.5654
G1 X117.127 Y66.215 E5.5809
G1 X110.042 Y59.131 E5.9048
G1 X109.363 Y59.131 E5.9267
G1 X116.788 Y66.555 E6.2662
G1 X116.448 Y66.894 E6.2817
G1 X108.685 Y59.131 E6.6366
G1 X108.006 Y59.131 E6.6586
G1 X116.109 Y67.234 E7.0291
G1 X115.769 Y67.573 E7.0446
G1 X107.327 Y59.131 E7.4306
G1 X106.648 Y59.131 E7.4525
G1 X115.430 Y67.912 E7.8540
G1 X115.091 Y68.252 E7.8695
G1 X105.969 Y59.131 E8.2866
G1 X105.290 Y59.131 E8.3085
G1 X114.751 Y68.591 E8.7410
G1 X114.412 Y68.931 E8.7566
G1 X104.612 Y59.131 E9.2046
G1 X103.933 Y59.131 E9.2266
G1 X114.072 Y69.270 E9.6901
G1 X113.733 Y69.609 E9.7057
G1 X103.254 Y59.131 E10.1848
G1 X102.575 Y59.131 E10.2067
G1 X113.393 Y69.949 E10.7013
G1 X113.054 Y70.288 E10.7168
G1 X101.896 Y59.131 E11.2270
G1 X101.218 Y59.131 E11.2489
G1 X112.715 Y70.628 E11.7746
G1 X112.375 Y70.967 E11.7901
G1 X100.539 Y59.131 E12.3312
G1 X99.860 Y59.131 E12.3532
G1 X112.036 Y71.306 E12.9099
G1 X111.696 Y71.646 E12.9254
G1 X99.181 Y59.131 E13.4976
G1 X98.502 Y59.131 E13.5195
G1 X111.357 Y71.985 E14.1073
G1 X111.018 Y72.325 E14.1228
G1 X97.823 Y59.131 E14.7260
G1 X97.145 Y59.131 E14.7480
G1 X110.678 Y72.664 E15.3667
G1 X110.339 Y73.004 E15.3822
G1 X96.466 Y59.131 E16.0165
G1 X95.787 Y59.131 E16.0384
G1 X109.999 Y73.343 E16.6882
G1 X109.660 Y73.682 E16.7038
G1 X95.108 Y59.131 E17.3691
G1 X94.429 Y59.131 E17.3910
G1 X109.321 Y74.022 E18.0718
G1 X108.981 Y74.361 E18.0873
G1 X93.750 Y59.131 E18.7837
G1 X93.072 Y59.131 E18.8056
G1 X108.642 Y74.701 E19.5175
G1 X108.302 Y75.040 E19.5330
G1 X92.393 Y59.131 E20.2604
G1 X91.714 Y59.131 E20.2823
G1 X107.963 Y75.379 E21.0252
G1 X107.623 Y75.719 E21.0408
G1 X91.035 Y59.131 E21.7992
G1 X90.356 Y59.131 E21.8211
G1 X107.284 Y76.058 E22.5951
G1 X106.945 Y76.398 E22.6106
G1 X89.678 Y59.131 E23.4000
G1 X88.999 Y59.131 E23.4220
G1 X106.605 Y76.737 E24.2269
G1 X106.266 Y77.076 E24.2425
G1 X88.320 Y59.131 E25.0629
G1 X87.641 Y59.131 E25.0849
G1 X105.926 Y77.416 E25.9209
G1 X105.587 Y77.755 E25.9364
G1 X86.962 Y59.131 E26.7879
G1 X86.283 Y59.131 E26.8099
G1 X105.248 Y78.095 E27.6769
G1 X104.908 Y78.434 E27.6924
G1 X85.605 Y59.131 E28.5750
G1 X84.926 Y59.131 E28.5969
G1 X104.569 Y78.774 E29.4950
G1 X104.229 Y79.113 E29.5105
G1 X84.247 Y59.131 E30.4241
G1 X83.568 Y59.131 E30.4461
G1 X103.890 Y79.452 E31.3752
G1 X103.551 Y79.792 E31.3907
G1 X82.889 Y59.131 E32.3353
G1 X82.879 Y59.131 E32.3357
G1 X82.879 Y59.799 E32.3573
G1 X103.211 Y80.131 E33.2869
