; G-Code generated by Simplify3D(R) Version 4.1.2
; May 26, 2020 at 3:41:23 PM
; Settings Summary
;   processName,Calibration Cube
;   applyToModels,2_Top_Corner_Plate,2_Top_Corner_Plate(2)
;   profileName,Anet A8 (modified)
;   profileVersion,2020-05-17 12:50:12
;   baseProfile,
;   printMaterial,PETG
;   printQuality,Medium
;   printExtruders,
;   extruderName,Primary Extruder
;   extruderToolheadNumber,0
;   extruderDiameter,0.4
;   extruderAutoWidth,1
;   extruderWidth,0.48
;   extrusionMultiplier,0.9
;   extruderUseRetract,1
;   extruderRetractionDistance,2.5
;   extruderExtraRestartDistance,-0.75
;   extruderRetractionZLift,0
;   extruderRetractionSpeed,1800
;   extruderUseCoasting,1
;   extruderCoastingDistance,0.2
;   extruderUseWipe,0
;   extruderWipeDistance,5
;   primaryExtruder,0
;   layerHeight,0.2
;   topSolidLayers,3
;   bottomSolidLayers,3
;   perimeterOutlines,2
;   printPerimetersInsideOut,1
;   startPointOption,2
;   startPointOriginX,0
;   startPointOriginY,0
;   sequentialIslands,0
;   spiralVaseMode,0
;   firstLayerHeightPercentage,90
;   firstLayerWidthPercentage,100
;   firstLayerUnderspeed,0.5
;   useRaft,0
;   raftExtruder,0
;   raftTopLayers,3
;   raftBaseLayers,2
;   raftOffset,3
;   raftSeparationDistance,0.14
;   raftTopInfill,100
;   aboveRaftSpeedMultiplier,0.3
;   useSkirt,1
;   skirtExtruder,0
;   skirtLayers,1
;   skirtOutlines,3
;   skirtOffset,5
;   usePrimePillar,0
;   primePillarExtruder,999
;   primePillarWidth,12
;   primePillarLocation,7
;   primePillarSpeedMultiplier,1
;   useOozeShield,0
;   oozeShieldExtruder,999
;   oozeShieldOffset,2
;   oozeShieldOutlines,1
;   oozeShieldSidewallShape,1
;   oozeShieldSidewallAngle,30
;   oozeShieldSpeedMultiplier,1
;   infillExtruder,0
;   internalInfillPattern,Rectilinear
;   externalInfillPattern,Rectilinear
;   infillPercentage,40
;   outlineOverlapPercentage,15
;   infillExtrusionWidthPercentage,100
;   minInfillLength,5
;   infillLayerInterval,1
;   internalInfillAngles,45,-45
;   overlapInternalInfillAngles,0
;   externalInfillAngles,45,-45
;   generateSupport,0
;   supportExtruder,0
;   supportInfillPercentage,70
;   supportExtraInflation,0
;   supportBaseLayers,0
;   denseSupportExtruder,0
;   denseSupportLayers,0
;   denseSupportInfillPercentage,70
;   supportLayerInterval,1
;   supportHorizontalPartOffset,0.3
;   supportUpperSeparationLayers,1
;   supportLowerSeparationLayers,1
;   supportType,0
;   supportGridSpacing,4
;   maxOverhangAngle,45
;   supportAngles,0
;   temperatureName,Primary Extruder,Heated Bed
;   temperatureNumber,0,0
;   temperatureSetpointCount,1,1
;   temperatureSetpointLayers,1,1
;   temperatureSetpointTemperatures,225,70
;   temperatureStabilizeAtStartup,1,1
;   temperatureHeatedBed,0,1
;   fanLayers,1,2
;   fanSpeeds,0,100
;   blipFanToFullPower,0
;   adjustSpeedForCooling,1
;   minSpeedLayerTime,15
;   minCoolingSpeedSlowdown,20
;   increaseFanForCooling,0
;   minFanLayerTime,45
;   maxCoolingFanSpeed,100
;   increaseFanForBridging,0
;   bridgingFanSpeed,100
;   use5D,1
;   relativeEdistances,0
;   allowEaxisZeroing,1
;   independentExtruderAxes,0
;   includeM10123,0
;   stickySupport,1
;   applyToolheadOffsets,0
;   gcodeXoffset,0
;   gcodeYoffset,0
;   gcodeZoffset,0
;   overrideMachineDefinition,1
;   machineTypeOverride,0
;   strokeXoverride,220
;   strokeYoverride,220
;   strokeZoverride,240
;   originOffsetXoverride,0
;   originOffsetYoverride,0
;   originOffsetZoverride,0
;   homeXdirOverride,-1
;   homeYdirOverride,-1
;   homeZdirOverride,-1
;   flipXoverride,1
;   flipYoverride,-1
;   flipZoverride,1
;   toolheadOffsets,0,0|0,0|0,0|0,0|0,0|0,0
;   overrideFirmwareConfiguration,1
;   firmwareTypeOverride,RepRap (Marlin/Repetier/Sprinter)
;   GPXconfigOverride,r2
;   baudRateOverride,115200
;   overridePrinterModels,1
;   printerModelsOverride
;   startingGcode,M107 ; fan off,G28 ; home all axes,G29 ; run auto bed leveling,M500 ; store level values in EEPROM,G1 X0 Y20 Z0.2 F3000 ; get ready to prime on lower end,; G1 X0 Y190 Z0.2 F3000 ; get ready to prime on high end,G92 E0 ; reset extrusion distance,G1 X200 E10 F600 ; prime nozzle
;   layerChangeGcode,
;   retractionGcode,
;   toolChangeGcode,
;   endingGcode,M104 S0 ; turn off extruder,M140 S0 ; turn off bed,G91 ; use relative coordinates for jogging,G1 Z20 F1000 ; raise Z by 20mm at 1000 mm/min,G90 ; switch back to absolute coordinates,G1 X0 Y200 F1000 ; prepare for part removal,M84 ; disable motors,M107 ; turn off fan
;   exportFileFormat,gcode
;   celebration,0
;   celebrationSong,Random Song
;   postProcessing,
;   defaultSpeed,3200
;   outlineUnderspeed,0.55
;   solidInfillUnderspeed,0.8
;   supportUnderspeed,0.8
;   rapidXYspeed,4800
;   rapidZspeed,1000
;   minBridgingArea,50
;   bridgingExtraInflation,0
;   bridgingExtrusionMultiplier,1
;   bridgingSpeedMultiplier,1
;   useFixedBridgingAngle,0
;   fixedBridgingAngle,0
;   applyBridgingToPerimeters,0
;   filamentDiameters,1.75|1.75|1.75|1.75|1.75|1.75
;   filamentPricesPerKg,23.99|46|46|46|46|46
;   filamentDensities,1.25|1.25|1.25|1.25|1.25|1.25
;   useMinPrintHeight,0
;   minPrintHeight,0
;   useMaxPrintHeight,0
;   maxPrintHeight,0
;   useDiaphragm,0
;   diaphragmLayerInterval,20
;   robustSlicing,1
;   mergeAllIntoSolid,0
;   onlyRetractWhenCrossingOutline,1
;   retractBetweenLayers,1
;   useRetractionMinTravel,0
;   retractionMinTravel,3
;   retractWhileWiping,0
;   onlyWipeOutlines,1
;   avoidCrossingOutline,0
;   maxMovementDetourFactor,3
;   toolChangeRetractionDistance,12
;   toolChangeExtraRestartDistance,-0.5
;   toolChangeRetractionSpeed,600
;   externalThinWallType,0
;   internalThinWallType,2
;   thinWallAllowedOverlapPercentage,10
;   singleExtrusionMinLength,1
;   singleExtrusionMinPrintingWidthPercentage,50
;   singleExtrusionMaxPrintingWidthPercentage,200
;   singleExtrusionEndpointExtension,0.2
;   horizontalSizeCompensation,0
G90
M82
M106 S0
M140 S70
M190 S70
M104 S225 T0
M109 S225 T0
M107 ; fan off
G28 ; home all axes
G29 ; run auto bed leveling
M500 ; store level values in EEPROM
G1 X0 Y20 Z0.2 F3000 ; get ready to prime on lower end
; G1 X0 Y190 Z0.2 F3000 ; get ready to prime on high end
G92 E0 ; reset extrusion distance
G1 X200 E10 F600 ; prime nozzle
; process Calibration Cube
; layer 1, Z = 0.180
T0
G92 E0.0000
G1 E-2.5000 F1800
; feature skirt
; tool H0.180 W0.480
G1 Z0.180 F1000
G1 X43.631 Y39.794 F4800
G1 E-0.7500 F1800
G92 E0.0000
G1 X47.263 Y36.163 E0.1660 F1600
G1 X132.399 Y36.163 E2.9184
G1 X136.031 Y39.794 E3.0845
G1 X136.031 Y81.095 E4.4196
G1 X174.202 Y81.095 E5.6537
G1 X177.834 Y84.726 E5.8197
G1 X177.834 Y169.863 E8.5721
G1 X174.202 Y173.495 E8.7381
G1 X89.065 Y173.495 E11.4905
G1 X85.434 Y169.863 E11.6565
G1 X85.434 Y128.563 E12.9917
G1 X47.263 Y128.563 E14.2257
G1 X43.631 Y124.931 E14.3918
G1 X43.631 Y39.794 E17.1441
G92 E0.0000
G1 E-2.5000 F1800
G1 X44.111 Y39.993 F4800
G1 E-0.7500 F1800
G92 E0.0000
G1 X47.462 Y36.643 E0.1532 F1600
G1 X132.200 Y36.643 E2.8927
G1 X135.551 Y39.993 E3.0459
G1 X135.551 Y81.575 E4.3902
G1 X174.003 Y81.575 E5.6333
G1 X177.354 Y84.925 E5.7865
G1 X177.354 Y169.664 E8.5260
G1 X174.003 Y173.015 E8.6792
G1 X89.264 Y173.015 E11.4187
G1 X85.914 Y169.664 E11.5719
G1 X85.914 Y128.083 E12.9161
G1 X47.462 Y128.083 E14.1592
G1 X44.111 Y124.732 E14.3124
G1 X44.111 Y39.993 E17.0519
G92 E0.0000
G1 E-2.5000 F1800
G1 X44.591 Y40.192 F4800
G1 E-0.7500 F1800
G92 E0.0000
G1 X47.660 Y37.123 E0.1403 F1600
G1 X132.001 Y37.123 E2.8670
G1 X135.071 Y40.192 E3.0073
G1 X135.071 Y82.055 E4.3607
G1 X173.804 Y82.055 E5.6129
G1 X176.874 Y85.124 E5.7532
G1 X176.874 Y169.465 E8.4799
G1 X173.804 Y172.535 E8.6202
G1 X89.463 Y172.535 E11.3469
G1 X86.394 Y169.465 E11.4872
G1 X86.394 Y127.603 E12.8406
G1 X47.660 Y127.603 E14.0928
G1 X44.591 Y124.533 E14.2331
G1 X44.591 Y40.192 E16.9597
G92 E0.0000
G1 E-2.5000 F1800
; feature inner perimeter
G1 X50.551 Y43.083 F4800
G1 E-0.7500 F1800
G92 E0.0000
G1 X129.111 Y43.083 E2.5398 F1240
G1 X129.111 Y82.064 E3.8000
G1 X89.533 Y121.643 E5.6095
G1 X50.551 Y121.643 E6.8697
G1 X50.551 Y43.283 E9.4030
G1 X50.551 Y43.083 F1240
; feature outer perimeter
G1 X50.071 Y42.603 F4800
G92 E0.0000
G1 X129.591 Y42.603 E2.5708 F880
G1 X129.591 Y82.263 E3.8530
G1 X89.731 Y122.123 E5.6753
G1 X50.071 Y122.123 E6.9575
G1 X50.071 Y42.803 E9.5218
G1 X50.071 Y42.603 F880
; feature inner perimeter
G1 X58.846 Y69.035 F4800
G92 E0.0000
G1 X58.429 Y69.189 E0.0144 F1240
G1 X58.035 Y69.395 E0.0288
G1 X57.670 Y69.649 E0.0431
G1 X57.340 Y69.948 E0.0575
G1 X57.052 Y70.287 E0.0719
G1 X56.809 Y70.660 E0.0863
G1 X56.616 Y71.061 E0.1007
G1 X56.475 Y71.490 E0.1153
G1 X56.391 Y71.919 E0.1294
G1 X56.363 Y72.363 E0.1438
G1 X56.391 Y72.807 E0.1582
G1 X56.476 Y73.244 E0.1726
G1 X56.616 Y73.666 E0.1870
G1 X56.809 Y74.067 E0.2013
G1 X57.052 Y74.440 E0.2157
G1 X57.340 Y74.778 E0.2301
G1 X57.670 Y75.077 E0.2445
G1 X58.035 Y75.332 E0.2589
G1 X58.429 Y75.538 E0.2732
G1 X58.846 Y75.691 E0.2876
G1 X59.280 Y75.790 E0.3020
G1 X59.723 Y75.833 E0.3164
G1 X60.168 Y75.819 E0.3308
G1 X60.607 Y75.748 E0.3451
G1 X61.033 Y75.621 E0.3595
G1 X61.440 Y75.441 E0.3739
G1 X61.820 Y75.210 E0.3883
G1 X62.168 Y74.933 E0.4027
G1 X62.478 Y74.614 E0.4171
G1 X62.744 Y74.257 E0.4314
G1 X62.962 Y73.869 E0.4458
G1 X63.129 Y73.457 E0.4602
G1 X63.242 Y73.027 E0.4746
G1 X63.299 Y72.586 E0.4890
G1 X63.299 Y72.141 E0.5033
G1 X63.242 Y71.700 E0.5177
G1 X63.129 Y71.269 E0.5321
G1 X62.962 Y70.857 E0.5465
G1 X62.744 Y70.469 E0.5609
G1 X62.478 Y70.113 E0.5752
G1 X62.168 Y69.793 E0.5896
G1 X61.820 Y69.516 E0.6040
G1 X61.440 Y69.285 E0.6184
G1 X61.033 Y69.105 E0.6328
G1 X60.607 Y68.979 E0.6471
G1 X60.168 Y68.908 E0.6615
G1 X59.723 Y68.894 E0.6759
G1 X59.280 Y68.936 E0.6903
G1 X59.041 Y68.991 E0.6982
G1 X58.846 Y69.035 F1240
; feature outer perimeter
G1 X58.983 Y69.496 F4800
G92 E0.0000
G1 X58.624 Y69.629 E0.0124 F880
G1 X58.284 Y69.806 E0.0248
G1 X57.970 Y70.025 E0.0372
G1 X57.686 Y70.283 E0.0496
G1 X57.438 Y70.575 E0.0619
G1 X57.228 Y70.896 E0.0743
G1 X57.062 Y71.241 E0.0867
G1 X56.940 Y71.611 E0.0993
G1 X56.868 Y71.981 E0.1115
G1 X56.844 Y72.363 E0.1239
G1 X56.868 Y72.746 E0.1363
G1 X56.941 Y73.122 E0.1487
G1 X57.062 Y73.485 E0.1610
G1 X57.228 Y73.831 E0.1734
G1 X57.438 Y74.152 E0.1858
G1 X57.686 Y74.444 E0.1982
G1 X57.970 Y74.701 E0.2106
G1 X58.284 Y74.921 E0.2230
G1 X58.624 Y75.098 E0.2354
G1 X58.983 Y75.230 E0.2478
G1 X59.357 Y75.315 E0.2602
G1 X59.738 Y75.352 E0.2725
G1 X60.121 Y75.340 E0.2849
G1 X60.500 Y75.279 E0.2973
G1 X60.867 Y75.170 E0.3097
G1 X61.217 Y75.015 E0.3221
G1 X61.545 Y74.816 E0.3345
G1 X61.845 Y74.577 E0.3469
G1 X62.111 Y74.302 E0.3593
G1 X62.340 Y73.995 E0.3717
G1 X62.529 Y73.661 E0.3840
G1 X62.672 Y73.306 E0.3964
G1 X62.770 Y72.935 E0.4088
G1 X62.819 Y72.555 E0.4212
G1 X62.819 Y72.172 E0.4336
G1 X62.770 Y71.792 E0.4460
G1 X62.672 Y71.421 E0.4584
G1 X62.529 Y71.066 E0.4708
G1 X62.340 Y70.732 E0.4832
G1 X62.111 Y70.425 E0.4955
G1 X61.845 Y70.149 E0.5079
G1 X61.545 Y69.911 E0.5203
G1 X61.217 Y69.712 E0.5327
G1 X60.867 Y69.557 E0.5451
G1 X60.500 Y69.448 E0.5575
G1 X60.121 Y69.387 E0.5699
G1 X59.738 Y69.374 E0.5823
G1 X59.357 Y69.411 E0.5946
G1 X59.178 Y69.452 E0.6006
G1 X58.983 Y69.496 F880
; feature inner perimeter
G1 X77.053 Y54.439 F4800
G92 E0.0000
G1 X77.342 Y54.778 E0.0144 F1240
G1 X77.671 Y55.077 E0.0288
G1 X78.036 Y55.331 E0.0431
G1 X78.430 Y55.537 E0.0575
G1 X78.848 Y55.691 E0.0719
G1 X79.281 Y55.790 E0.0863
G1 X79.724 Y55.832 E0.1007
G1 X80.169 Y55.818 E0.1150
G1 X80.608 Y55.747 E0.1294
G1 X81.034 Y55.620 E0.1438
G1 X81.441 Y55.440 E0.1582
G1 X81.822 Y55.210 E0.1726
G1 X82.169 Y54.932 E0.1870
G1 X82.479 Y54.613 E0.2013
G1 X82.745 Y54.256 E0.2157
G1 X82.963 Y53.869 E0.2301
G1 X83.130 Y53.457 E0.2445
G1 X83.243 Y53.026 E0.2589
G1 X83.300 Y52.585 E0.2732
G1 X83.300 Y52.140 E0.2876
G1 X83.243 Y51.699 E0.3020
G1 X83.130 Y51.269 E0.3164
G1 X82.963 Y50.856 E0.3308
G1 X82.741 Y50.463 E0.3454
G1 X82.479 Y50.112 E0.3595
G1 X82.169 Y49.793 E0.3739
G1 X81.822 Y49.515 E0.3883
G1 X81.441 Y49.285 E0.4027
G1 X81.034 Y49.105 E0.4170
G1 X80.608 Y48.978 E0.4314
G1 X80.169 Y48.907 E0.4458
G1 X79.724 Y48.893 E0.4602
G1 X79.281 Y48.936 E0.4746
G1 X78.848 Y49.035 E0.4890
G1 X78.430 Y49.188 E0.5033
G1 X78.036 Y49.394 E0.5177
G1 X77.671 Y49.648 E0.5321
G1 X77.342 Y49.948 E0.5465
G1 X77.053 Y50.286 E0.5609
G1 X76.811 Y50.659 E0.5752
G1 X76.618 Y51.060 E0.5896
G1 X76.478 Y51.482 E0.6040
G1 X76.393 Y51.919 E0.6184
G1 X76.364 Y52.363 E0.6328
G1 X76.393 Y52.807 E0.6471
G1 X76.478 Y53.243 E0.6615
G1 X76.618 Y53.665 E0.6759
G1 X76.811 Y54.066 E0.6903
G1 X76.944 Y54.271 E0.6982
G1 X77.053 Y54.439 F1240
; feature outer perimeter
G1 X77.439 Y54.151 F4800
G92 E0.0000
G1 X77.687 Y54.443 E0.0124 F880
G1 X77.971 Y54.701 E0.0248
G1 X78.285 Y54.920 E0.0372
G1 X78.625 Y55.097 E0.0496
G1 X78.985 Y55.229 E0.0619
G1 X79.358 Y55.315 E0.0743
G1 X79.740 Y55.352 E0.0867
G1 X80.123 Y55.339 E0.0991
G1 X80.501 Y55.278 E0.1115
G1 X80.868 Y55.169 E0.1239
G1 X81.219 Y55.014 E0.1363
G1 X81.546 Y54.815 E0.1487
G1 X81.846 Y54.576 E0.1611
G1 X82.113 Y54.301 E0.1734
G1 X82.342 Y53.994 E0.1858
G1 X82.530 Y53.660 E0.1982
G1 X82.674 Y53.305 E0.2106
G1 X82.771 Y52.934 E0.2230
G1 X82.820 Y52.554 E0.2354
G1 X82.820 Y52.171 E0.2478
G1 X82.771 Y51.791 E0.2602
G1 X82.674 Y51.420 E0.2725
G1 X82.530 Y51.065 E0.2849
G1 X82.338 Y50.726 E0.2975
G1 X82.113 Y50.424 E0.3097
G1 X81.846 Y50.149 E0.3221
G1 X81.546 Y49.910 E0.3345
G1 X81.219 Y49.711 E0.3469
G1 X80.868 Y49.556 E0.3593
G1 X80.501 Y49.447 E0.3717
G1 X80.123 Y49.386 E0.3840
G1 X79.740 Y49.374 E0.3964
G1 X79.358 Y49.410 E0.4088
G1 X78.985 Y49.496 E0.4212
G1 X78.625 Y49.628 E0.4336
G1 X78.285 Y49.805 E0.4460
G1 X77.971 Y50.025 E0.4584
G1 X77.687 Y50.282 E0.4708
G1 X77.439 Y50.574 E0.4832
G1 X77.230 Y50.895 E0.4955
G1 X77.064 Y51.240 E0.5079
G1 X76.943 Y51.604 E0.5203
G1 X76.870 Y51.980 E0.5327
G1 X76.845 Y52.363 E0.5451
G1 X76.870 Y52.745 E0.5575
G1 X76.943 Y53.121 E0.5699
G1 X77.064 Y53.485 E0.5823
G1 X77.230 Y53.830 E0.5946
G1 X77.330 Y53.984 E0.6006
G1 X77.439 Y54.151 F880
; feature inner perimeter
G1 X90.247 Y81.742 F4800
G92 E0.0000
G1 X89.974 Y81.868 E0.0097 F1240
G1 X89.727 Y82.040 E0.0195
G1 X89.508 Y82.259 E0.0294
G1 X89.336 Y82.506 E0.0392
G1 X89.211 Y82.777 E0.0488
G1 X89.135 Y83.059 E0.0583
G1 X89.111 Y83.327 E0.0670
G1 X89.111 Y105.836 E0.7947
G1 X89.133 Y106.095 E0.8031
G1 X89.208 Y106.381 E0.8126
G1 X89.323 Y106.638 E0.8217
G1 X89.483 Y106.879 E0.8311
G1 X89.683 Y107.090 E0.8405
G1 X89.914 Y107.265 E0.8499
G1 X90.172 Y107.398 E0.8592
G1 X90.448 Y107.486 E0.8686
G1 X90.735 Y107.526 E0.8780
G1 X91.025 Y107.518 E0.8873
G1 X91.309 Y107.461 E0.8967
G1 X91.572 Y107.361 E0.9058
G1 X91.828 Y107.211 E0.9154
G1 X92.026 Y107.044 E0.9238
G1 X114.512 Y84.557 E1.9518
G1 X114.679 Y84.360 E1.9602
G1 X114.829 Y84.104 E1.9698
G1 X114.929 Y83.841 E1.9789
G1 X114.986 Y83.557 E1.9883
G1 X114.994 Y83.267 E1.9976
G1 X114.954 Y82.980 E2.0070
G1 X114.866 Y82.703 E2.0164
G1 X114.733 Y82.446 E2.0258
G1 X114.558 Y82.214 E2.0351
G1 X114.348 Y82.015 E2.0445
G1 X114.107 Y81.854 E2.0539
G1 X113.849 Y81.739 E2.0630
G1 X113.563 Y81.664 E2.0726
G1 X113.305 Y81.643 E2.0809
G1 X90.800 Y81.643 E2.8085
G1 X90.536 Y81.665 E2.8170
G1 X90.440 Y81.691 E2.8203
G1 X90.247 Y81.742 F1240
; feature outer perimeter
G1 X90.410 Y82.195 F4800
G92 E0.0000
G1 X90.214 Y82.286 E0.0070 F880
G1 X90.036 Y82.410 E0.0140
G1 X89.878 Y82.568 E0.0212
G1 X89.754 Y82.746 E0.0282
G1 X89.664 Y82.942 E0.0352
G1 X89.610 Y83.144 E0.0420
G1 X89.591 Y83.349 E0.0486
G1 X89.591 Y105.816 E0.7750
G1 X89.607 Y106.013 E0.7814
G1 X89.662 Y106.221 E0.7883
G1 X89.744 Y106.406 E0.7948
G1 X89.860 Y106.579 E0.8016
G1 X90.004 Y106.731 E0.8083
G1 X90.171 Y106.857 E0.8151
G1 X90.356 Y106.953 E0.8218
G1 X90.555 Y107.016 E0.8286
G1 X90.762 Y107.045 E0.8354
G1 X90.971 Y107.039 E0.8421
G1 X91.175 Y106.998 E0.8489
G1 X91.364 Y106.926 E0.8554
G1 X91.550 Y106.818 E0.8623
G1 X91.701 Y106.690 E0.8687
G1 X114.158 Y84.232 E1.8955
G1 X114.286 Y84.081 E1.9019
G1 X114.395 Y83.896 E1.9088
G1 X114.467 Y83.707 E1.9154
G1 X114.508 Y83.502 E1.9221
