; G-Code generated by Simplify3D(R) Version 4.1.2
; May 26, 2020 at 3:31:13 PM
; Settings Summary
;   processName,Calibration Cube
;   applyToModels,1_Y_Belt_Block,1_Y_Belt_Tensioner
;   profileName,Anet A8 (modified)
;   profileVersion,2020-05-17 12:50:12
;   baseProfile,
;   printMaterial,PETG
;   printQuality,Medium
;   printExtruders,
;   extruderName,Primary Extruder
;   extruderToolheadNumber,0
;   extruderDiameter,0.4
;   extruderAutoWidth,1
;   extruderWidth,0.48
;   extrusionMultiplier,0.9
;   extruderUseRetract,1
;   extruderRetractionDistance,2.5
;   extruderExtraRestartDistance,-0.75
;   extruderRetractionZLift,0
;   extruderRetractionSpeed,1800
;   extruderUseCoasting,1
;   extruderCoastingDistance,0.2
;   extruderUseWipe,0
;   extruderWipeDistance,5
;   primaryExtruder,0
;   layerHeight,0.2
;   topSolidLayers,3
;   bottomSolidLayers,3
;   perimeterOutlines,2
;   printPerimetersInsideOut,1
;   startPointOption,2
;   startPointOriginX,0
;   startPointOriginY,0
;   sequentialIslands,0
;   spiralVaseMode,0
;   firstLayerHeightPercentage,90
;   firstLayerWidthPercentage,100
;   firstLayerUnderspeed,0.5
;   useRaft,0
;   raftExtruder,0
;   raftTopLayers,3
;   raftBaseLayers,2
;   raftOffset,3
;   raftSeparationDistance,0.14
;   raftTopInfill,100
;   aboveRaftSpeedMultiplier,0.3
;   useSkirt,1
;   skirtExtruder,0
;   skirtLayers,1
;   skirtOutlines,3
;   skirtOffset,5
;   usePrimePillar,0
;   primePillarExtruder,999
;   primePillarWidth,12
;   primePillarLocation,7
;   primePillarSpeedMultiplier,1
;   useOozeShield,0
;   oozeShieldExtruder,999
;   oozeShieldOffset,2
;   oozeShieldOutlines,1
;   oozeShieldSidewallShape,1
;   oozeShieldSidewallAngle,30
;   oozeShieldSpeedMultiplier,1
;   infillExtruder,0
;   internalInfillPattern,Rectilinear
;   externalInfillPattern,Rectilinear
;   infillPercentage,80
;   outlineOverlapPercentage,15
;   infillExtrusionWidthPercentage,100
;   minInfillLength,5
;   infillLayerInterval,1
;   internalInfillAngles,45,-45
;   overlapInternalInfillAngles,0
;   externalInfillAngles,45,-45
;   generateSupport,0
;   supportExtruder,0
;   supportInfillPercentage,70
;   supportExtraInflation,0
;   supportBaseLayers,0
;   denseSupportExtruder,0
;   denseSupportLayers,0
;   denseSupportInfillPercentage,70
;   supportLayerInterval,1
;   supportHorizontalPartOffset,0.3
;   supportUpperSeparationLayers,1
;   supportLowerSeparationLayers,1
;   supportType,0
;   supportGridSpacing,4
;   maxOverhangAngle,45
;   supportAngles,0
;   temperatureName,Primary Extruder,Heated Bed
;   temperatureNumber,0,0
;   temperatureSetpointCount,1,1
;   temperatureSetpointLayers,1,1
;   temperatureSetpointTemperatures,225,70
;   temperatureStabilizeAtStartup,1,1
;   temperatureHeatedBed,0,1
;   fanLayers,1,2
;   fanSpeeds,0,100
;   blipFanToFullPower,0
;   adjustSpeedForCooling,1
;   minSpeedLayerTime,15
;   minCoolingSpeedSlowdown,20
;   increaseFanForCooling,0
;   minFanLayerTime,45
;   maxCoolingFanSpeed,100
;   increaseFanForBridging,0
;   bridgingFanSpeed,100
;   use5D,1
;   relativeEdistances,0
;   allowEaxisZeroing,1
;   independentExtruderAxes,0
;   includeM10123,0
;   stickySupport,1
;   applyToolheadOffsets,0
;   gcodeXoffset,0
;   gcodeYoffset,0
;   gcodeZoffset,0
;   overrideMachineDefinition,1
;   machineTypeOverride,0
;   strokeXoverride,220
;   strokeYoverride,220
;   strokeZoverride,240
;   originOffsetXoverride,0
;   originOffsetYoverride,0
;   originOffsetZoverride,0
;   homeXdirOverride,-1
;   homeYdirOverride,-1
;   homeZdirOverride,-1
;   flipXoverride,1
;   flipYoverride,-1
;   flipZoverride,1
;   toolheadOffsets,0,0|0,0|0,0|0,0|0,0|0,0
;   overrideFirmwareConfiguration,1
;   firmwareTypeOverride,RepRap (Marlin/Repetier/Sprinter)
;   GPXconfigOverride,r2
;   baudRateOverride,115200
;   overridePrinterModels,1
;   printerModelsOverride
;   startingGcode,M107 ; fan off,G28 ; home all axes,G29 ; run auto bed leveling,M500 ; store level values in EEPROM,G1 X0 Y20 Z0.2 F3000 ; get ready to prime on lower end,; G1 X0 Y190 Z0.2 F3000 ; get ready to prime on high end,G92 E0 ; reset extrusion distance,G1 X200 E10 F600 ; prime nozzle
;   layerChangeGcode,
;   retractionGcode,
;   toolChangeGcode,
;   endingGcode,M104 S0 ; turn off extruder,M140 S0 ; turn off bed,G91 ; use relative coordinates for jogging,G1 Z20 F1000 ; raise Z by 20mm at 1000 mm/min,G90 ; switch back to absolute coordinates,G1 X0 Y200 F1000 ; prepare for part removal,M84 ; disable motors,M107 ; turn off fan
;   exportFileFormat,gcode
;   celebration,0
;   celebrationSong,Random Song
;   postProcessing,
;   defaultSpeed,3200
;   outlineUnderspeed,0.55
;   solidInfillUnderspeed,0.8
;   supportUnderspeed,0.8
;   rapidXYspeed,4800
;   rapidZspeed,1000
;   minBridgingArea,50
;   bridgingExtraInflation,0
;   bridgingExtrusionMultiplier,1
;   bridgingSpeedMultiplier,1
;   useFixedBridgingAngle,0
;   fixedBridgingAngle,0
;   applyBridgingToPerimeters,0
;   filamentDiameters,1.75|1.75|1.75|1.75|1.75|1.75
;   filamentPricesPerKg,23.99|46|46|46|46|46
;   filamentDensities,1.25|1.25|1.25|1.25|1.25|1.25
;   useMinPrintHeight,0
;   minPrintHeight,0
;   useMaxPrintHeight,0
;   maxPrintHeight,0
;   useDiaphragm,0
;   diaphragmLayerInterval,20
;   robustSlicing,1
;   mergeAllIntoSolid,0
;   onlyRetractWhenCrossingOutline,1
;   retractBetweenLayers,1
;   useRetractionMinTravel,0
;   retractionMinTravel,3
;   retractWhileWiping,0
;   onlyWipeOutlines,1
;   avoidCrossingOutline,0
;   maxMovementDetourFactor,3
;   toolChangeRetractionDistance,12
;   toolChangeExtraRestartDistance,-0.5
;   toolChangeRetractionSpeed,600
;   externalThinWallType,0
;   internalThinWallType,2
;   thinWallAllowedOverlapPercentage,10
;   singleExtrusionMinLength,1
;   singleExtrusionMinPrintingWidthPercentage,50
;   singleExtrusionMaxPrintingWidthPercentage,200
;   singleExtrusionEndpointExtension,0.2
;   horizontalSizeCompensation,0
G90
M82
M106 S0
M140 S70
M190 S70
M104 S225 T0
M109 S225 T0
M107 ; fan off
G28 ; home all axes
G29 ; run auto bed leveling
M500 ; store level values in EEPROM
G1 X0 Y20 Z0.2 F3000 ; get ready to prime on lower end
; G1 X0 Y190 Z0.2 F3000 ; get ready to prime on high end
G92 E0 ; reset extrusion distance
G1 X200 E10 F600 ; prime nozzle
; process Calibration Cube
; layer 1, Z = 0.180
T0
G92 E0.0000
G1 E-2.5000 F1800
; feature skirt
; tool H0.180 W0.480
G1 Z0.180 F1000
G1 X82.432 Y86.300 F4800
G1 E-0.7500 F1800
G92 E0.0000
G1 X137.568 Y86.300 E1.7825 F1600
G1 X141.200 Y89.932 E1.9485
G1 X141.200 Y115.068 E2.7612
G1 X137.568 Y118.700 E2.9272
G1 X115.914 Y118.700 E3.6273
G1 X116.057 Y119.325 E3.6480
G1 X116.126 Y119.784 E3.6630
G1 X116.191 Y120.652 E3.6911
G1 X116.200 Y120.884 E3.6986
G1 X116.200 Y130.068 E3.9955
G1 X112.568 Y133.700 E4.1616
G1 X82.432 Y133.700 E5.1359
G1 X78.800 Y130.068 E5.3019
G1 X78.800 Y120.884 E5.5988
G1 X78.809 Y120.652 E5.6063
G1 X78.874 Y119.784 E5.6345
G1 X78.943 Y119.325 E5.6495
G1 X79.163 Y118.363 E5.6814
G1 X79.299 Y117.919 E5.6964
G1 X79.681 Y116.946 E5.7302
G1 X79.943 Y116.428 E5.7489
G1 X80.027 Y116.295 E5.7540
G1 X78.800 Y115.068 E5.8101
G1 X78.800 Y89.932 E6.6227
G1 X82.432 Y86.300 E6.7888
G92 E0.0000
G1 E-2.5000 F1800
G1 X82.631 Y86.780 F4800
G1 E-0.7500 F1800
G92 E0.0000
G1 X137.369 Y86.780 E1.7696 F1600
G1 X140.720 Y90.131 E1.9228
G1 X140.720 Y114.869 E2.7226
G1 X137.369 Y118.220 E2.8758
G1 X115.291 Y118.220 E3.5896
G1 X115.373 Y118.487 E3.5986
G1 X115.585 Y119.414 E3.6293
G1 X115.649 Y119.837 E3.6432
G1 X115.712 Y120.679 E3.6705
G1 X115.720 Y120.893 E3.6774
G1 X115.720 Y129.869 E3.9676
G1 X112.369 Y133.220 E4.1208
G1 X82.631 Y133.220 E5.0822
G1 X79.280 Y129.869 E5.2354
G1 X79.280 Y120.893 E5.5256
G1 X79.288 Y120.679 E5.5325
G1 X79.351 Y119.837 E5.5598
G1 X79.415 Y119.414 E5.5736
G1 X79.627 Y118.487 E5.6044
G1 X79.753 Y118.078 E5.6182
G1 X80.120 Y117.143 E5.6507
G1 X80.361 Y116.665 E5.6680
G1 X80.637 Y116.226 E5.6847
G1 X79.280 Y114.869 E5.7468
G1 X79.280 Y90.131 E6.5465
G1 X82.631 Y86.780 E6.6997
G92 E0.0000
G1 E-2.5000 F1800
G1 X82.830 Y87.260 F4800
G1 E-0.7500 F1800
G92 E0.0000
G1 X137.170 Y87.260 E1.7568 F1600
G1 X140.240 Y90.330 E1.8971
G1 X140.240 Y114.670 E2.6840
G1 X137.170 Y117.740 E2.8244
G1 X114.599 Y117.740 E3.5541
G1 X114.794 Y118.237 E3.5713
G1 X114.909 Y118.611 E3.5840
G1 X115.113 Y119.503 E3.6136
G1 X115.172 Y119.891 E3.6263
G1 X115.233 Y120.706 E3.6527
G1 X115.240 Y120.902 E3.6590
G1 X115.240 Y129.670 E3.9425
G1 X112.170 Y132.740 E4.0828
G1 X82.830 Y132.740 E5.0314
G1 X79.760 Y129.670 E5.1717
G1 X79.760 Y120.902 E5.4552
G1 X79.767 Y120.706 E5.4615
G1 X79.828 Y119.891 E5.4880
G1 X79.887 Y119.504 E5.5006
G1 X80.091 Y118.611 E5.5302
G1 X80.206 Y118.236 E5.5429
G1 X80.558 Y117.339 E5.5741
G1 X80.779 Y116.901 E5.5899
G1 X81.247 Y116.157 E5.6183
G1 X79.760 Y114.670 E5.6863
G1 X79.760 Y90.330 E6.4732
G1 X82.830 Y87.260 E6.6136
G92 E0.0000
G1 E-2.5000 F1800
; feature inner perimeter
G1 X85.720 Y93.220 F4800
G1 E-0.7500 F1800
G92 E0.0000
G1 X134.280 Y93.220 E1.5699 F1240
G1 X134.280 Y111.780 E2.1699
G1 X85.720 Y111.780 E3.7398
G1 X85.720 Y93.420 E4.3334
G1 X85.720 Y93.220 F1240
; feature outer perimeter
G1 X85.240 Y92.740 F4800
G92 E0.0000
G1 X134.760 Y92.740 E1.6009 F880
G1 X134.760 Y112.260 E2.2320
G1 X85.240 Y112.260 E3.8329
G1 X85.240 Y92.940 E4.4575
G1 X85.240 Y92.740 F880
; feature inner perimeter
G1 X89.355 Y99.444 F4800
G92 E0.0000
G1 X89.088 Y99.603 E0.0101 F1240
G1 X88.836 Y99.786 E0.0201
G1 X88.601 Y99.991 E0.0302
G1 X88.386 Y100.216 E0.0403
G1 X88.192 Y100.460 E0.0503
G1 X88.021 Y100.720 E0.0604
G1 X87.873 Y100.994 E0.0705
G1 X87.751 Y101.280 E0.0805
G1 X87.654 Y101.577 E0.0906
G1 X87.584 Y101.885 E0.1008
G1 X87.543 Y102.189 E0.1107
G1 X87.529 Y102.500 E0.1208
G1 X87.543 Y102.811 E0.1309
G1 X87.585 Y103.120 E0.1410
G1 X87.654 Y103.423 E0.1510
G1 X87.751 Y103.720 E0.1611
G1 X87.873 Y104.006 E0.1712
G1 X88.021 Y104.280 E0.1812
G1 X88.192 Y104.540 E0.1913
G1 X88.386 Y104.784 E0.2014
G1 X88.601 Y105.009 E0.2114
G1 X88.836 Y105.214 E0.2215
G1 X89.088 Y105.397 E0.2316
G1 X89.355 Y105.556 E0.2416
G1 X89.636 Y105.691 E0.2517
G1 X89.927 Y105.801 E0.2618
G1 X90.228 Y105.884 E0.2718
G1 X90.534 Y105.939 E0.2819
G1 X90.844 Y105.967 E0.2920
G1 X91.156 Y105.967 E0.3020
G1 X91.466 Y105.939 E0.3121
G1 X91.772 Y105.884 E0.3222
G1 X92.073 Y105.801 E0.3322
G1 X92.364 Y105.691 E0.3423
G1 X92.645 Y105.556 E0.3524
G1 X92.912 Y105.397 E0.3625
G1 X93.164 Y105.214 E0.3725
G1 X93.399 Y105.009 E0.3826
G1 X93.614 Y104.784 E0.3927
G1 X93.808 Y104.540 E0.4027
G1 X93.979 Y104.280 E0.4128
G1 X94.127 Y104.006 E0.4229
G1 X94.249 Y103.720 E0.4329
G1 X94.346 Y103.423 E0.4430
G1 X94.415 Y103.120 E0.4531
G1 X94.457 Y102.811 E0.4631
G1 X94.471 Y102.500 E0.4732
G1 X94.457 Y102.189 E0.4833
G1 X94.415 Y101.880 E0.4933
G1 X94.346 Y101.577 E0.5034
G1 X94.249 Y101.280 E0.5135
G1 X94.127 Y100.994 E0.5235
G1 X93.979 Y100.720 E0.5336
G1 X93.808 Y100.460 E0.5437
G1 X93.614 Y100.216 E0.5537
G1 X93.399 Y99.991 E0.5638
G1 X93.164 Y99.786 E0.5739
G1 X92.912 Y99.603 E0.5839
G1 X92.645 Y99.444 E0.5940
G1 X92.364 Y99.309 E0.6041
G1 X92.073 Y99.199 E0.6142
G1 X91.772 Y99.116 E0.6242
G1 X91.466 Y99.061 E0.6343
G1 X91.156 Y99.033 E0.6444
G1 X90.844 Y99.033 E0.6544
G1 X90.534 Y99.061 E0.6645
G1 X90.228 Y99.116 E0.6746
G1 X89.927 Y99.199 E0.6846
G1 X89.636 Y99.309 E0.6947
G1 X89.536 Y99.357 E0.6983
G1 X89.355 Y99.444 F1240
; feature outer perimeter
G1 X89.583 Y99.867 F4800
G92 E0.0000
G1 X89.353 Y100.004 E0.0087 F880
G1 X89.136 Y100.162 E0.0173
G1 X88.934 Y100.339 E0.0260
G1 X88.748 Y100.533 E0.0347
G1 X88.581 Y100.742 E0.0434
G1 X88.433 Y100.966 E0.0520
G1 X88.306 Y101.203 E0.0607
G1 X88.200 Y101.449 E0.0694
G1 X88.117 Y101.705 E0.0781
G1 X88.057 Y101.971 E0.0869
G1 X88.022 Y102.232 E0.0954
G1 X88.010 Y102.500 E0.1041
G1 X88.022 Y102.768 E0.1128
G1 X88.058 Y103.034 E0.1214
G1 X88.118 Y103.296 E0.1301
G1 X88.200 Y103.551 E0.1388
G1 X88.306 Y103.797 E0.1475
G1 X88.433 Y104.034 E0.1561
G1 X88.581 Y104.258 E0.1648
G1 X88.748 Y104.467 E0.1735
G1 X88.934 Y104.661 E0.1822
G1 X89.136 Y104.838 E0.1908
G1 X89.353 Y104.996 E0.1995
G1 X89.583 Y105.133 E0.2082
G1 X89.825 Y105.250 E0.2169
G1 X90.076 Y105.344 E0.2255
G1 X90.335 Y105.415 E0.2342
G1 X90.599 Y105.463 E0.2429
G1 X90.866 Y105.487 E0.2516
G1 X91.134 Y105.487 E0.2602
G1 X91.401 Y105.463 E0.2689
G1 X91.665 Y105.415 E0.2776
G1 X91.924 Y105.344 E0.2863
G1 X92.175 Y105.250 E0.2949
G1 X92.417 Y105.133 E0.3036
G1 X92.647 Y104.996 E0.3123
G1 X92.864 Y104.838 E0.3209
G1 X93.066 Y104.661 E0.3296
G1 X93.252 Y104.467 E0.3383
G1 X93.419 Y104.258 E0.3470
G1 X93.567 Y104.034 E0.3556
G1 X93.694 Y103.797 E0.3643
G1 X93.800 Y103.551 E0.3730
G1 X93.882 Y103.296 E0.3817
G1 X93.942 Y103.034 E0.3903
G1 X93.978 Y102.768 E0.3990
G1 X93.990 Y102.500 E0.4077
G1 X93.978 Y102.232 E0.4164
G1 X93.942 Y101.966 E0.4250
G1 X93.882 Y101.704 E0.4337
G1 X93.800 Y101.449 E0.4424
G1 X93.694 Y101.203 E0.4511
G1 X93.567 Y100.966 E0.4597
G1 X93.419 Y100.742 E0.4684
G1 X93.252 Y100.533 E0.4771
G1 X93.066 Y100.339 E0.4858
G1 X92.864 Y100.162 E0.4944
G1 X92.647 Y100.004 E0.5031
G1 X92.417 Y99.867 E0.5118
G1 X92.175 Y99.750 E0.5205
G1 X91.924 Y99.656 E0.5291
G1 X91.665 Y99.585 E0.5378
G1 X91.401 Y99.537 E0.5465
G1 X91.134 Y99.513 E0.5552
G1 X90.866 Y99.513 E0.5638
G1 X90.599 Y99.537 E0.5725
G1 X90.335 Y99.585 E0.5812
G1 X90.076 Y99.656 E0.5898
G1 X89.825 Y99.750 E0.5985
G1 X89.763 Y99.780 E0.6007
G1 X89.583 Y99.867 F880
G92 E0.0000
G1 E-2.5000 F1800
; feature inner perimeter
G1 X125.543 Y102.189 F4800
G1 E-0.7500 F1800
G92 E0.0000
G1 X125.529 Y102.500 E0.0101 F1240
G1 X125.543 Y102.811 E0.0201
G1 X125.585 Y103.120 E0.0302
G1 X125.654 Y103.423 E0.0403
G1 X125.751 Y103.720 E0.0503
G1 X125.873 Y104.006 E0.0604
G1 X126.021 Y104.280 E0.0705
G1 X126.192 Y104.540 E0.0805
G1 X126.386 Y104.784 E0.0906
G1 X126.601 Y105.009 E0.1007
G1 X126.836 Y105.214 E0.1107
G1 X127.088 Y105.397 E0.1208
G1 X127.355 Y105.556 E0.1309
G1 X127.636 Y105.691 E0.1410
G1 X127.928 Y105.801 E0.1510
G1 X128.228 Y105.884 E0.1611
G1 X128.534 Y105.939 E0.1712
G1 X128.844 Y105.967 E0.1812
G1 X129.156 Y105.967 E0.1913
G1 X129.466 Y105.939 E0.2014
G1 X129.772 Y105.884 E0.2114
G1 X130.072 Y105.801 E0.2215
G1 X130.364 Y105.691 E0.2316
G1 X130.645 Y105.556 E0.2416
G1 X130.912 Y105.397 E0.2517
G1 X131.164 Y105.214 E0.2618
G1 X131.398 Y105.009 E0.2718
G1 X131.614 Y104.783 E0.2819
G1 X131.808 Y104.540 E0.2920
G1 X131.979 Y104.280 E0.3020
G1 X132.127 Y104.006 E0.3121
G1 X132.249 Y103.719 E0.3222
G1 X132.346 Y103.423 E0.3322
G1 X132.415 Y103.120 E0.3423
G1 X132.457 Y102.811 E0.3524
G1 X132.471 Y102.500 E0.3624
G1 X132.457 Y102.189 E0.3725
G1 X132.415 Y101.880 E0.3826
G1 X132.346 Y101.577 E0.3927
G1 X132.249 Y101.281 E0.4027
G1 X132.127 Y100.994 E0.4128
G1 X131.979 Y100.720 E0.4229
G1 X131.808 Y100.460 E0.4329
G1 X131.614 Y100.217 E0.4430
G1 X131.398 Y99.991 E0.4531
G1 X131.164 Y99.786 E0.4631
G1 X130.912 Y99.603 E0.4732
G1 X130.645 Y99.444 E0.4833
G1 X130.364 Y99.309 E0.4933
G1 X130.072 Y99.199 E0.5034
G1 X129.772 Y99.116 E0.5135
G1 X129.466 Y99.061 E0.5235
G1 X129.156 Y99.033 E0.5336
G1 X128.844 Y99.033 E0.5437
G1 X128.534 Y99.061 E0.5537
G1 X128.228 Y99.116 E0.5638
G1 X127.928 Y99.199 E0.5739
G1 X127.636 Y99.309 E0.5839
G1 X127.355 Y99.444 E0.5940
G1 X127.088 Y99.603 E0.6041
G1 X126.836 Y99.786 E0.6141
G1 X126.601 Y99.991 E0.6242
G1 X126.386 Y100.216 E0.6343
G1 X126.192 Y100.460 E0.6444
G1 X126.021 Y100.720 E0.6544
G1 X125.873 Y100.994 E0.6645
G1 X125.751 Y101.280 E0.6746
G1 X125.654 Y101.577 E0.6846
G1 X125.584 Y101.885 E0.6949
G1 X125.570 Y101.991 E0.6983
G1 X125.543 Y102.189 F1240
; feature outer perimeter
G1 X126.022 Y102.232 F4800
G92 E0.0000
G1 X126.010 Y102.500 E0.0087 F880
G1 X126.022 Y102.768 E0.0173
G1 X126.058 Y103.034 E0.0260
G1 X126.118 Y103.296 E0.0347
G1 X126.200 Y103.551 E0.0434
G1 X126.306 Y103.797 E0.0520
G1 X126.433 Y104.034 E0.0607
G1 X126.581 Y104.258 E0.0694
G1 X126.748 Y104.467 E0.0781
G1 X126.934 Y104.661 E0.0867
G1 X127.136 Y104.838 E0.0954
G1 X127.353 Y104.996 E0.1041
G1 X127.583 Y105.133 E0.1128
G1 X127.825 Y105.250 E0.1214
G1 X128.076 Y105.344 E0.1301
