; G-Code generated by Simplify3D(R) Version 4.1.2
; May 26, 2020 at 3:35:49 PM
; Settings Summary
;   processName,Calibration Cube
;   applyToModels,1_Y_Motor_Mount
;   profileName,Anet A8 (modified)
;   profileVersion,2020-05-17 12:50:12
;   baseProfile,
;   printMaterial,PETG
;   printQuality,Medium
;   printExtruders,
;   extruderName,Primary Extruder
;   extruderToolheadNumber,0
;   extruderDiameter,0.4
;   extruderAutoWidth,1
;   extruderWidth,0.48
;   extrusionMultiplier,0.9
;   extruderUseRetract,1
;   extruderRetractionDistance,2.5
;   extruderExtraRestartDistance,-0.75
;   extruderRetractionZLift,0
;   extruderRetractionSpeed,1800
;   extruderUseCoasting,1
;   extruderCoastingDistance,0.2
;   extruderUseWipe,0
;   extruderWipeDistance,5
;   primaryExtruder,0
;   layerHeight,0.2
;   topSolidLayers,3
;   bottomSolidLayers,3
;   perimeterOutlines,2
;   printPerimetersInsideOut,1
;   startPointOption,2
;   startPointOriginX,0
;   startPointOriginY,0
;   sequentialIslands,0
;   spiralVaseMode,0
;   firstLayerHeightPercentage,90
;   firstLayerWidthPercentage,100
;   firstLayerUnderspeed,0.5
;   useRaft,0
;   raftExtruder,0
;   raftTopLayers,3
;   raftBaseLayers,2
;   raftOffset,3
;   raftSeparationDistance,0.14
;   raftTopInfill,100
;   aboveRaftSpeedMultiplier,0.3
;   useSkirt,1
;   skirtExtruder,0
;   skirtLayers,1
;   skirtOutlines,3
;   skirtOffset,5
;   usePrimePillar,0
;   primePillarExtruder,999
;   primePillarWidth,12
;   primePillarLocation,7
;   primePillarSpeedMultiplier,1
;   useOozeShield,0
;   oozeShieldExtruder,999
;   oozeShieldOffset,2
;   oozeShieldOutlines,1
;   oozeShieldSidewallShape,1
;   oozeShieldSidewallAngle,30
;   oozeShieldSpeedMultiplier,1
;   infillExtruder,0
;   internalInfillPattern,Rectilinear
;   externalInfillPattern,Rectilinear
;   infillPercentage,50
;   outlineOverlapPercentage,15
;   infillExtrusionWidthPercentage,100
;   minInfillLength,5
;   infillLayerInterval,1
;   internalInfillAngles,45,-45
;   overlapInternalInfillAngles,0
;   externalInfillAngles,45,-45
;   generateSupport,0
;   supportExtruder,0
;   supportInfillPercentage,70
;   supportExtraInflation,0
;   supportBaseLayers,0
;   denseSupportExtruder,0
;   denseSupportLayers,0
;   denseSupportInfillPercentage,70
;   supportLayerInterval,1
;   supportHorizontalPartOffset,0.3
;   supportUpperSeparationLayers,1
;   supportLowerSeparationLayers,1
;   supportType,0
;   supportGridSpacing,4
;   maxOverhangAngle,45
;   supportAngles,0
;   temperatureName,Primary Extruder,Heated Bed
;   temperatureNumber,0,0
;   temperatureSetpointCount,1,1
;   temperatureSetpointLayers,1,1
;   temperatureSetpointTemperatures,225,70
;   temperatureStabilizeAtStartup,1,1
;   temperatureHeatedBed,0,1
;   fanLayers,1,2
;   fanSpeeds,0,100
;   blipFanToFullPower,0
;   adjustSpeedForCooling,1
;   minSpeedLayerTime,15
;   minCoolingSpeedSlowdown,20
;   increaseFanForCooling,0
;   minFanLayerTime,45
;   maxCoolingFanSpeed,100
;   increaseFanForBridging,0
;   bridgingFanSpeed,100
;   use5D,1
;   relativeEdistances,0
;   allowEaxisZeroing,1
;   independentExtruderAxes,0
;   includeM10123,0
;   stickySupport,1
;   applyToolheadOffsets,0
;   gcodeXoffset,0
;   gcodeYoffset,0
;   gcodeZoffset,0
;   overrideMachineDefinition,1
;   machineTypeOverride,0
;   strokeXoverride,220
;   strokeYoverride,220
;   strokeZoverride,240
;   originOffsetXoverride,0
;   originOffsetYoverride,0
;   originOffsetZoverride,0
;   homeXdirOverride,-1
;   homeYdirOverride,-1
;   homeZdirOverride,-1
;   flipXoverride,1
;   flipYoverride,-1
;   flipZoverride,1
;   toolheadOffsets,0,0|0,0|0,0|0,0|0,0|0,0
;   overrideFirmwareConfiguration,1
;   firmwareTypeOverride,RepRap (Marlin/Repetier/Sprinter)
;   GPXconfigOverride,r2
;   baudRateOverride,115200
;   overridePrinterModels,1
;   printerModelsOverride
;   startingGcode,M107 ; fan off,G28 ; home all axes,G29 ; run auto bed leveling,M500 ; store level values in EEPROM,G1 X0 Y20 Z0.2 F3000 ; get ready to prime on lower end,; G1 X0 Y190 Z0.2 F3000 ; get ready to prime on high end,G92 E0 ; reset extrusion distance,G1 X200 E10 F600 ; prime nozzle
;   layerChangeGcode,
;   retractionGcode,
;   toolChangeGcode,
;   endingGcode,M104 S0 ; turn off extruder,M140 S0 ; turn off bed,G91 ; use relative coordinates for jogging,G1 Z20 F1000 ; raise Z by 20mm at 1000 mm/min,G90 ; switch back to absolute coordinates,G1 X0 Y200 F1000 ; prepare for part removal,M84 ; disable motors,M107 ; turn off fan
;   exportFileFormat,gcode
;   celebration,0
;   celebrationSong,Random Song
;   postProcessing,
;   defaultSpeed,3200
;   outlineUnderspeed,0.55
;   solidInfillUnderspeed,0.8
;   supportUnderspeed,0.8
;   rapidXYspeed,4800
;   rapidZspeed,1000
;   minBridgingArea,50
;   bridgingExtraInflation,0
;   bridgingExtrusionMultiplier,1
;   bridgingSpeedMultiplier,1
;   useFixedBridgingAngle,0
;   fixedBridgingAngle,0
;   applyBridgingToPerimeters,0
;   filamentDiameters,1.75|1.75|1.75|1.75|1.75|1.75
;   filamentPricesPerKg,23.99|46|46|46|46|46
;   filamentDensities,1.25|1.25|1.25|1.25|1.25|1.25
;   useMinPrintHeight,0
;   minPrintHeight,0
;   useMaxPrintHeight,0
;   maxPrintHeight,0
;   useDiaphragm,0
;   diaphragmLayerInterval,20
;   robustSlicing,1
;   mergeAllIntoSolid,0
;   onlyRetractWhenCrossingOutline,1
;   retractBetweenLayers,1
;   useRetractionMinTravel,0
;   retractionMinTravel,3
;   retractWhileWiping,0
;   onlyWipeOutlines,1
;   avoidCrossingOutline,0
;   maxMovementDetourFactor,3
;   toolChangeRetractionDistance,12
;   toolChangeExtraRestartDistance,-0.5
;   toolChangeRetractionSpeed,600
;   externalThinWallType,0
;   internalThinWallType,2
;   thinWallAllowedOverlapPercentage,10
;   singleExtrusionMinLength,1
;   singleExtrusionMinPrintingWidthPercentage,50
;   singleExtrusionMaxPrintingWidthPercentage,200
;   singleExtrusionEndpointExtension,0.2
;   horizontalSizeCompensation,0
G90
M82
M106 S0
M140 S70
M190 S70
M104 S225 T0
M109 S225 T0
M107 ; fan off
G28 ; home all axes
G29 ; run auto bed leveling
M500 ; store level values in EEPROM
G1 X0 Y20 Z0.2 F3000 ; get ready to prime on lower end
; G1 X0 Y190 Z0.2 F3000 ; get ready to prime on high end
G92 E0 ; reset extrusion distance
G1 X200 E10 F600 ; prime nozzle
; process Calibration Cube
; layer 1, Z = 0.180
T0
G92 E0.0000
G1 E-2.5000 F1800
; feature skirt
; tool H0.180 W0.480
G1 Z0.180 F1000
G1 X75.700 Y72.607 F4800
G1 E-0.7500 F1800
G92 E0.0000
G1 X79.332 Y68.975 E0.1660 F1600
G1 X140.668 Y68.975 E2.1490
G1 X144.300 Y72.607 E2.3150
G1 X144.300 Y117.743 E3.7742
G1 X140.668 Y121.375 E3.9403
G1 X140.318 Y121.375 E3.9516
G1 X111.612 Y150.081 E5.2640
G1 X109.333 Y151.025 E5.3438
G1 X99.332 Y151.025 E5.6671
G1 X95.700 Y147.393 E5.8332
G1 X95.700 Y121.375 E6.6743
G1 X79.332 Y121.375 E7.2035
G1 X75.700 Y117.743 E7.3695
G1 X75.700 Y72.607 E8.8287
G92 E0.0000
G1 E-2.5000 F1800
G1 X76.180 Y72.806 F4800
G1 E-0.7500 F1800
G92 E0.0000
G1 X79.531 Y69.455 E0.1532 F1600
G1 X140.469 Y69.455 E2.1233
G1 X143.820 Y72.806 E2.2765
G1 X143.820 Y117.544 E3.7228
G1 X140.469 Y120.895 E3.8760
G1 X140.119 Y120.895 E3.8873
G1 X111.340 Y149.674 E5.2031
G1 X109.238 Y150.545 E5.2767
G1 X99.531 Y150.545 E5.5905
G1 X96.180 Y147.194 E5.7437
G1 X96.180 Y120.895 E6.5939
G1 X79.531 Y120.895 E7.1322
G1 X76.180 Y117.544 E7.2854
G1 X76.180 Y72.806 E8.7317
G92 E0.0000
G1 E-2.5000 F1800
G1 X76.660 Y73.005 F4800
G1 E-0.7500 F1800
G92 E0.0000
G1 X79.730 Y69.935 E0.1403 F1600
G1 X140.270 Y69.935 E2.0976
G1 X143.340 Y73.005 E2.2379
G1 X143.340 Y117.345 E3.6714
G1 X140.270 Y120.415 E3.8117
G1 X139.920 Y120.415 E3.8230
G1 X111.068 Y149.267 E5.1422
G1 X109.142 Y150.065 E5.2096
G1 X99.730 Y150.065 E5.5139
G1 X96.660 Y146.995 E5.6542
G1 X96.660 Y120.415 E6.5135
G1 X79.730 Y120.415 E7.0609
G1 X76.660 Y117.345 E7.2012
G1 X76.660 Y73.005 E8.6347
G92 E0.0000
G1 E-2.5000 F1800
; feature inner perimeter
G1 X82.620 Y75.895 F4800
G1 E-0.7500 F1800
G92 E0.0000
G1 X137.380 Y75.895 E1.7703 F1240
G1 X137.380 Y114.527 E3.0192
G1 X107.802 Y144.105 E4.3716
G1 X102.620 Y144.105 E4.5391
G1 X102.620 Y114.455 E5.4976
G1 X82.620 Y114.455 E6.1442
G1 X82.620 Y76.095 E7.3843
G1 X82.620 Y75.895 F1240
; feature outer perimeter
G1 X82.140 Y75.415 F4800
G92 E0.0000
G1 X137.860 Y75.415 E1.8014 F880
G1 X137.860 Y114.935 E3.0790
G1 X137.651 Y114.935 E3.0858
G1 X108.001 Y144.585 E4.4414
G1 X102.140 Y144.585 E4.6308
G1 X102.140 Y114.935 E5.5894
G1 X82.140 Y114.935 E6.2360
G1 X82.140 Y75.615 E7.5071
G1 X82.140 Y75.415 F880
; feature inner perimeter
G1 X89.302 Y82.873 F4800
G92 E0.0000
G1 X89.043 Y83.203 E0.0136 F1240
G1 X88.826 Y83.562 E0.0271
G1 X88.654 Y83.944 E0.0407
G1 X88.530 Y84.344 E0.0542
G1 X88.454 Y84.757 E0.0678
G1 X88.429 Y85.175 E0.0813
G1 X88.454 Y85.593 E0.0949
G1 X88.530 Y86.006 E0.1084
G1 X88.654 Y86.406 E0.1220
G1 X88.826 Y86.788 E0.1355
G1 X89.043 Y87.147 E0.1491
G1 X89.302 Y87.477 E0.1626
G1 X89.598 Y87.773 E0.1762
G1 X89.928 Y88.032 E0.1897
G1 X90.287 Y88.249 E0.2033
G1 X90.669 Y88.421 E0.2168
G1 X91.069 Y88.545 E0.2304
G1 X91.482 Y88.621 E0.2439
G1 X91.901 Y88.646 E0.2575
G1 X92.325 Y88.620 E0.2713
G1 X92.731 Y88.545 E0.2846
G1 X93.131 Y88.421 E0.2981
G1 X93.513 Y88.249 E0.3117
G1 X93.872 Y88.032 E0.3252
G1 X94.202 Y87.773 E0.3388
G1 X94.498 Y87.477 E0.3523
G1 X94.757 Y87.147 E0.3659
G1 X94.974 Y86.788 E0.3794
G1 X95.146 Y86.406 E0.3930
G1 X95.270 Y86.006 E0.4066
G1 X95.346 Y85.593 E0.4201
G1 X95.371 Y85.175 E0.4337
G1 X95.346 Y84.757 E0.4472
G1 X95.270 Y84.344 E0.4608
G1 X95.146 Y83.944 E0.4743
G1 X94.974 Y83.562 E0.4879
G1 X94.757 Y83.203 E0.5014
G1 X94.498 Y82.873 E0.5150
G1 X94.202 Y82.577 E0.5285
G1 X93.872 Y82.318 E0.5421
G1 X93.513 Y82.101 E0.5556
G1 X93.131 Y81.929 E0.5692
G1 X92.731 Y81.805 E0.5827
G1 X92.318 Y81.729 E0.5963
G1 X91.900 Y81.704 E0.6098
G1 X91.482 Y81.729 E0.6234
G1 X91.069 Y81.805 E0.6369
G1 X90.669 Y81.929 E0.6505
G1 X90.287 Y82.101 E0.6640
G1 X89.928 Y82.318 E0.6776
G1 X89.598 Y82.577 E0.6911
G1 X89.443 Y82.732 E0.6982
G1 X89.302 Y82.873 F1240
; feature outer perimeter
G1 X89.662 Y83.192 F4800
G92 E0.0000
G1 X89.439 Y83.476 E0.0117 F880
G1 X89.252 Y83.785 E0.0233
G1 X89.104 Y84.115 E0.0350
G1 X88.996 Y84.459 E0.0467
G1 X88.931 Y84.815 E0.0584
G1 X88.910 Y85.175 E0.0700
G1 X88.931 Y85.535 E0.0817
G1 X88.996 Y85.891 E0.0934
G1 X89.104 Y86.235 E0.1051
G1 X89.252 Y86.565 E0.1167
G1 X89.439 Y86.874 E0.1284
G1 X89.662 Y87.158 E0.1401
G1 X89.917 Y87.413 E0.1518
G1 X90.201 Y87.636 E0.1634
G1 X90.510 Y87.823 E0.1751
G1 X90.840 Y87.971 E0.1868
G1 X91.184 Y88.079 E0.1985
G1 X91.540 Y88.144 E0.2101
G1 X91.900 Y88.165 E0.2218
G1 X92.267 Y88.143 E0.2337
G1 X92.616 Y88.079 E0.2452
G1 X92.960 Y87.971 E0.2568
G1 X93.290 Y87.823 E0.2685
G1 X93.599 Y87.636 E0.2802
G1 X93.883 Y87.413 E0.2919
G1 X94.138 Y87.158 E0.3035
G1 X94.361 Y86.874 E0.3152
G1 X94.548 Y86.565 E0.3269
G1 X94.696 Y86.235 E0.3386
G1 X94.804 Y85.891 E0.3502
G1 X94.869 Y85.535 E0.3619
G1 X94.890 Y85.175 E0.3736
G1 X94.869 Y84.815 E0.3853
G1 X94.804 Y84.459 E0.3969
G1 X94.696 Y84.115 E0.4086
G1 X94.548 Y83.785 E0.4203
G1 X94.361 Y83.476 E0.4320
G1 X94.138 Y83.192 E0.4436
G1 X93.883 Y82.937 E0.4553
G1 X93.599 Y82.714 E0.4670
G1 X93.290 Y82.527 E0.4787
G1 X92.960 Y82.379 E0.4903
G1 X92.616 Y82.271 E0.5020
G1 X92.260 Y82.206 E0.5137
G1 X91.900 Y82.185 E0.5254
G1 X91.540 Y82.206 E0.5370
G1 X91.184 Y82.271 E0.5487
G1 X90.840 Y82.379 E0.5604
G1 X90.510 Y82.527 E0.5720
G1 X90.201 Y82.714 E0.5837
G1 X89.917 Y82.937 E0.5954
G1 X89.803 Y83.051 E0.6006
G1 X89.662 Y83.192 F880
G92 E0.0000
G1 E-2.5000 F1800
; feature inner perimeter
G1 X124.629 Y85.175 F4800
G1 E-0.7500 F1800
G92 E0.0000
G1 X124.654 Y85.593 E0.0136 F1240
G1 X124.730 Y86.006 E0.0271
G1 X124.854 Y86.406 E0.0407
G1 X125.026 Y86.788 E0.0542
G1 X125.243 Y87.147 E0.0678
G1 X125.502 Y87.477 E0.0813
G1 X125.798 Y87.773 E0.0949
G1 X126.128 Y88.032 E0.1084
G1 X126.487 Y88.249 E0.1220
G1 X126.869 Y88.421 E0.1355
G1 X127.269 Y88.545 E0.1491
G1 X127.682 Y88.621 E0.1626
G1 X128.101 Y88.646 E0.1762
G1 X128.525 Y88.620 E0.1899
G1 X128.931 Y88.545 E0.2033
G1 X129.331 Y88.421 E0.2168
G1 X129.713 Y88.249 E0.2304
G1 X130.072 Y88.032 E0.2439
G1 X130.402 Y87.773 E0.2575
G1 X130.698 Y87.477 E0.2710
G1 X130.957 Y87.147 E0.2846
G1 X131.174 Y86.788 E0.2981
G1 X131.346 Y86.406 E0.3117
G1 X131.470 Y86.006 E0.3252
G1 X131.546 Y85.593 E0.3388
G1 X131.571 Y85.175 E0.3523
G1 X131.546 Y84.757 E0.3659
G1 X131.470 Y84.344 E0.3794
G1 X131.346 Y83.944 E0.3930
G1 X131.174 Y83.562 E0.4066
G1 X130.957 Y83.203 E0.4201
G1 X130.698 Y82.873 E0.4337
G1 X130.402 Y82.577 E0.4472
G1 X130.072 Y82.318 E0.4608
G1 X129.713 Y82.101 E0.4743
G1 X129.331 Y81.929 E0.4879
G1 X128.931 Y81.805 E0.5014
G1 X128.518 Y81.729 E0.5150
G1 X128.100 Y81.704 E0.5285
G1 X127.682 Y81.729 E0.5421
G1 X127.269 Y81.805 E0.5556
G1 X126.869 Y81.929 E0.5692
G1 X126.487 Y82.101 E0.5827
G1 X126.128 Y82.318 E0.5963
G1 X125.798 Y82.577 E0.6098
G1 X125.502 Y82.873 E0.6234
G1 X125.243 Y83.203 E0.6369
G1 X125.026 Y83.562 E0.6505
G1 X124.854 Y83.944 E0.6640
G1 X124.730 Y84.344 E0.6776
G1 X124.654 Y84.757 E0.6911
G1 X124.641 Y84.975 E0.6982
G1 X124.629 Y85.175 F1240
; feature outer perimeter
G1 X125.110 Y85.175 F4800
G92 E0.0000
G1 X125.131 Y85.535 E0.0117 F880
G1 X125.196 Y85.891 E0.0233
G1 X125.304 Y86.235 E0.0350
G1 X125.452 Y86.565 E0.0467
G1 X125.639 Y86.874 E0.0584
G1 X125.862 Y87.158 E0.0700
G1 X126.117 Y87.413 E0.0817
G1 X126.401 Y87.636 E0.0934
G1 X126.710 Y87.823 E0.1051
G1 X127.040 Y87.971 E0.1167
G1 X127.384 Y88.079 E0.1284
G1 X127.740 Y88.144 E0.1401
G1 X128.100 Y88.165 E0.1518
G1 X128.467 Y88.143 E0.1636
G1 X128.816 Y88.079 E0.1751
G1 X129.160 Y87.971 E0.1868
G1 X129.490 Y87.823 E0.1985
G1 X129.799 Y87.636 E0.2101
G1 X130.083 Y87.413 E0.2218
G1 X130.338 Y87.158 E0.2335
G1 X130.561 Y86.874 E0.2452
G1 X130.748 Y86.565 E0.2568
G1 X130.896 Y86.235 E0.2685
G1 X131.004 Y85.891 E0.2802
G1 X131.069 Y85.535 E0.2919
G1 X131.090 Y85.175 E0.3035
G1 X131.069 Y84.815 E0.3152
G1 X131.004 Y84.459 E0.3269
G1 X130.896 Y84.115 E0.3386
G1 X130.748 Y83.785 E0.3502
G1 X130.561 Y83.476 E0.3619
G1 X130.338 Y83.192 E0.3736
G1 X130.083 Y82.937 E0.3853
G1 X129.799 Y82.714 E0.3969
G1 X129.490 Y82.527 E0.4086
G1 X129.160 Y82.379 E0.4203
G1 X128.816 Y82.271 E0.4320
G1 X128.460 Y82.206 E0.4436
G1 X128.100 Y82.185 E0.4553
G1 X127.740 Y82.206 E0.4670
G1 X127.384 Y82.271 E0.4787
G1 X127.040 Y82.379 E0.4903
G1 X126.710 Y82.527 E0.5020
G1 X126.401 Y82.714 E0.5137
G1 X126.117 Y82.937 E0.5254
G1 X125.862 Y83.192 E0.5370
G1 X125.639 Y83.476 E0.5487
G1 X125.452 Y83.785 E0.5604
G1 X125.304 Y84.115 E0.5720
G1 X125.196 Y84.459 E0.5837
G1 X125.131 Y84.815 E0.5954
G1 X125.122 Y84.975 E0.6006
G1 X125.110 Y85.175 F880
; feature inner perimeter
G1 X127.682 Y101.729 F4800
G92 E0.0000
G1 X127.269 Y101.805 E0.0135 F1240
G1 X126.869 Y101.929 E0.0271
G1 X126.487 Y102.101 E0.0407
G1 X126.127 Y102.319 E0.0542
G1 X125.793 Y102.581 E0.0680
G1 X125.502 Y102.873 E0.0813
G1 X125.243 Y103.203 E0.0949
G1 X125.026 Y103.562 E0.1084
G1 X124.854 Y103.944 E0.1220
G1 X124.730 Y104.344 E0.1355
G1 X124.654 Y104.757 E0.1491
G1 X124.629 Y105.175 E0.1626
G1 X124.654 Y105.593 E0.1762
G1 X124.730 Y106.006 E0.1897
G1 X124.854 Y106.406 E0.2033
G1 X125.026 Y106.788 E0.2168
G1 X125.243 Y107.147 E0.2304
G1 X125.502 Y107.477 E0.2439
G1 X125.798 Y107.773 E0.2575
G1 X126.128 Y108.032 E0.2710
G1 X126.487 Y108.249 E0.2846
G1 X126.869 Y108.421 E0.2981
G1 X127.269 Y108.545 E0.3117
G1 X127.682 Y108.621 E0.3252
G1 X128.100 Y108.646 E0.3388
G1 X128.518 Y108.621 E0.3523
G1 X128.931 Y108.545 E0.3659
G1 X129.331 Y108.421 E0.3794
G1 X129.713 Y108.249 E0.3930
G1 X130.072 Y108.032 E0.4066
G1 X130.402 Y107.773 E0.4201
G1 X130.698 Y107.477 E0.4337
G1 X130.957 Y107.147 E0.4472
G1 X131.174 Y106.788 E0.4608
G1 X131.346 Y106.406 E0.4743
G1 X131.470 Y106.006 E0.4879
G1 X131.546 Y105.593 E0.5014
G1 X131.571 Y105.175 E0.5150
G1 X131.546 Y104.757 E0.5285
G1 X131.470 Y104.344 E0.5421
G1 X131.346 Y103.944 E0.5556
G1 X131.174 Y103.562 E0.5692
G1 X130.957 Y103.203 E0.5827
G1 X130.698 Y102.873 E0.5963
G1 X130.402 Y102.577 E0.6098
G1 X130.072 Y102.318 E0.6234
