; G-Code generated by Simplify3D(R) Version 4.1.2
; May 26, 2020 at 3:42:14 PM
; Settings Summary
;   processName,Calibration Cube
;   applyToModels,3_Y_Rod_Holder,1_Y_Rod_Holder_With_Endstop
;   profileName,Anet A8 (modified)
;   profileVersion,2020-05-17 12:50:12
;   baseProfile,
;   printMaterial,PETG
;   printQuality,Medium
;   printExtruders,
;   extruderName,Primary Extruder
;   extruderToolheadNumber,0
;   extruderDiameter,0.4
;   extruderAutoWidth,1
;   extruderWidth,0.48
;   extrusionMultiplier,0.9
;   extruderUseRetract,1
;   extruderRetractionDistance,2.5
;   extruderExtraRestartDistance,-0.75
;   extruderRetractionZLift,0
;   extruderRetractionSpeed,1800
;   extruderUseCoasting,1
;   extruderCoastingDistance,0.2
;   extruderUseWipe,0
;   extruderWipeDistance,5
;   primaryExtruder,0
;   layerHeight,0.2
;   topSolidLayers,3
;   bottomSolidLayers,3
;   perimeterOutlines,2
;   printPerimetersInsideOut,1
;   startPointOption,2
;   startPointOriginX,0
;   startPointOriginY,0
;   sequentialIslands,0
;   spiralVaseMode,0
;   firstLayerHeightPercentage,90
;   firstLayerWidthPercentage,100
;   firstLayerUnderspeed,0.5
;   useRaft,0
;   raftExtruder,0
;   raftTopLayers,3
;   raftBaseLayers,2
;   raftOffset,3
;   raftSeparationDistance,0.14
;   raftTopInfill,100
;   aboveRaftSpeedMultiplier,0.3
;   useSkirt,1
;   skirtExtruder,0
;   skirtLayers,1
;   skirtOutlines,3
;   skirtOffset,5
;   usePrimePillar,0
;   primePillarExtruder,999
;   primePillarWidth,12
;   primePillarLocation,7
;   primePillarSpeedMultiplier,1
;   useOozeShield,0
;   oozeShieldExtruder,999
;   oozeShieldOffset,2
;   oozeShieldOutlines,1
;   oozeShieldSidewallShape,1
;   oozeShieldSidewallAngle,30
;   oozeShieldSpeedMultiplier,1
;   infillExtruder,0
;   internalInfillPattern,Rectilinear
;   externalInfillPattern,Rectilinear
;   infillPercentage,40
;   outlineOverlapPercentage,15
;   infillExtrusionWidthPercentage,100
;   minInfillLength,5
;   infillLayerInterval,1
;   internalInfillAngles,45,-45
;   overlapInternalInfillAngles,0
;   externalInfillAngles,45,-45
;   generateSupport,0
;   supportExtruder,0
;   supportInfillPercentage,70
;   supportExtraInflation,0
;   supportBaseLayers,0
;   denseSupportExtruder,0
;   denseSupportLayers,0
;   denseSupportInfillPercentage,70
;   supportLayerInterval,1
;   supportHorizontalPartOffset,0.3
;   supportUpperSeparationLayers,1
;   supportLowerSeparationLayers,1
;   supportType,0
;   supportGridSpacing,4
;   maxOverhangAngle,45
;   supportAngles,0
;   temperatureName,Primary Extruder,Heated Bed
;   temperatureNumber,0,0
;   temperatureSetpointCount,1,1
;   temperatureSetpointLayers,1,1
;   temperatureSetpointTemperatures,225,70
;   temperatureStabilizeAtStartup,1,1
;   temperatureHeatedBed,0,1
;   fanLayers,1,2
;   fanSpeeds,0,100
;   blipFanToFullPower,0
;   adjustSpeedForCooling,1
;   minSpeedLayerTime,15
;   minCoolingSpeedSlowdown,20
;   increaseFanForCooling,0
;   minFanLayerTime,45
;   maxCoolingFanSpeed,100
;   increaseFanForBridging,0
;   bridgingFanSpeed,100
;   use5D,1
;   relativeEdistances,0
;   allowEaxisZeroing,1
;   independentExtruderAxes,0
;   includeM10123,0
;   stickySupport,1
;   applyToolheadOffsets,0
;   gcodeXoffset,0
;   gcodeYoffset,0
;   gcodeZoffset,0
;   overrideMachineDefinition,1
;   machineTypeOverride,0
;   strokeXoverride,220
;   strokeYoverride,220
;   strokeZoverride,240
;   originOffsetXoverride,0
;   originOffsetYoverride,0
;   originOffsetZoverride,0
;   homeXdirOverride,-1
;   homeYdirOverride,-1
;   homeZdirOverride,-1
;   flipXoverride,1
;   flipYoverride,-1
;   flipZoverride,1
;   toolheadOffsets,0,0|0,0|0,0|0,0|0,0|0,0
;   overrideFirmwareConfiguration,1
;   firmwareTypeOverride,RepRap (Marlin/Repetier/Sprinter)
;   GPXconfigOverride,r2
;   baudRateOverride,115200
;   overridePrinterModels,1
;   printerModelsOverride
;   startingGcode,M107 ; fan off,G28 ; home all axes,G29 ; run auto bed leveling,M500 ; store level values in EEPROM,G1 X0 Y20 Z0.2 F3000 ; get ready to prime on lower end,; G1 X0 Y190 Z0.2 F3000 ; get ready to prime on high end,G92 E0 ; reset extrusion distance,G1 X200 E10 F600 ; prime nozzle
;   layerChangeGcode,
;   retractionGcode,
;   toolChangeGcode,
;   endingGcode,M104 S0 ; turn off extruder,M140 S0 ; turn off bed,G91 ; use relative coordinates for jogging,G1 Z20 F1000 ; raise Z by 20mm at 1000 mm/min,G90 ; switch back to absolute coordinates,G1 X0 Y200 F1000 ; prepare for part removal,M84 ; disable motors,M107 ; turn off fan
;   exportFileFormat,gcode
;   celebration,0
;   celebrationSong,Random Song
;   postProcessing,
;   defaultSpeed,3200
;   outlineUnderspeed,0.55
;   solidInfillUnderspeed,0.8
;   supportUnderspeed,0.8
;   rapidXYspeed,4800
;   rapidZspeed,1000
;   minBridgingArea,50
;   bridgingExtraInflation,0
;   bridgingExtrusionMultiplier,1
;   bridgingSpeedMultiplier,1
;   useFixedBridgingAngle,0
;   fixedBridgingAngle,0
;   applyBridgingToPerimeters,0
;   filamentDiameters,1.75|1.75|1.75|1.75|1.75|1.75
;   filamentPricesPerKg,23.99|46|46|46|46|46
;   filamentDensities,1.25|1.25|1.25|1.25|1.25|1.25
;   useMinPrintHeight,0
;   minPrintHeight,0
;   useMaxPrintHeight,0
;   maxPrintHeight,0
;   useDiaphragm,0
;   diaphragmLayerInterval,20
;   robustSlicing,1
;   mergeAllIntoSolid,0
;   onlyRetractWhenCrossingOutline,1
;   retractBetweenLayers,1
;   useRetractionMinTravel,0
;   retractionMinTravel,3
;   retractWhileWiping,0
;   onlyWipeOutlines,1
;   avoidCrossingOutline,0
;   maxMovementDetourFactor,3
;   toolChangeRetractionDistance,12
;   toolChangeExtraRestartDistance,-0.5
;   toolChangeRetractionSpeed,600
;   externalThinWallType,0
;   internalThinWallType,2
;   thinWallAllowedOverlapPercentage,10
;   singleExtrusionMinLength,1
;   singleExtrusionMinPrintingWidthPercentage,50
;   singleExtrusionMaxPrintingWidthPercentage,200
;   singleExtrusionEndpointExtension,0.2
;   horizontalSizeCompensation,0
G90
M82
M106 S0
M140 S70
M190 S70
M104 S225 T0
M109 S225 T0
M107 ; fan off
G28 ; home all axes
G29 ; run auto bed leveling
M500 ; store level values in EEPROM
G1 X0 Y20 Z0.2 F3000 ; get ready to prime on lower end
; G1 X0 Y190 Z0.2 F3000 ; get ready to prime on high end
G92 E0 ; reset extrusion distance
G1 X200 E10 F600 ; prime nozzle
; process Calibration Cube
; layer 1, Z = 0.180
T0
G92 E0.0000
G1 E-2.5000 F1800
; feature skirt
; tool H0.180 W0.480
G1 Z0.180 F1000
G1 X73.832 Y86.300 F4800
G1 E-0.7500 F1800
G92 E0.0000
G1 X123.168 Y86.300 E1.5950 F1600
G1 X126.800 Y89.932 E1.7610
G1 X126.800 Y100.068 E2.0887
G1 X123.168 Y103.700 E2.2548
G1 X114.800 Y103.700 E2.5253
G1 X114.800 Y106.300 E2.6094
G1 X146.168 Y106.300 E3.6235
G1 X149.800 Y109.932 E3.7895
G1 X149.800 Y120.068 E4.1172
G1 X146.168 Y123.700 E4.2832
G1 X137.790 Y123.700 E4.5541
G1 X137.807 Y130.056 E4.7596
G1 X134.173 Y133.700 E4.9260
G1 X116.342 Y133.700 E5.5024
G1 X116.225 Y133.698 E5.5062
G1 X115.618 Y133.675 E5.5259
G1 X115.271 Y133.642 E5.5371
G1 X114.131 Y133.470 E5.5744
G1 X113.680 Y133.367 E5.5894
G1 X112.583 Y133.029 E5.6265
G1 X112.258 Y132.908 E5.6377
G1 X111.590 Y132.617 E5.6612
G1 X111.278 Y132.460 E5.6725
G1 X110.329 Y131.911 E5.7080
G1 X110.037 Y131.720 E5.7192
G1 X109.503 Y131.325 E5.7407
G1 X109.322 Y131.181 E5.7482
G1 X108.820 Y130.748 E5.7696
G1 X108.570 Y130.507 E5.7808
G1 X107.790 Y129.667 E5.8179
G1 X107.502 Y129.305 E5.8329
G1 X106.851 Y128.352 E5.8702
G1 X106.671 Y128.053 E5.8815
G1 X106.331 Y127.409 E5.9050
G1 X106.186 Y127.093 E5.9163
G1 X105.767 Y126.025 E5.9533
G1 X105.630 Y125.583 E5.9683
G1 X105.360 Y124.402 E6.0075
G1 X105.291 Y123.943 E6.0225
G1 X105.273 Y123.700 E6.0303
G1 X73.832 Y123.700 E7.0468
G1 X70.200 Y120.068 E7.2128
G1 X70.200 Y109.932 E7.5405
G1 X73.832 Y106.300 E7.7066
G1 X82.869 Y106.300 E7.9987
G1 X82.828 Y106.197 E8.0023
G1 X82.734 Y105.922 E8.0117
G1 X82.550 Y105.289 E8.0331
G1 X82.464 Y104.906 E8.0457
G1 X82.273 Y103.700 E8.0852
G1 X73.832 Y103.700 E8.3581
G1 X70.200 Y100.068 E8.5241
G1 X70.200 Y89.932 E8.8518
G1 X73.832 Y86.300 E9.0179
G92 E0.0000
G1 E-2.5000 F1800
G1 X74.031 Y86.780 F4800
G1 E-0.7500 F1800
G92 E0.0000
G1 X122.969 Y86.780 E1.5821 F1600
G1 X126.320 Y90.131 E1.7353
G1 X126.320 Y99.869 E2.0502
G1 X122.969 Y103.220 E2.2034
G1 X114.320 Y103.220 E2.4830
G1 X114.320 Y106.780 E2.5981
G1 X145.969 Y106.780 E3.6213
G1 X149.320 Y110.131 E3.7744
G1 X149.320 Y119.869 E4.0893
G1 X145.969 Y123.220 E4.2425
G1 X137.308 Y123.220 E4.5225
G1 X137.327 Y129.858 E4.7371
G1 X133.974 Y133.220 E4.8906
G1 X116.346 Y133.220 E5.4605
G1 X116.239 Y133.218 E5.4639
G1 X115.649 Y133.196 E5.4830
G1 X115.329 Y133.166 E5.4934
G1 X114.220 Y132.998 E5.5297
G1 X113.804 Y132.903 E5.5435
G1 X112.738 Y132.574 E5.5795
G1 X112.437 Y132.463 E5.5899
G1 X111.795 Y132.183 E5.6126
G1 X111.506 Y132.037 E5.6230
G1 X110.580 Y131.502 E5.6576
G1 X110.312 Y131.326 E5.6680
G1 X109.796 Y130.945 E5.6887
G1 X109.629 Y130.811 E5.6956
G1 X109.143 Y130.393 E5.7163
G1 X108.913 Y130.171 E5.7267
G1 X108.154 Y129.353 E5.7627
G1 X107.888 Y129.020 E5.7765
G1 X107.255 Y128.093 E5.8128
G1 X107.089 Y127.816 E5.8232
G1 X106.761 Y127.197 E5.8459
G1 X106.628 Y126.905 E5.8563
G1 X106.220 Y125.866 E5.8924
G1 X106.094 Y125.458 E5.9062
G1 X105.832 Y124.313 E5.9441
G1 X105.768 Y123.889 E5.9580
G1 X105.718 Y123.220 E5.9797
G1 X74.031 Y123.220 E7.0041
G1 X70.680 Y119.869 E7.1573
G1 X70.680 Y110.131 E7.4721
G1 X74.031 Y106.780 E7.6253
G1 X83.576 Y106.780 E7.9339
G1 X83.279 Y106.031 E7.9599
G1 X83.192 Y105.777 E7.9686
G1 X83.015 Y105.169 E7.9891
G1 X82.936 Y104.816 E8.0008
G1 X82.725 Y103.489 E8.0442
G1 X82.704 Y103.220 E8.0529
G1 X74.031 Y103.220 E8.3334
G1 X70.680 Y99.869 E8.4865
G1 X70.680 Y90.131 E8.8014
G1 X74.031 Y86.780 E8.9546
G92 E0.0000
G1 E-2.5000 F1800
G1 X74.230 Y87.260 F4800
G1 E-0.7500 F1800
G92 E0.0000
G1 X122.770 Y87.260 E1.5693 F1600
G1 X125.840 Y90.330 E1.7096
G1 X125.840 Y99.670 E2.0116
G1 X122.770 Y102.740 E2.1519
G1 X113.834 Y102.740 E2.4409
G1 X113.840 Y102.853 E2.4445
G1 X113.840 Y107.260 E2.5870
G1 X145.770 Y107.260 E3.6193
G1 X148.840 Y110.330 E3.7596
G1 X148.840 Y119.670 E4.0616
G1 X145.770 Y122.740 E4.2019
G1 X136.827 Y122.740 E4.4911
G1 X136.846 Y129.660 E4.7148
G1 X133.775 Y132.740 E4.8554
G1 X116.351 Y132.740 E5.4187
G1 X116.252 Y132.738 E5.4219
G1 X115.681 Y132.717 E5.4404
G1 X115.388 Y132.689 E5.4499
G1 X114.310 Y132.526 E5.4851
G1 X113.929 Y132.439 E5.4978
G1 X112.892 Y132.120 E5.5328
G1 X112.617 Y132.017 E5.5423
G1 X111.999 Y131.748 E5.5641
G1 X111.735 Y131.615 E5.5737
G1 X110.832 Y131.093 E5.6074
G1 X110.586 Y130.932 E5.6169
G1 X110.088 Y130.564 E5.6369
G1 X109.935 Y130.442 E5.6432
G1 X109.466 Y130.038 E5.6632
G1 X109.256 Y129.835 E5.6727
G1 X108.518 Y129.040 E5.7078
G1 X108.274 Y128.735 E5.7204
G1 X107.659 Y127.833 E5.7557
G1 X107.507 Y127.580 E5.7652
G1 X107.192 Y126.984 E5.7870
G1 X107.070 Y126.717 E5.7965
G1 X106.673 Y125.707 E5.8316
G1 X106.558 Y125.334 E5.8442
G1 X106.304 Y124.223 E5.8810
G1 X106.246 Y123.835 E5.8937
G1 X106.167 Y122.795 E5.9275
G1 X106.165 Y122.740 E5.9292
G1 X74.230 Y122.740 E6.9617
G1 X71.160 Y119.670 E7.1020
G1 X71.160 Y110.330 E7.4040
G1 X74.230 Y107.260 E7.5443
G1 X84.343 Y107.260 E7.8713
G1 X84.205 Y107.009 E7.8806
G1 X84.065 Y106.711 E7.8912
G1 X83.729 Y105.865 E7.9206
G1 X83.649 Y105.632 E7.9286
G1 X83.480 Y105.049 E7.9482
G1 X83.407 Y104.726 E7.9589
G1 X83.202 Y103.432 E8.0013
G1 X83.170 Y103.026 E8.0144
G1 X83.170 Y102.740 E8.0237
G1 X74.230 Y102.740 E8.3127
G1 X71.160 Y99.670 E8.4530
G1 X71.160 Y90.330 E8.7550
G1 X74.230 Y87.260 E8.8954
G92 E0.0000
G1 E-2.5000 F1800
; feature inner perimeter
G1 X77.120 Y93.220 F4800
G1 E-0.7500 F1800
G92 E0.0000
G1 X119.880 Y93.220 E1.3824 F1240
G1 X119.880 Y96.780 E1.4975
G1 X107.880 Y96.780 E1.8854
G1 X107.880 Y98.979 E1.9565
G1 X107.875 Y99.070 E1.9594
G1 X107.832 Y99.255 E1.9656
G1 X107.757 Y99.412 E1.9712
G1 X107.648 Y99.548 E1.9769
G1 X107.512 Y99.657 E1.9825
G1 X107.355 Y99.732 E1.9881
G1 X107.170 Y99.775 E1.9943
G1 X107.079 Y99.780 E1.9972
G1 X101.278 Y99.780 E2.1848
G1 X101.167 Y99.193 E2.2040
G1 X101.065 Y98.852 E2.2156
G1 X100.945 Y98.536 E2.2265
G1 X100.804 Y98.228 E2.2374
G1 X100.641 Y97.932 E2.2484
G1 X100.451 Y97.637 E2.2597
G1 X100.046 Y97.134 E2.2806
G1 X99.795 Y96.882 E2.2921
G1 X99.540 Y96.659 E2.3030
G1 X99.270 Y96.455 E2.3140
G1 X98.987 Y96.271 E2.3249
G1 X98.680 Y96.100 E2.3362
G1 X98.086 Y95.848 E2.3571
G1 X97.746 Y95.743 E2.3686
G1 X97.416 Y95.667 E2.3796
G1 X97.070 Y95.613 E2.3909
G1 X96.425 Y95.580 E2.4118
G1 X96.069 Y95.599 E2.4233
G1 X95.733 Y95.641 E2.4342
G1 X95.389 Y95.709 E2.4456
G1 X94.773 Y95.899 E2.4664
G1 X94.445 Y96.039 E2.4779
G1 X94.144 Y96.194 E2.4889
G1 X93.855 Y96.370 E2.4998
G1 X93.579 Y96.565 E2.5108
G1 X93.317 Y96.780 E2.5217
G1 X93.071 Y97.012 E2.5326
G1 X92.842 Y97.260 E2.5436
G1 X92.631 Y97.525 E2.5545
G1 X92.439 Y97.803 E2.5654
G1 X92.267 Y98.094 E2.5764
G1 X92.115 Y98.397 E2.5873
G1 X91.986 Y98.709 E2.5982
G1 X91.878 Y99.030 E2.6092
G1 X91.794 Y99.357 E2.6201
G1 X91.732 Y99.690 E2.6310
G1 X91.694 Y100.026 E2.6420
G1 X91.680 Y100.364 E2.6529
G1 X91.689 Y100.702 E2.6638
G1 X91.722 Y101.039 E2.6748
G1 X91.779 Y101.372 E2.6857
G1 X91.861 Y101.713 E2.6971
G1 X92.078 Y102.321 E2.7179
G1 X92.232 Y102.642 E2.7294
G1 X92.400 Y102.936 E2.7404
G1 X92.588 Y103.217 E2.7513
G1 X92.795 Y103.484 E2.7622
G1 X93.021 Y103.736 E2.7732
G1 X93.263 Y103.972 E2.7841
G1 X93.531 Y104.198 E2.7955
G1 X94.065 Y104.561 E2.8163
G1 X94.379 Y104.729 E2.8278
G1 X94.688 Y104.867 E2.8388
G1 X95.001 Y104.981 E2.8495
G1 X95.331 Y105.077 E2.8606
G1 X95.662 Y105.147 E2.8716
G1 X95.997 Y105.194 E2.8825
G1 X96.335 Y105.218 E2.8935
G1 X96.691 Y105.217 E2.9050
G1 X97.333 Y105.148 E2.9258
G1 X97.676 Y105.075 E2.9372
G1 X98.001 Y104.981 E2.9481
G1 X98.318 Y104.864 E2.9590
G1 X98.627 Y104.726 E2.9700
G1 X98.925 Y104.566 E2.9809
G1 X99.211 Y104.386 E2.9918
G1 X99.484 Y104.186 E3.0028
G1 X99.742 Y103.968 E3.0137
G1 X99.984 Y103.731 E3.0247
G1 X100.209 Y103.479 E3.0356
G1 X100.416 Y103.211 E3.0465
G1 X100.603 Y102.930 E3.0575
G1 X100.771 Y102.636 E3.0684
G1 X100.970 Y102.220 E3.0833
G1 X107.060 Y102.220 E3.2802
G1 X107.271 Y102.244 E3.2871
G1 X107.439 Y102.303 E3.2928
G1 X107.600 Y102.404 E3.2990
G1 X107.651 Y102.449 E3.3012
G1 X107.696 Y102.499 E3.3033
G1 X107.797 Y102.661 E3.3095
G1 X107.856 Y102.829 E3.3152
G1 X107.880 Y103.040 E3.3221
G1 X107.880 Y106.780 E3.4430
G1 X93.423 Y106.780 E3.9104
G1 X92.864 Y106.745 E3.9285
G1 X92.336 Y106.644 E3.9459
G1 X91.825 Y106.478 E3.9633
G1 X91.339 Y106.249 E3.9806
G1 X90.885 Y105.962 E3.9980
G1 X90.471 Y105.619 E4.0154
G1 X90.103 Y105.227 E4.0327
G1 X89.787 Y104.793 E4.0501
G1 X89.528 Y104.321 E4.0675
G1 X89.328 Y103.815 E4.0851
G1 X89.258 Y103.575 E4.0932
G1 X89.154 Y103.029 E4.1112
G1 X89.130 Y102.779 E4.1193
G1 X89.119 Y96.780 E4.3132
G1 X77.120 Y96.780 E4.7011
G1 X77.120 Y93.420 E4.8097
G1 X77.120 Y93.220 F1240
; feature outer perimeter
G1 X76.640 Y92.740 F4800
G92 E0.0000
G1 X120.360 Y92.740 E1.4134 F880
G1 X120.360 Y97.260 E1.5595
G1 X108.360 Y97.260 E1.9475
G1 X108.360 Y98.993 E2.0035
G1 X108.352 Y99.138 E2.0082
G1 X108.288 Y99.415 E2.0174
G1 X108.166 Y99.669 E2.0265
G1 X107.990 Y99.890 E2.0356
G1 X107.769 Y100.066 E2.0448
G1 X107.515 Y100.188 E2.0539
G1 X107.238 Y100.252 E2.0631
G1 X107.093 Y100.260 E2.0678
G1 X100.836 Y100.260 E2.2700
G1 X100.835 Y100.199 E2.2720
G1 X100.810 Y99.892 E2.2820
G1 X100.700 Y99.307 E2.3012
G1 X100.610 Y99.006 E2.3114
G1 X100.502 Y98.721 E2.3212
G1 X100.375 Y98.445 E2.3311
G1 X100.228 Y98.178 E2.3409
G1 X100.061 Y97.919 E2.3509
G1 X99.688 Y97.455 E2.3701
G1 X99.467 Y97.232 E2.3803
G1 X99.237 Y97.032 E2.3901
G1 X98.994 Y96.848 E2.4000
G1 X98.739 Y96.682 E2.4098
G1 X98.469 Y96.532 E2.4198
G1 X97.922 Y96.299 E2.4390
G1 X97.622 Y96.207 E2.4492
G1 X97.325 Y96.139 E2.4590
G1 X97.020 Y96.091 E2.4690
G1 X96.425 Y96.060 E2.4882
G1 X96.112 Y96.077 E2.4984
G1 X95.810 Y96.115 E2.5082
G1 X95.507 Y96.175 E2.5182
G1 X94.938 Y96.350 E2.5375
G1 X94.650 Y96.474 E2.5476
G1 X94.379 Y96.613 E2.5575
G1 X94.119 Y96.772 E2.5673
G1 X93.870 Y96.947 E2.5771
G1 X93.634 Y97.140 E2.5870
G1 X93.413 Y97.349 E2.5968
