; G-Code generated by Simplify3D(R) Version 4.1.2
; May 26, 2020 at 3:34:59 PM
; Settings Summary
;   processName,Calibration Cube
;   applyToModels,1_Z_Endstop
;   profileName,Anet A8 (modified)
;   profileVersion,2020-05-17 12:50:12
;   baseProfile,
;   printMaterial,PETG
;   printQuality,Medium
;   printExtruders,
;   extruderName,Primary Extruder
;   extruderToolheadNumber,0
;   extruderDiameter,0.4
;   extruderAutoWidth,1
;   extruderWidth,0.48
;   extrusionMultiplier,0.9
;   extruderUseRetract,1
;   extruderRetractionDistance,2.5
;   extruderExtraRestartDistance,-0.75
;   extruderRetractionZLift,0
;   extruderRetractionSpeed,1800
;   extruderUseCoasting,1
;   extruderCoastingDistance,0.2
;   extruderUseWipe,0
;   extruderWipeDistance,5
;   primaryExtruder,0
;   layerHeight,0.2
;   topSolidLayers,3
;   bottomSolidLayers,3
;   perimeterOutlines,2
;   printPerimetersInsideOut,1
;   startPointOption,2
;   startPointOriginX,0
;   startPointOriginY,0
;   sequentialIslands,0
;   spiralVaseMode,0
;   firstLayerHeightPercentage,90
;   firstLayerWidthPercentage,100
;   firstLayerUnderspeed,0.5
;   useRaft,0
;   raftExtruder,0
;   raftTopLayers,3
;   raftBaseLayers,2
;   raftOffset,3
;   raftSeparationDistance,0.14
;   raftTopInfill,100
;   aboveRaftSpeedMultiplier,0.3
;   useSkirt,1
;   skirtExtruder,0
;   skirtLayers,1
;   skirtOutlines,3
;   skirtOffset,5
;   usePrimePillar,0
;   primePillarExtruder,999
;   primePillarWidth,12
;   primePillarLocation,7
;   primePillarSpeedMultiplier,1
;   useOozeShield,0
;   oozeShieldExtruder,999
;   oozeShieldOffset,2
;   oozeShieldOutlines,1
;   oozeShieldSidewallShape,1
;   oozeShieldSidewallAngle,30
;   oozeShieldSpeedMultiplier,1
;   infillExtruder,0
;   internalInfillPattern,Rectilinear
;   externalInfillPattern,Rectilinear
;   infillPercentage,50
;   outlineOverlapPercentage,15
;   infillExtrusionWidthPercentage,100
;   minInfillLength,5
;   infillLayerInterval,1
;   internalInfillAngles,45,-45
;   overlapInternalInfillAngles,0
;   externalInfillAngles,45,-45
;   generateSupport,0
;   supportExtruder,0
;   supportInfillPercentage,70
;   supportExtraInflation,0
;   supportBaseLayers,0
;   denseSupportExtruder,0
;   denseSupportLayers,0
;   denseSupportInfillPercentage,70
;   supportLayerInterval,1
;   supportHorizontalPartOffset,0.3
;   supportUpperSeparationLayers,1
;   supportLowerSeparationLayers,1
;   supportType,0
;   supportGridSpacing,4
;   maxOverhangAngle,45
;   supportAngles,0
;   temperatureName,Primary Extruder,Heated Bed
;   temperatureNumber,0,0
;   temperatureSetpointCount,1,1
;   temperatureSetpointLayers,1,1
;   temperatureSetpointTemperatures,225,70
;   temperatureStabilizeAtStartup,1,1
;   temperatureHeatedBed,0,1
;   fanLayers,1,2
;   fanSpeeds,0,100
;   blipFanToFullPower,0
;   adjustSpeedForCooling,1
;   minSpeedLayerTime,15
;   minCoolingSpeedSlowdown,20
;   increaseFanForCooling,0
;   minFanLayerTime,45
;   maxCoolingFanSpeed,100
;   increaseFanForBridging,0
;   bridgingFanSpeed,100
;   use5D,1
;   relativeEdistances,0
;   allowEaxisZeroing,1
;   independentExtruderAxes,0
;   includeM10123,0
;   stickySupport,1
;   applyToolheadOffsets,0
;   gcodeXoffset,0
;   gcodeYoffset,0
;   gcodeZoffset,0
;   overrideMachineDefinition,1
;   machineTypeOverride,0
;   strokeXoverride,220
;   strokeYoverride,220
;   strokeZoverride,240
;   originOffsetXoverride,0
;   originOffsetYoverride,0
;   originOffsetZoverride,0
;   homeXdirOverride,-1
;   homeYdirOverride,-1
;   homeZdirOverride,-1
;   flipXoverride,1
;   flipYoverride,-1
;   flipZoverride,1
;   toolheadOffsets,0,0|0,0|0,0|0,0|0,0|0,0
;   overrideFirmwareConfiguration,1
;   firmwareTypeOverride,RepRap (Marlin/Repetier/Sprinter)
;   GPXconfigOverride,r2
;   baudRateOverride,115200
;   overridePrinterModels,1
;   printerModelsOverride
;   startingGcode,M107 ; fan off,G28 ; home all axes,G29 ; run auto bed leveling,M500 ; store level values in EEPROM,G1 X0 Y20 Z0.2 F3000 ; get ready to prime on lower end,; G1 X0 Y190 Z0.2 F3000 ; get ready to prime on high end,G92 E0 ; reset extrusion distance,G1 X200 E10 F600 ; prime nozzle
;   layerChangeGcode,
;   retractionGcode,
;   toolChangeGcode,
;   endingGcode,M104 S0 ; turn off extruder,M140 S0 ; turn off bed,G91 ; use relative coordinates for jogging,G1 Z20 F1000 ; raise Z by 20mm at 1000 mm/min,G90 ; switch back to absolute coordinates,G1 X0 Y200 F1000 ; prepare for part removal,M84 ; disable motors,M107 ; turn off fan
;   exportFileFormat,gcode
;   celebration,0
;   celebrationSong,Random Song
;   postProcessing,
;   defaultSpeed,3200
;   outlineUnderspeed,0.55
;   solidInfillUnderspeed,0.8
;   supportUnderspeed,0.8
;   rapidXYspeed,4800
;   rapidZspeed,1000
;   minBridgingArea,50
;   bridgingExtraInflation,0
;   bridgingExtrusionMultiplier,1
;   bridgingSpeedMultiplier,1
;   useFixedBridgingAngle,0
;   fixedBridgingAngle,0
;   applyBridgingToPerimeters,0
;   filamentDiameters,1.75|1.75|1.75|1.75|1.75|1.75
;   filamentPricesPerKg,23.99|46|46|46|46|46
;   filamentDensities,1.25|1.25|1.25|1.25|1.25|1.25
;   useMinPrintHeight,0
;   minPrintHeight,0
;   useMaxPrintHeight,0
;   maxPrintHeight,0
;   useDiaphragm,0
;   diaphragmLayerInterval,20
;   robustSlicing,1
;   mergeAllIntoSolid,0
;   onlyRetractWhenCrossingOutline,1
;   retractBetweenLayers,1
;   useRetractionMinTravel,0
;   retractionMinTravel,3
;   retractWhileWiping,0
;   onlyWipeOutlines,1
;   avoidCrossingOutline,0
;   maxMovementDetourFactor,3
;   toolChangeRetractionDistance,12
;   toolChangeExtraRestartDistance,-0.5
;   toolChangeRetractionSpeed,600
;   externalThinWallType,0
;   internalThinWallType,2
;   thinWallAllowedOverlapPercentage,10
;   singleExtrusionMinLength,1
;   singleExtrusionMinPrintingWidthPercentage,50
;   singleExtrusionMaxPrintingWidthPercentage,200
;   singleExtrusionEndpointExtension,0.2
;   horizontalSizeCompensation,0
G90
M82
M106 S0
M140 S70
M190 S70
M104 S225 T0
M109 S225 T0
M107 ; fan off
G28 ; home all axes
G29 ; run auto bed leveling
M500 ; store level values in EEPROM
G1 X0 Y20 Z0.2 F3000 ; get ready to prime on lower end
; G1 X0 Y190 Z0.2 F3000 ; get ready to prime on high end
G92 E0 ; reset extrusion distance
G1 X200 E10 F600 ; prime nozzle
; process Calibration Cube
; layer 1, Z = 0.180
T0
G92 E0.0000
G1 E-2.5000 F1800
; feature skirt
; tool H0.180 W0.480
G1 Z0.180 F1000
G1 X87.432 Y93.800 F4800
G1 E-0.7500 F1800
G92 E0.0000
G1 X132.568 Y93.800 E1.4592 F1600
G1 X136.200 Y97.432 E1.6253
G1 X136.200 Y122.568 E2.4379
G1 X132.568 Y126.200 E2.6039
G1 X107.432 Y126.200 E3.4166
G1 X103.800 Y122.568 E3.5826
G1 X103.800 Y116.200 E3.7885
G1 X87.432 Y116.200 E4.3176
G1 X83.800 Y112.568 E4.4837
G1 X83.800 Y97.432 E4.9730
G1 X87.432 Y93.800 E5.1391
G92 E0.0000
G1 E-2.5000 F1800
G1 X87.631 Y94.280 F4800
G1 E-0.7500 F1800
G92 E0.0000
G1 X132.369 Y94.280 E1.4463 F1600
G1 X135.720 Y97.631 E1.5995
G1 X135.720 Y122.369 E2.3993
G1 X132.369 Y125.720 E2.5525
G1 X107.631 Y125.720 E3.3523
G1 X104.280 Y122.369 E3.5055
G1 X104.280 Y115.720 E3.7204
G1 X87.631 Y115.720 E4.2587
G1 X84.280 Y112.369 E4.4119
G1 X84.280 Y97.631 E4.8884
G1 X87.631 Y94.280 E5.0416
G92 E0.0000
G1 E-2.5000 F1800
G1 X87.830 Y94.760 F4800
G1 E-0.7500 F1800
G92 E0.0000
G1 X132.170 Y94.760 E1.4335 F1600
G1 X135.240 Y97.830 E1.5738
G1 X135.240 Y122.170 E2.3607
G1 X132.170 Y125.240 E2.5011
G1 X107.830 Y125.240 E3.2880
G1 X104.760 Y122.170 E3.4283
G1 X104.760 Y115.240 E3.6524
G1 X87.830 Y115.240 E4.1997
G1 X84.760 Y112.170 E4.3401
G1 X84.760 Y97.830 E4.8037
G1 X87.830 Y94.760 E4.9440
G92 E0.0000
G1 E-2.5000 F1800
; feature inner perimeter
G1 X90.720 Y100.720 F4800
G1 E-0.7500 F1800
G92 E0.0000
G1 X129.280 Y100.720 E1.2466 F1240
G1 X129.280 Y119.280 E1.8466
G1 X110.720 Y119.280 E2.4466
G1 X110.720 Y109.280 E2.7699
G1 X90.720 Y109.280 E3.4165
G1 X90.720 Y100.920 E3.6868
G1 X90.720 Y100.720 F1240
; feature outer perimeter
G1 X90.240 Y100.240 F4800
G92 E0.0000
G1 X129.760 Y100.240 E1.2776 F880
G1 X129.760 Y119.760 E1.9087
G1 X110.240 Y119.760 E2.5398
G1 X110.240 Y109.760 E2.8630
G1 X90.240 Y109.760 E3.5096
G1 X90.240 Y100.440 E3.8109
G1 X90.240 Y100.240 F880
; feature inner perimeter
G1 X96.936 Y103.367 F4800
G92 E0.0000
G1 X96.711 Y103.887 E0.0183 F1240
G1 X96.577 Y104.422 E0.0361
G1 X96.539 Y104.732 E0.0462
G1 X96.539 Y105.283 E0.0641
G1 X96.629 Y105.827 E0.0819
G1 X96.717 Y106.127 E0.0920
G1 X96.936 Y106.633 E0.1098
G1 X97.242 Y107.109 E0.1281
G1 X97.611 Y107.518 E0.1459
G1 X97.847 Y107.723 E0.1560
G1 X98.293 Y108.022 E0.1734
G1 X98.571 Y108.164 E0.1835
G1 X99.090 Y108.351 E0.2013
G1 X99.646 Y108.454 E0.2196
G1 X100.198 Y108.466 E0.2374
G1 X100.509 Y108.434 E0.2475
G1 X101.046 Y108.311 E0.2654
G1 X101.570 Y108.097 E0.2837
G1 X102.052 Y107.801 E0.3020
G1 X102.480 Y107.430 E0.3203
G1 X102.833 Y107.006 E0.3381
G1 X103.002 Y106.743 E0.3482
G1 X103.234 Y106.260 E0.3655
G1 X103.335 Y105.964 E0.3756
G1 X103.443 Y105.438 E0.3930
G1 X103.469 Y105.127 E0.4031
G1 X103.446 Y104.576 E0.4209
G1 X103.332 Y104.022 E0.4392
G1 X103.129 Y103.493 E0.4575
G1 X102.842 Y103.005 E0.4758
G1 X102.490 Y102.581 E0.4936
G1 X102.262 Y102.367 E0.5037
G1 X101.817 Y102.041 E0.5216
G1 X101.326 Y101.792 E0.5394
G1 X101.032 Y101.686 E0.5495
G1 X100.494 Y101.563 E0.5673
G1 X99.929 Y101.528 E0.5856
G1 X99.381 Y101.584 E0.6034
G1 X99.076 Y101.654 E0.6135
G1 X98.571 Y101.836 E0.6309
G1 X98.293 Y101.978 E0.6410
G1 X97.847 Y102.277 E0.6583
G1 X97.611 Y102.482 E0.6684
G1 X97.242 Y102.891 E0.6863
G1 X97.044 Y103.199 E0.6981
G1 X96.936 Y103.367 F1240
; feature outer perimeter
G1 X97.361 Y103.594 F4800
G92 E0.0000
G1 X97.167 Y104.041 E0.0158 F880
G1 X97.050 Y104.509 E0.0314
G1 X97.019 Y104.761 E0.0396
G1 X97.019 Y105.244 E0.0552
G1 X97.098 Y105.720 E0.0708
G1 X97.169 Y105.963 E0.0790
G1 X97.361 Y106.406 E0.0946
G1 X97.624 Y106.817 E0.1103
G1 X97.948 Y107.175 E0.1259
G1 X98.139 Y107.341 E0.1341
G1 X98.536 Y107.607 E0.1496
G1 X98.762 Y107.722 E0.1578
G1 X99.216 Y107.886 E0.1734
G1 X99.695 Y107.975 E0.1892
G1 X100.178 Y107.985 E0.2048
G1 X100.430 Y107.959 E0.2130
G1 X100.901 Y107.852 E0.2286
G1 X101.352 Y107.668 E0.2443
G1 X101.768 Y107.412 E0.2601
G1 X102.136 Y107.093 E0.2759
G1 X102.445 Y106.722 E0.2915
G1 X102.582 Y106.509 E0.2997
G1 X102.789 Y106.078 E0.3151
G1 X102.871 Y105.838 E0.3233
G1 X102.967 Y105.370 E0.3388
G1 X102.988 Y105.117 E0.3470
G1 X102.968 Y104.635 E0.3626
G1 X102.870 Y104.157 E0.3783
G1 X102.695 Y103.702 E0.3941
G1 X102.448 Y103.282 E0.4098
G1 X102.139 Y102.911 E0.4255
G1 X101.955 Y102.737 E0.4337
G1 X101.565 Y102.452 E0.4493
G1 X101.135 Y102.233 E0.4649
G1 X100.896 Y102.147 E0.4731
G1 X100.426 Y102.040 E0.4887
G1 X99.939 Y102.010 E0.5044
G1 X99.459 Y102.059 E0.5200
G1 X99.211 Y102.115 E0.5282
G1 X98.762 Y102.278 E0.5437
G1 X98.536 Y102.393 E0.5519
G1 X98.139 Y102.659 E0.5673
G1 X97.948 Y102.825 E0.5755
G1 X97.624 Y103.183 E0.5911
G1 X97.469 Y103.425 E0.6004
G1 X97.361 Y103.594 F880
G92 E0.0000
G1 E-2.5000 F1800
; feature inner perimeter
G1 X116.539 Y104.732 F4800
G1 E-0.7500 F1800
G92 E0.0000
G1 X116.539 Y105.283 E0.0178 F1240
G1 X116.629 Y105.827 E0.0356
G1 X116.717 Y106.127 E0.0458
G1 X116.936 Y106.633 E0.0636
G1 X117.242 Y107.109 E0.0819
G1 X117.611 Y107.518 E0.0997
G1 X117.847 Y107.723 E0.1098
G1 X118.293 Y108.022 E0.1271
G1 X118.571 Y108.164 E0.1373
G1 X119.090 Y108.351 E0.1551
G1 X119.646 Y108.454 E0.1734
G1 X120.198 Y108.466 E0.1912
G1 X120.509 Y108.434 E0.2013
G1 X121.046 Y108.311 E0.2191
G1 X121.570 Y108.097 E0.2374
G1 X122.052 Y107.801 E0.2557
G1 X122.480 Y107.430 E0.2740
G1 X122.833 Y107.006 E0.2919
G1 X123.002 Y106.743 E0.3020
G1 X123.234 Y106.260 E0.3193
G1 X123.335 Y105.964 E0.3294
G1 X123.443 Y105.438 E0.3468
G1 X123.469 Y105.127 E0.3569
G1 X123.446 Y104.576 E0.3747
G1 X123.332 Y104.022 E0.3930
G1 X123.129 Y103.493 E0.4113
G1 X122.842 Y103.005 E0.4296
G1 X122.490 Y102.581 E0.4474
G1 X122.262 Y102.367 E0.4575
G1 X121.817 Y102.041 E0.4753
G1 X121.326 Y101.792 E0.4932
G1 X121.032 Y101.686 E0.5033
G1 X120.494 Y101.563 E0.5211
G1 X119.929 Y101.528 E0.5394
G1 X119.381 Y101.584 E0.5572
G1 X119.076 Y101.654 E0.5673
G1 X118.571 Y101.836 E0.5847
G1 X118.293 Y101.978 E0.5948
G1 X117.847 Y102.277 E0.6121
G1 X117.611 Y102.482 E0.6222
G1 X117.242 Y102.891 E0.6400
G1 X116.936 Y103.367 E0.6583
G1 X116.711 Y103.887 E0.6766
G1 X116.577 Y104.422 E0.6945
G1 X116.564 Y104.533 E0.6981
G1 X116.539 Y104.732 F1240
; feature outer perimeter
G1 X117.019 Y104.761 F4800
G92 E0.0000
G1 X117.019 Y105.244 E0.0156 F880
G1 X117.098 Y105.720 E0.0312
G1 X117.169 Y105.963 E0.0394
G1 X117.361 Y106.406 E0.0550
G1 X117.624 Y106.817 E0.0708
G1 X117.948 Y107.175 E0.0864
G1 X118.139 Y107.341 E0.0946
G1 X118.536 Y107.607 E0.1100
G1 X118.762 Y107.722 E0.1182
G1 X119.216 Y107.886 E0.1338
G1 X119.695 Y107.975 E0.1496
G1 X120.178 Y107.985 E0.1652
G1 X120.430 Y107.959 E0.1734
G1 X120.901 Y107.852 E0.1890
G1 X121.352 Y107.668 E0.2048
G1 X121.768 Y107.412 E0.2205
G1 X122.136 Y107.093 E0.2363
G1 X122.445 Y106.722 E0.2519
G1 X122.582 Y106.509 E0.2601
G1 X122.789 Y106.078 E0.2755
G1 X122.871 Y105.838 E0.2837
G1 X122.967 Y105.370 E0.2992
G1 X122.988 Y105.117 E0.3074
G1 X122.968 Y104.635 E0.3230
G1 X122.870 Y104.157 E0.3388
G1 X122.695 Y103.702 E0.3545
G1 X122.448 Y103.282 E0.3703
G1 X122.139 Y102.911 E0.3859
G1 X121.955 Y102.737 E0.3941
G1 X121.565 Y102.452 E0.4097
G1 X121.135 Y102.233 E0.4253
G1 X120.896 Y102.147 E0.4335
G1 X120.426 Y102.040 E0.4491
G1 X119.939 Y102.010 E0.4649
G1 X119.459 Y102.059 E0.4805
G1 X119.211 Y102.115 E0.4887
G1 X118.762 Y102.278 E0.5041
G1 X118.536 Y102.393 E0.5123
G1 X118.139 Y102.659 E0.5278
G1 X117.948 Y102.825 E0.5360
G1 X117.624 Y103.183 E0.5516
G1 X117.361 Y103.594 E0.5673
G1 X117.167 Y104.041 E0.5831
G1 X117.050 Y104.509 E0.5987
G1 X117.044 Y104.563 E0.6004
G1 X117.019 Y104.761 F880
; feature inner perimeter
G1 X115.966 Y113.039 F4800
G92 E0.0000
G1 X115.534 Y113.039 E0.0140 F1240
G1 X115.257 Y113.090 E0.0231
G1 X114.853 Y113.243 E0.0371
G1 X114.611 Y113.389 E0.0462
G1 X114.288 Y113.676 E0.0601
G1 X114.128 Y113.880 E0.0685
G1 X113.993 Y114.103 E0.0769
G1 X113.840 Y114.507 E0.0909
G1 X113.789 Y114.784 E0.1000
G1 X113.789 Y115.216 E0.1140
G1 X113.840 Y115.493 E0.1231
G1 X113.993 Y115.897 E0.1371
G1 X114.139 Y116.139 E0.1462
G1 X114.440 Y116.479 E0.1609
G1 X114.832 Y116.749 E0.1763
G1 X115.257 Y116.910 E0.1910
G1 X115.534 Y116.961 E0.2001
G1 X115.966 Y116.961 E0.2140
G1 X116.243 Y116.910 E0.2231
G1 X116.647 Y116.757 E0.2371
G1 X116.889 Y116.611 E0.2462
G1 X117.229 Y116.310 E0.2609
G1 X117.499 Y115.918 E0.2763
G1 X117.660 Y115.493 E0.2910
G1 X117.711 Y115.216 E0.3001
G1 X117.711 Y114.784 E0.3141
G1 X117.660 Y114.507 E0.3232
G1 X117.507 Y114.103 E0.3372
G1 X117.361 Y113.861 E0.3463
G1 X117.060 Y113.521 E0.3610
G1 X116.668 Y113.251 E0.3763
G1 X116.243 Y113.090 E0.3910
G1 X116.163 Y113.075 E0.3937
G1 X115.966 Y113.039 F1240
; feature outer perimeter
G1 X115.922 Y113.519 F4800
G92 E0.0000
G1 X115.578 Y113.519 E0.0112 F880
G1 X115.386 Y113.554 E0.0174
G1 X115.064 Y113.677 E0.0286
G1 X114.897 Y113.777 E0.0349
G1 X114.639 Y114.006 E0.0460
G1 X114.523 Y114.153 E0.0521
G1 X114.427 Y114.314 E0.0581
G1 X114.304 Y114.636 E0.0693
G1 X114.269 Y114.828 E0.0756
G1 X114.269 Y115.172 E0.0867
G1 X114.304 Y115.364 E0.0930
G1 X114.427 Y115.686 E0.1042
G1 X114.527 Y115.853 E0.1105
G1 X114.761 Y116.117 E0.1219
G1 X115.057 Y116.321 E0.1335
G1 X115.386 Y116.446 E0.1449
G1 X115.578 Y116.481 E0.1512
G1 X115.922 Y116.481 E0.1623
G1 X116.114 Y116.446 E0.1686
G1 X116.436 Y116.323 E0.1798
G1 X116.603 Y116.223 E0.1861
G1 X116.867 Y115.989 E0.1974
G1 X117.071 Y115.693 E0.2091
G1 X117.196 Y115.364 E0.2205
G1 X117.231 Y115.172 E0.2267
G1 X117.231 Y114.828 E0.2379
G1 X117.196 Y114.636 E0.2442
G1 X117.073 Y114.314 E0.2553
G1 X116.973 Y114.147 E0.2616
G1 X116.739 Y113.883 E0.2730
G1 X116.443 Y113.679 E0.2846
G1 X116.119 Y113.556 E0.2959
G1 X116.114 Y113.554 F880
G1 X115.922 Y113.519
; feature inner perimeter
G1 X122.289 Y114.784 F4800
G92 E0.0000
G1 X122.289 Y115.216 E0.0140 F1240
G1 X122.340 Y115.493 E0.0231
G1 X122.493 Y115.897 E0.0371
G1 X122.639 Y116.139 E0.0462
