; G-Code generated by Simplify3D(R) Version 4.1.2
; May 26, 2020 at 3:37:23 PM
; Settings Summary
;   processName,Calibration Cube
;   applyToModels,1_Z_Rod_Holder_Left,1_Z_Rod_Holder_Right
;   profileName,Anet A8 (modified)
;   profileVersion,2020-05-17 12:50:12
;   baseProfile,
;   printMaterial,PETG
;   printQuality,Medium
;   printExtruders,
;   extruderName,Primary Extruder
;   extruderToolheadNumber,0
;   extruderDiameter,0.4
;   extruderAutoWidth,1
;   extruderWidth,0.48
;   extrusionMultiplier,0.9
;   extruderUseRetract,1
;   extruderRetractionDistance,2.5
;   extruderExtraRestartDistance,-0.75
;   extruderRetractionZLift,0
;   extruderRetractionSpeed,1800
;   extruderUseCoasting,1
;   extruderCoastingDistance,0.2
;   extruderUseWipe,0
;   extruderWipeDistance,5
;   primaryExtruder,0
;   layerHeight,0.2
;   topSolidLayers,3
;   bottomSolidLayers,3
;   perimeterOutlines,2
;   printPerimetersInsideOut,1
;   startPointOption,2
;   startPointOriginX,0
;   startPointOriginY,0
;   sequentialIslands,0
;   spiralVaseMode,0
;   firstLayerHeightPercentage,90
;   firstLayerWidthPercentage,100
;   firstLayerUnderspeed,0.5
;   useRaft,0
;   raftExtruder,0
;   raftTopLayers,3
;   raftBaseLayers,2
;   raftOffset,3
;   raftSeparationDistance,0.14
;   raftTopInfill,100
;   aboveRaftSpeedMultiplier,0.3
;   useSkirt,1
;   skirtExtruder,0
;   skirtLayers,1
;   skirtOutlines,3
;   skirtOffset,5
;   usePrimePillar,0
;   primePillarExtruder,999
;   primePillarWidth,12
;   primePillarLocation,7
;   primePillarSpeedMultiplier,1
;   useOozeShield,0
;   oozeShieldExtruder,999
;   oozeShieldOffset,2
;   oozeShieldOutlines,1
;   oozeShieldSidewallShape,1
;   oozeShieldSidewallAngle,30
;   oozeShieldSpeedMultiplier,1
;   infillExtruder,0
;   internalInfillPattern,Rectilinear
;   externalInfillPattern,Rectilinear
;   infillPercentage,60
;   outlineOverlapPercentage,15
;   infillExtrusionWidthPercentage,100
;   minInfillLength,5
;   infillLayerInterval,1
;   internalInfillAngles,45,-45
;   overlapInternalInfillAngles,0
;   externalInfillAngles,45,-45
;   generateSupport,0
;   supportExtruder,0
;   supportInfillPercentage,70
;   supportExtraInflation,0
;   supportBaseLayers,0
;   denseSupportExtruder,0
;   denseSupportLayers,0
;   denseSupportInfillPercentage,70
;   supportLayerInterval,1
;   supportHorizontalPartOffset,0.3
;   supportUpperSeparationLayers,1
;   supportLowerSeparationLayers,1
;   supportType,0
;   supportGridSpacing,4
;   maxOverhangAngle,45
;   supportAngles,0
;   temperatureName,Primary Extruder,Heated Bed
;   temperatureNumber,0,0
;   temperatureSetpointCount,1,1
;   temperatureSetpointLayers,1,1
;   temperatureSetpointTemperatures,225,70
;   temperatureStabilizeAtStartup,1,1
;   temperatureHeatedBed,0,1
;   fanLayers,1,2
;   fanSpeeds,0,100
;   blipFanToFullPower,0
;   adjustSpeedForCooling,1
;   minSpeedLayerTime,15
;   minCoolingSpeedSlowdown,20
;   increaseFanForCooling,0
;   minFanLayerTime,45
;   maxCoolingFanSpeed,100
;   increaseFanForBridging,0
;   bridgingFanSpeed,100
;   use5D,1
;   relativeEdistances,0
;   allowEaxisZeroing,1
;   independentExtruderAxes,0
;   includeM10123,0
;   stickySupport,1
;   applyToolheadOffsets,0
;   gcodeXoffset,0
;   gcodeYoffset,0
;   gcodeZoffset,0
;   overrideMachineDefinition,1
;   machineTypeOverride,0
;   strokeXoverride,220
;   strokeYoverride,220
;   strokeZoverride,240
;   originOffsetXoverride,0
;   originOffsetYoverride,0
;   originOffsetZoverride,0
;   homeXdirOverride,-1
;   homeYdirOverride,-1
;   homeZdirOverride,-1
;   flipXoverride,1
;   flipYoverride,-1
;   flipZoverride,1
;   toolheadOffsets,0,0|0,0|0,0|0,0|0,0|0,0
;   overrideFirmwareConfiguration,1
;   firmwareTypeOverride,RepRap (Marlin/Repetier/Sprinter)
;   GPXconfigOverride,r2
;   baudRateOverride,115200
;   overridePrinterModels,1
;   printerModelsOverride
;   startingGcode,M107 ; fan off,G28 ; home all axes,G29 ; run auto bed leveling,M500 ; store level values in EEPROM,G1 X0 Y20 Z0.2 F3000 ; get ready to prime on lower end,; G1 X0 Y190 Z0.2 F3000 ; get ready to prime on high end,G92 E0 ; reset extrusion distance,G1 X200 E10 F600 ; prime nozzle
;   layerChangeGcode,
;   retractionGcode,
;   toolChangeGcode,
;   endingGcode,M104 S0 ; turn off extruder,M140 S0 ; turn off bed,G91 ; use relative coordinates for jogging,G1 Z20 F1000 ; raise Z by 20mm at 1000 mm/min,G90 ; switch back to absolute coordinates,G1 X0 Y200 F1000 ; prepare for part removal,M84 ; disable motors,M107 ; turn off fan
;   exportFileFormat,gcode
;   celebration,0
;   celebrationSong,Random Song
;   postProcessing,
;   defaultSpeed,3200
;   outlineUnderspeed,0.55
;   solidInfillUnderspeed,0.8
;   supportUnderspeed,0.8
;   rapidXYspeed,4800
;   rapidZspeed,1000
;   minBridgingArea,50
;   bridgingExtraInflation,0
;   bridgingExtrusionMultiplier,1
;   bridgingSpeedMultiplier,1
;   useFixedBridgingAngle,0
;   fixedBridgingAngle,0
;   applyBridgingToPerimeters,0
;   filamentDiameters,1.75|1.75|1.75|1.75|1.75|1.75
;   filamentPricesPerKg,23.99|46|46|46|46|46
;   filamentDensities,1.25|1.25|1.25|1.25|1.25|1.25
;   useMinPrintHeight,0
;   minPrintHeight,0
;   useMaxPrintHeight,0
;   maxPrintHeight,0
;   useDiaphragm,0
;   diaphragmLayerInterval,20
;   robustSlicing,1
;   mergeAllIntoSolid,0
;   onlyRetractWhenCrossingOutline,1
;   retractBetweenLayers,1
;   useRetractionMinTravel,0
;   retractionMinTravel,3
;   retractWhileWiping,0
;   onlyWipeOutlines,1
;   avoidCrossingOutline,0
;   maxMovementDetourFactor,3
;   toolChangeRetractionDistance,12
;   toolChangeExtraRestartDistance,-0.5
;   toolChangeRetractionSpeed,600
;   externalThinWallType,0
;   internalThinWallType,2
;   thinWallAllowedOverlapPercentage,10
;   singleExtrusionMinLength,1
;   singleExtrusionMinPrintingWidthPercentage,50
;   singleExtrusionMaxPrintingWidthPercentage,200
;   singleExtrusionEndpointExtension,0.2
;   horizontalSizeCompensation,0
G90
M82
M106 S0
M140 S70
M190 S70
M104 S225 T0
M109 S225 T0
M107 ; fan off
G28 ; home all axes
G29 ; run auto bed leveling
M500 ; store level values in EEPROM
G1 X0 Y20 Z0.2 F3000 ; get ready to prime on lower end
; G1 X0 Y190 Z0.2 F3000 ; get ready to prime on high end
G92 E0 ; reset extrusion distance
G1 X200 E10 F600 ; prime nozzle
; process Calibration Cube
; layer 1, Z = 0.180
T0
G92 E0.0000
G1 E-2.5000 F1800
; feature skirt
; tool H0.180 W0.480
G1 Z0.180 F1000
G1 X74.502 Y38.792 F4800
G1 E-0.7500 F1800
G92 E0.0000
G1 X78.134 Y35.161 E0.1660 F1600
G1 X99.117 Y35.161 E0.8444
G1 X101.366 Y36.077 E0.9229
G1 X145.229 Y78.941 E2.9056
G1 X146.200 Y81.248 E2.9866
G1 X146.200 Y90.068 E3.2717
G1 X142.568 Y93.700 E3.4377
G1 X106.200 Y93.700 E4.6135
G1 X106.200 Y126.300 E5.6674
G1 X142.568 Y126.300 E6.8431
G1 X146.200 Y129.932 E7.0092
G1 X146.200 Y138.752 E7.2943
G1 X145.229 Y141.059 E7.3753
G1 X101.366 Y183.923 E9.3579
G1 X99.117 Y184.839 E9.4365
G1 X78.134 Y184.839 E10.1148
G1 X74.502 Y181.208 E10.2809
G1 X74.502 Y151.435 E11.2434
G1 X73.804 Y137.737 E11.6868
G1 X73.800 Y137.579 E11.6919
G1 X73.800 Y82.421 E13.4751
G1 X73.804 Y82.263 E13.4802
G1 X74.502 Y68.565 E13.9236
G1 X74.502 Y38.792 E14.8862
G92 E0.0000
G1 E-2.5000 F1800
G1 X74.982 Y38.991 F4800
G1 E-0.7500 F1800
G92 E0.0000
G1 X78.333 Y35.641 E0.1532 F1600
G1 X99.023 Y35.641 E0.8221
G1 X101.098 Y36.486 E0.8945
G1 X144.824 Y79.216 E2.8710
G1 X145.720 Y81.345 E2.9457
G1 X145.720 Y89.869 E3.2213
G1 X142.369 Y93.220 E3.3745
G1 X105.720 Y93.220 E4.5593
G1 X105.720 Y109.869 E5.0976
G1 X105.589 Y110.000 E5.1035
G1 X105.720 Y110.131 E5.1095
G1 X105.720 Y126.780 E5.6478
G1 X142.369 Y126.780 E6.8326
G1 X145.720 Y130.131 E6.9858
G1 X145.720 Y138.655 E7.2614
G1 X144.824 Y140.784 E7.3360
G1 X101.098 Y183.514 E9.3125
G1 X99.023 Y184.359 E9.3850
G1 X78.333 Y184.359 E10.0539
G1 X74.982 Y181.009 E10.2071
G1 X74.982 Y151.423 E11.1636
G1 X74.284 Y137.718 E11.6072
G1 X74.280 Y137.573 E11.6119
G1 X74.280 Y110.131 E12.4991
G1 X74.411 Y110.000 E12.5050
G1 X74.280 Y109.869 E12.5110
G1 X74.280 Y82.427 E13.3982
G1 X74.284 Y82.282 E13.4029
G1 X74.982 Y68.577 E13.8465
G1 X74.982 Y38.991 E14.8030
G92 E0.0000
G1 E-2.5000 F1800
G1 X75.462 Y39.190 F4800
G1 E-0.7500 F1800
G92 E0.0000
G1 X78.531 Y36.121 E0.1403 F1600
G1 X98.929 Y36.121 E0.7998
G1 X100.830 Y36.895 E0.8661
G1 X144.419 Y79.492 E2.8365
G1 X145.240 Y81.442 E2.9049
G1 X145.240 Y89.670 E3.1709
G1 X142.170 Y92.740 E3.3112
G1 X105.240 Y92.740 E4.5051
G1 X105.240 Y109.670 E5.0525
G1 X104.910 Y110.000 E5.0675
G1 X105.240 Y110.330 E5.0826
G1 X105.240 Y127.260 E5.6300
G1 X142.170 Y127.260 E6.8239
G1 X145.240 Y130.330 E6.9642
G1 X145.240 Y138.558 E7.2302
G1 X144.419 Y140.508 E7.2986
G1 X100.830 Y183.105 E9.2690
G1 X98.929 Y183.879 E9.3353
G1 X78.531 Y183.879 E9.9948
G1 X75.462 Y180.810 E10.1351
G1 X75.462 Y151.410 E11.0856
G1 X74.763 Y137.700 E11.5294
G1 X74.760 Y137.567 E11.5337
G1 X74.760 Y110.330 E12.4142
G1 X75.090 Y110.000 E12.4293
G1 X74.760 Y109.670 E12.4444
G1 X74.760 Y82.433 E13.3249
G1 X74.763 Y82.300 E13.3292
G1 X75.462 Y68.590 E13.7730
G1 X75.462 Y39.190 E14.7235
G92 E0.0000
G1 E-2.5000 F1800
; feature inner perimeter
G1 X81.422 Y42.081 F4800
G1 E-0.7500 F1800
G92 E0.0000
G1 X85.702 Y42.081 E0.1384 F1240
G1 X85.702 Y49.025 E0.3629
G1 X85.485 Y49.133 E0.3707
G1 X85.160 Y49.328 E0.3830
G1 X84.856 Y49.545 E0.3950
G1 X84.561 Y49.792 E0.4075
G1 X84.290 Y50.059 E0.4198
G1 X84.041 Y50.345 E0.4320
G1 X83.819 Y50.645 E0.4441
G1 X83.618 Y50.966 E0.4563
G1 X83.443 Y51.303 E0.4686
G1 X83.294 Y51.652 E0.4809
G1 X83.174 Y52.011 E0.4931
G1 X83.082 Y52.380 E0.5054
G1 X83.020 Y52.754 E0.5177
G1 X82.987 Y53.132 E0.5299
G1 X82.984 Y53.518 E0.5424
G1 X83.011 Y53.890 E0.5545
G1 X83.067 Y54.265 E0.5667
G1 X83.154 Y54.640 E0.5792
G1 X83.267 Y54.996 E0.5913
G1 X83.410 Y55.348 E0.6035
G1 X83.583 Y55.692 E0.6160
G1 X83.776 Y56.012 E0.6281
G1 X83.997 Y56.320 E0.6403
G1 X84.246 Y56.615 E0.6528
G1 X84.508 Y56.880 E0.6649
G1 X84.795 Y57.128 E0.6771
G1 X85.106 Y57.357 E0.6896
G1 X85.423 Y57.553 E0.7017
G1 X85.760 Y57.727 E0.7139
G1 X86.116 Y57.876 E0.7264
G1 X86.470 Y57.993 E0.7385
G1 X86.839 Y58.084 E0.7507
G1 X87.219 Y58.146 E0.7632
G1 X87.591 Y58.176 E0.7752
G1 X87.970 Y58.178 E0.7875
G1 X88.349 Y58.150 E0.7998
G1 X88.724 Y58.092 E0.8121
G1 X89.099 Y58.003 E0.8245
G1 X89.454 Y57.889 E0.8366
G1 X89.805 Y57.745 E0.8488
G1 X90.144 Y57.574 E0.8611
G1 X90.468 Y57.377 E0.8734
G1 X90.780 Y57.151 E0.8858
G1 X91.065 Y56.909 E0.8979
G1 X91.334 Y56.641 E0.9102
G1 X91.585 Y56.348 E0.9226
G1 X91.804 Y56.047 E0.9347
G1 X92.004 Y55.724 E0.9470
G1 X92.179 Y55.380 E0.9594
G1 X92.322 Y55.036 E0.9715
G1 X92.440 Y54.675 E0.9838
G1 X92.530 Y54.300 E0.9962
G1 X92.588 Y53.932 E1.0083
G1 X92.619 Y53.554 E1.0206
G1 X92.619 Y53.174 E1.0328
G1 X92.589 Y52.796 E1.0451
G1 X92.530 Y52.421 E1.0574
G1 X92.442 Y52.052 E1.0696
G1 X92.324 Y51.691 E1.0819
G1 X92.179 Y51.341 E1.0941
G1 X92.010 Y51.009 E1.1062
G1 X91.809 Y50.680 E1.1187
G1 X91.585 Y50.373 E1.1309
G1 X91.338 Y50.085 E1.1432
G1 X91.070 Y49.817 E1.1555
G1 X90.781 Y49.571 E1.1677
G1 X90.474 Y49.348 E1.1800
G1 X90.155 Y49.154 E1.1921
G1 X89.934 Y49.041 E1.2001
G1 X89.934 Y42.081 E1.4251
G1 X97.609 Y42.081 E1.6732
G1 X139.280 Y82.803 E3.5569
G1 X139.280 Y86.780 E3.6855
G1 X99.280 Y86.780 E4.9786
G1 X99.280 Y106.780 E5.6252
G1 X80.720 Y106.780 E6.2252
G1 X80.720 Y82.518 E7.0096
G1 X81.422 Y68.741 E7.4555
G1 X81.422 Y42.281 E8.3110
G1 X81.422 Y42.081 F1240
; feature outer perimeter
G1 X80.942 Y41.601 F4800
G92 E0.0000
G1 X86.182 Y41.601 E0.1694 F880
G1 X86.182 Y49.338 E0.4195
G1 X86.022 Y49.402 E0.4251
G1 X85.716 Y49.554 E0.4362
G1 X85.423 Y49.730 E0.4472
G1 X85.150 Y49.925 E0.4581
G1 X84.883 Y50.148 E0.4693
G1 X84.640 Y50.388 E0.4803
G1 X84.416 Y50.646 E0.4914
G1 X84.216 Y50.915 E0.5022
G1 X84.035 Y51.205 E0.5133
G1 X83.877 Y51.508 E0.5243
G1 X83.744 Y51.822 E0.5354
G1 X83.635 Y52.146 E0.5464
G1 X83.553 Y52.477 E0.5574
G1 X83.496 Y52.814 E0.5685
G1 X83.467 Y53.155 E0.5795
G1 X83.464 Y53.502 E0.5908
G1 X83.488 Y53.837 E0.6016
G1 X83.539 Y54.175 E0.6127
G1 X83.618 Y54.513 E0.6239
G1 X83.719 Y54.833 E0.6347
G1 X83.848 Y55.150 E0.6458
G1 X84.004 Y55.460 E0.6570
G1 X84.177 Y55.748 E0.6679
G1 X84.376 Y56.025 E0.6789
G1 X84.600 Y56.291 E0.6901
G1 X84.836 Y56.529 E0.7010
G1 X85.095 Y56.753 E0.7120
G1 X85.375 Y56.958 E0.7233
G1 X85.660 Y57.135 E0.7341
G1 X85.964 Y57.292 E0.7452
G1 X86.284 Y57.426 E0.7564
G1 X86.603 Y57.532 E0.7673
G1 X86.935 Y57.613 E0.7783
G1 X87.278 Y57.669 E0.7895
G1 X87.612 Y57.697 E0.8004
G1 X87.954 Y57.698 E0.8114
G1 X88.294 Y57.673 E0.8225
G1 X88.632 Y57.621 E0.8335
G1 X88.970 Y57.540 E0.8448
G1 X89.290 Y57.438 E0.8556
G1 X89.606 Y57.308 E0.8666
G1 X89.910 Y57.154 E0.8777
G1 X90.202 Y56.976 E0.8887
G1 X90.484 Y56.773 E0.9000
G1 X90.740 Y56.555 E0.9108
G1 X90.982 Y56.314 E0.9219
G1 X91.208 Y56.050 E0.9331
G1 X91.406 Y55.779 E0.9439
G1 X91.585 Y55.488 E0.9550
G1 X91.743 Y55.179 E0.9662
G1 X91.872 Y54.869 E0.9771
G1 X91.978 Y54.544 E0.9881
G1 X92.059 Y54.206 E0.9994
G1 X92.112 Y53.875 E1.0102
G1 X92.139 Y53.534 E1.0212
G1 X92.139 Y53.193 E1.0323
G1 X92.112 Y52.852 E1.0433
G1 X92.059 Y52.515 E1.0544
G1 X91.979 Y52.183 E1.0654
G1 X91.874 Y51.858 E1.0765
G1 X91.743 Y51.542 E1.0875
G1 X91.590 Y51.243 E1.0984
G1 X91.409 Y50.947 E1.1096
G1 X91.208 Y50.671 E1.1206
G1 X90.986 Y50.411 E1.1317
G1 X90.744 Y50.170 E1.1427
G1 X90.484 Y49.948 E1.1538
G1 X90.207 Y49.748 E1.1648
G1 X89.921 Y49.573 E1.1757
G1 X89.611 Y49.416 E1.1869
G1 X89.454 Y49.351 E1.1924
G1 X89.454 Y41.601 E1.4430
G1 X97.804 Y41.601 E1.7129
G1 X139.760 Y82.601 E3.6094
G1 X139.760 Y87.260 E3.7600
G1 X99.760 Y87.260 E5.0532
G1 X99.760 Y107.260 E5.6998
G1 X80.240 Y107.260 E6.3308
G1 X80.240 Y82.506 E7.1311
G1 X80.942 Y68.729 E7.5771
G1 X80.942 Y41.801 E8.4476
G1 X80.942 Y41.601 F880
G92 E0.0000
G1 E-2.5000 F1800
; feature inner perimeter
G1 X97.239 Y49.137 F4800
G1 E-0.7500 F1800
G92 E0.0000
G1 X97.182 Y49.479 E0.0112 F1240
G1 X97.189 Y77.874 E0.9292
G1 X97.261 Y78.142 E0.9382
G1 X97.443 Y78.466 E0.9502
G1 X97.729 Y78.720 E0.9625
G1 X97.967 Y78.841 E0.9712
G1 X98.330 Y78.923 E0.9832
G1 X98.752 Y78.876 E0.9969
G1 X99.126 Y78.690 E1.0105
G1 X113.394 Y64.100 E1.6702
G1 X113.601 Y63.795 E1.6821
G1 X113.704 Y63.381 E1.6959
G1 X113.666 Y62.998 E1.7083
G1 X113.570 Y62.740 E1.7172
G1 X113.375 Y62.466 E1.7281
G1 X99.210 Y48.623 E2.3684
G1 X98.926 Y48.427 E2.3796
G1 X98.558 Y48.323 E2.3920
G1 X98.284 Y48.320 E2.4008
G1 X97.925 Y48.406 E2.4127
G1 X97.612 Y48.603 E2.4247
G1 X97.423 Y48.801 E2.4335
G1 X97.335 Y48.962 E2.4395
G1 X97.239 Y49.137 F1240
; feature outer perimeter
G1 X97.699 Y49.296 F4800
G92 E0.0000
G1 X97.662 Y49.519 E0.0073 F880
G1 X97.669 Y77.811 E0.9219
G1 X97.709 Y77.959 E0.9269
G1 X97.822 Y78.161 E0.9344
G1 X98.001 Y78.320 E0.9421
G1 X98.131 Y78.387 E0.9469
G1 X98.357 Y78.437 E0.9543
G1 X98.614 Y78.409 E0.9627
G1 X98.840 Y78.297 E0.9709
G1 X113.021 Y63.795 E1.6266
G1 X113.156 Y63.596 E1.6343
G1 X113.218 Y63.346 E1.6427
G1 X113.194 Y63.107 E1.6504
G1 X113.142 Y62.966 E1.6553
G1 X113.009 Y62.779 E1.6627
G1 X98.903 Y48.995 E2.3003
G1 X98.719 Y48.867 E2.3076
G1 X98.489 Y48.802 E2.3153
G1 X98.338 Y48.801 E2.3202
G1 X98.114 Y48.854 E2.3277
G1 X97.918 Y48.977 E2.3351
G1 X97.814 Y49.086 E2.3400
G1 X97.795 Y49.121 E2.3413
G1 X97.699 Y49.296 F880
G92 E0.0000
G1 E-2.5000 F1800
; feature inner perimeter
G1 X116.046 Y66.490 F4800
G1 E-0.7500 F1800
G92 E0.0000
G1 X101.669 Y81.192 E0.6648 F1240
G1 X101.469 Y81.485 E0.6763
G1 X101.370 Y81.842 E0.6883
G1 X101.364 Y82.107 E0.6968
G1 X101.451 Y82.477 E0.7091
G1 X101.655 Y82.798 E0.7214
G1 X101.849 Y82.979 E0.7300
G1 X102.174 Y83.159 E0.7420
G1 X102.522 Y83.220 E0.7534
G1 X131.683 Y83.220 E1.6962
G1 X132.037 Y83.156 E1.7078
G1 X132.362 Y82.974 E1.7198
G1 X132.556 Y82.790 E1.7285
G1 X132.759 Y82.464 E1.7409
G1 X132.841 Y82.089 E1.7533
G1 X132.831 Y81.822 E1.7619
G1 X132.726 Y81.466 E1.7739
G1 X132.518 Y81.172 E1.7856
G1 X117.574 Y66.569 E2.4610
G1 X117.269 Y66.363 E2.4730
G1 X116.854 Y66.259 E2.4868
G1 X116.428 Y66.304 E2.5006
G1 X116.226 Y66.402 E2.5079
G1 X116.046 Y66.490 F1240
; feature outer perimeter
G1 X116.331 Y66.885 F4800
