; G-Code generated by Simplify3D(R) Version 4.1.2
; May 11, 2020 at 11:26:51 AM
; Settings Summary
;   processName,Calibration Cube
;   applyToModels,xyzCalibration_cube
;   profileName,Anet A8 (modified)
;   profileVersion,2016-11-25 08:00:00
;   baseProfile,
;   printMaterial,PLA
;   printQuality,High
;   printExtruders,
;   extruderName,Primary Extruder
;   extruderToolheadNumber,0
;   extruderDiameter,0.4
;   extruderAutoWidth,0
;   extruderWidth,0.1
;   extrusionMultiplier,0.9
;   extruderUseRetract,1
;   extruderRetractionDistance,2.5
;   extruderExtraRestartDistance,0
;   extruderRetractionZLift,0
;   extruderRetractionSpeed,1800
;   extruderUseCoasting,0
;   extruderCoastingDistance,0.2
;   extruderUseWipe,0
;   extruderWipeDistance,5
;   primaryExtruder,0
;   layerHeight,0.1
;   topSolidLayers,4
;   bottomSolidLayers,4
;   perimeterOutlines,2
;   printPerimetersInsideOut,1
;   startPointOption,2
;   startPointOriginX,0
;   startPointOriginY,0
;   sequentialIslands,0
;   spiralVaseMode,0
;   firstLayerHeightPercentage,90
;   firstLayerWidthPercentage,100
;   firstLayerUnderspeed,0.5
;   useRaft,0
;   raftExtruder,0
;   raftTopLayers,3
;   raftBaseLayers,2
;   raftOffset,3
;   raftSeparationDistance,0.14
;   raftTopInfill,100
;   aboveRaftSpeedMultiplier,0.3
;   useSkirt,1
;   skirtExtruder,0
;   skirtLayers,4
;   skirtOutlines,2
;   skirtOffset,4
;   usePrimePillar,0
;   primePillarExtruder,999
;   primePillarWidth,12
;   primePillarLocation,7
;   primePillarSpeedMultiplier,1
;   useOozeShield,0
;   oozeShieldExtruder,999
;   oozeShieldOffset,2
;   oozeShieldOutlines,1
;   oozeShieldSidewallShape,1
;   oozeShieldSidewallAngle,30
;   oozeShieldSpeedMultiplier,1
;   infillExtruder,0
;   internalInfillPattern,Rectilinear
;   externalInfillPattern,Rectilinear
;   infillPercentage,30
;   outlineOverlapPercentage,15
;   infillExtrusionWidthPercentage,100
;   minInfillLength,5
;   infillLayerInterval,1
;   internalInfillAngles,45,-45
;   overlapInternalInfillAngles,0
;   externalInfillAngles,45,-45
;   generateSupport,0
;   supportExtruder,0
;   supportInfillPercentage,40
;   supportExtraInflation,0
;   supportBaseLayers,0
;   denseSupportExtruder,0
;   denseSupportLayers,0
;   denseSupportInfillPercentage,70
;   supportLayerInterval,1
;   supportHorizontalPartOffset,0.3
;   supportUpperSeparationLayers,1
;   supportLowerSeparationLayers,1
;   supportType,0
;   supportGridSpacing,4
;   maxOverhangAngle,45
;   supportAngles,0
;   temperatureName,Primary Extruder,Heated Bed
;   temperatureNumber,0,0
;   temperatureSetpointCount,1,1
;   temperatureSetpointLayers,1,1
;   temperatureSetpointTemperatures,200,60
;   temperatureStabilizeAtStartup,1,1
;   temperatureHeatedBed,0,1
;   fanLayers,1,2,4
;   fanSpeeds,0,50,100
;   blipFanToFullPower,0
;   adjustSpeedForCooling,1
;   minSpeedLayerTime,15
;   minCoolingSpeedSlowdown,20
;   increaseFanForCooling,0
;   minFanLayerTime,45
;   maxCoolingFanSpeed,100
;   increaseFanForBridging,0
;   bridgingFanSpeed,100
;   use5D,1
;   relativeEdistances,0
;   allowEaxisZeroing,1
;   independentExtruderAxes,0
;   includeM10123,0
;   stickySupport,1
;   applyToolheadOffsets,0
;   gcodeXoffset,0
;   gcodeYoffset,0
;   gcodeZoffset,0
;   overrideMachineDefinition,1
;   machineTypeOverride,0
;   strokeXoverride,220
;   strokeYoverride,220
;   strokeZoverride,240
;   originOffsetXoverride,0
;   originOffsetYoverride,0
;   originOffsetZoverride,0
;   homeXdirOverride,-1
;   homeYdirOverride,-1
;   homeZdirOverride,-1
;   flipXoverride,1
;   flipYoverride,-1
;   flipZoverride,1
;   toolheadOffsets,0,0|0,0|0,0|0,0|0,0|0,0
;   overrideFirmwareConfiguration,1
;   firmwareTypeOverride,RepRap (Marlin/Repetier/Sprinter)
;   GPXconfigOverride,r2
;   baudRateOverride,115200
;   overridePrinterModels,1
;   printerModelsOverride
;   startingGcode,G28 ; home all axes,G1 X0 Y20 Z0.2 F3000 ; get ready to prime,G92 E0 ; reset extrusion distance,G1 X200 E20 F600 ; prime nozzle
;   layerChangeGcode,
;   retractionGcode,
;   toolChangeGcode,
;   endingGcode,M104 S0 ; turn off extruder,M140 S0 ; turn off bed,G1 X0 Y200 F1000 ; prepare for part removal,M84 ; disable motors
;   exportFileFormat,gcode
;   celebration,0
;   celebrationSong,Random Song
;   postProcessing,
;   defaultSpeed,3600
;   outlineUnderspeed,0.5
;   solidInfillUnderspeed,0.8
;   supportUnderspeed,0.8
;   rapidXYspeed,4800
;   rapidZspeed,1000
;   minBridgingArea,50
;   bridgingExtraInflation,0
;   bridgingExtrusionMultiplier,1
;   bridgingSpeedMultiplier,1
;   useFixedBridgingAngle,0
;   fixedBridgingAngle,0
;   applyBridgingToPerimeters,0
;   filamentDiameters,1.75|1.75|1.75|1.75|1.75|1.75
;   filamentPricesPerKg,46|46|46|46|46|46
;   filamentDensities,1.25|1.25|1.25|1.25|1.25|1.25
;   useMinPrintHeight,0
;   minPrintHeight,0
;   useMaxPrintHeight,0
;   maxPrintHeight,0
;   useDiaphragm,0
;   diaphragmLayerInterval,20
;   robustSlicing,1
;   mergeAllIntoSolid,0
;   onlyRetractWhenCrossingOutline,1
;   retractBetweenLayers,1
;   useRetractionMinTravel,0
;   retractionMinTravel,3
;   retractWhileWiping,0
;   onlyWipeOutlines,1
;   avoidCrossingOutline,0
;   maxMovementDetourFactor,3
;   toolChangeRetractionDistance,12
;   toolChangeExtraRestartDistance,-0.5
;   toolChangeRetractionSpeed,600
;   externalThinWallType,0
;   internalThinWallType,2
;   thinWallAllowedOverlapPercentage,10
;   singleExtrusionMinLength,1
;   singleExtrusionMinPrintingWidthPercentage,50
;   singleExtrusionMaxPrintingWidthPercentage,200
;   singleExtrusionEndpointExtension,0.2
;   horizontalSizeCompensation,0
G90
M82
M106 S0
M140 S60
M190 S60
M104 S200 T0
M109 S200 T0
G28 ; home all axes
G1 X0 Y20 Z0.2 F3000 ; get ready to prime
G92 E0 ; reset extrusion distance
G1 X200 E20 F600 ; prime nozzle
; process Calibration Cube
; layer 1, Z = 0.090
T0
G92 E0.0000
G1 E-2.5000 F1800
; feature skirt
; tool H0.090 W0.100
G1 Z0.090 F1000
G1 X95.850 Y98.281 F4800
G1 E0.0000 F1800
G92 E0.0000
G1 X98.281 Y95.850 E0.0116 F1800
G1 X121.719 Y95.850 E0.0905
G1 X124.150 Y98.281 E0.1021
G1 X124.150 Y121.719 E0.1810
G1 X121.719 Y124.150 E0.1926
G1 X98.281 Y124.150 E0.2715
G1 X95.850 Y121.719 E0.2831
G1 X95.850 Y98.281 E0.3620
G92 E0.0000
G1 E-2.5000 F1800
G1 X95.950 Y98.322 F4800
G1 E0.0000 F1800
G92 E0.0000
G1 X98.322 Y95.950 E0.0113 F1800
G1 X121.678 Y95.950 E0.0899
G1 X124.050 Y98.322 E0.1012
G1 X124.050 Y121.678 E0.1799
G1 X121.678 Y124.050 E0.1912
G1 X98.322 Y124.050 E0.2698
G1 X95.950 Y121.678 E0.2811
G1 X95.950 Y98.322 E0.3598
G92 E0.0000
G1 E-2.5000 F1800
; feature inner perimeter
G1 X100.150 Y100.150 F4800
G1 E0.0000 F1800
G92 E0.0000
G1 X119.850 Y100.150 E0.0663 F1350
G1 X119.850 Y119.850 E0.1327
G1 X100.150 Y119.850 E0.1990
G1 X100.150 Y100.150 E0.2654
; feature outer perimeter
G1 X100.050 Y100.050 F4800
G92 E0.0000
G1 X119.950 Y100.050 E0.0670 F900
G1 X119.950 Y119.950 E0.1340
G1 X100.050 Y119.950 E0.2010
G1 X100.050 Y100.050 E0.2681
; feature solid layer
G1 X119.751 Y100.235 F4800
G92 E0.0000
G1 X119.765 Y100.249 E0.0001 F1440
G1 X119.765 Y100.390 E0.0005
G1 X119.610 Y100.235 E0.0013
G1 X119.468 Y100.235 E0.0018
G1 X119.765 Y100.532 E0.0032
G1 X119.765 Y100.673 E0.0036
G1 X119.327 Y100.235 E0.0057
G1 X119.185 Y100.235 E0.0062
G1 X119.765 Y100.815 E0.0090
G1 X119.765 Y100.956 E0.0094
G1 X119.044 Y100.235 E0.0129
G1 X118.903 Y100.235 E0.0134
G1 X119.765 Y101.097 E0.0175
G1 X119.765 Y101.239 E0.0179
G1 X118.761 Y100.235 E0.0227
G1 X118.620 Y100.235 E0.0232
G1 X119.765 Y101.380 E0.0286
G1 X119.765 Y101.522 E0.0291
G1 X118.478 Y100.235 E0.0353
G1 X118.337 Y100.235 E0.0357
G1 X119.765 Y101.663 E0.0425
G1 X119.765 Y101.804 E0.0430
G1 X118.196 Y100.235 E0.0505
G1 X118.054 Y100.235 E0.0510
G1 X119.765 Y101.946 E0.0591
G1 X119.765 Y102.087 E0.0596
G1 X117.913 Y100.235 E0.0684
G1 X117.771 Y100.235 E0.0689
G1 X119.765 Y102.229 E0.0784
G1 X119.765 Y102.370 E0.0789
G1 X117.630 Y100.235 E0.0890
G1 X117.488 Y100.235 E0.0895
G1 X119.765 Y102.512 E0.1003
G1 X119.765 Y102.653 E0.1008
G1 X117.347 Y100.235 E0.1123
G1 X117.206 Y100.235 E0.1128
G1 X119.765 Y102.794 E0.1250
G1 X119.765 Y102.936 E0.1255
G1 X117.064 Y100.235 E0.1383
G1 X116.923 Y100.235 E0.1388
G1 X119.765 Y103.077 E0.1523
G1 X119.765 Y103.219 E0.1528
G1 X116.781 Y100.235 E0.1670
G1 X116.640 Y100.235 E0.1675
G1 X119.765 Y103.360 E0.1824
G1 X119.765 Y103.502 E0.1829
G1 X116.498 Y100.235 E0.1984
G1 X116.357 Y100.235 E0.1989
G1 X119.765 Y103.643 E0.2151
G1 X119.765 Y103.784 E0.2156
G1 X116.216 Y100.235 E0.2325
G1 X116.074 Y100.235 E0.2330
G1 X119.765 Y103.926 E0.2506
G1 X119.765 Y104.067 E0.2510
G1 X115.933 Y100.235 E0.2693
G1 X115.791 Y100.235 E0.2698
G1 X119.765 Y104.209 E0.2887
G1 X119.765 Y104.350 E0.2892
G1 X115.650 Y100.235 E0.3088
G1 X115.509 Y100.235 E0.3092
G1 X119.765 Y104.491 E0.3295
G1 X119.765 Y104.633 E0.3300
G1 X115.367 Y100.235 E0.3509
G1 X115.226 Y100.235 E0.3514
G1 X119.765 Y104.774 E0.3730
G1 X119.765 Y104.916 E0.3735
G1 X115.084 Y100.235 E0.3958
G1 X114.943 Y100.235 E0.3963
G1 X119.765 Y105.057 E0.4192
G1 X119.765 Y105.199 E0.4197
G1 X114.801 Y100.235 E0.4434
G1 X114.660 Y100.235 E0.4438
G1 X119.765 Y105.340 E0.4681
G1 X119.765 Y105.481 E0.4686
G1 X114.519 Y100.235 E0.4936
G1 X114.377 Y100.235 E0.4941
G1 X119.765 Y105.623 E0.5197
G1 X119.765 Y105.764 E0.5202
G1 X114.236 Y100.235 E0.5466
G1 X114.094 Y100.235 E0.5470
G1 X119.765 Y105.906 E0.5740
G1 X119.765 Y106.047 E0.5745
G1 X113.953 Y100.235 E0.6022
G1 X113.811 Y100.235 E0.6027
G1 X119.765 Y106.189 E0.6310
G1 X119.765 Y106.330 E0.6315
G1 X113.670 Y100.235 E0.6605
G1 X113.529 Y100.235 E0.6610
G1 X119.765 Y106.471 E0.6907
G1 X119.765 Y106.613 E0.6912
G1 X113.387 Y100.235 E0.7216
G1 X113.246 Y100.235 E0.7220
G1 X119.765 Y106.754 E0.7531
G1 X119.765 Y106.896 E0.7536
G1 X113.104 Y100.235 E0.7853
G1 X112.963 Y100.235 E0.7858
G1 X119.765 Y107.037 E0.8181
G1 X119.765 Y107.178 E0.8186
G1 X112.822 Y100.235 E0.8517
G1 X112.680 Y100.235 E0.8522
G1 X119.765 Y107.320 E0.8859
G1 X119.765 Y107.461 E0.8864
G1 X112.539 Y100.235 E0.9208
G1 X112.397 Y100.235 E0.9213
G1 X119.765 Y107.603 E0.9564
G1 X119.765 Y107.744 E0.9568
G1 X112.256 Y100.235 E0.9926
G1 X112.114 Y100.235 E0.9931
G1 X119.765 Y107.886 E1.0295
G1 X119.765 Y108.027 E1.0300
G1 X111.973 Y100.235 E1.0671
G1 X111.832 Y100.235 E1.0676
G1 X119.765 Y108.168 E1.1054
G1 X119.765 Y108.310 E1.1058
G1 X111.690 Y100.235 E1.1443
G1 X111.549 Y100.235 E1.1448
G1 X119.765 Y108.451 E1.1839
G1 X119.765 Y108.593 E1.1844
G1 X111.407 Y100.235 E1.2242
G1 X111.266 Y100.235 E1.2247
G1 X119.765 Y108.734 E1.2651
G1 X119.765 Y108.876 E1.2656
G1 X111.124 Y100.235 E1.3068
G1 X110.983 Y100.235 E1.3072
G1 X119.765 Y109.017 E1.3491
G1 X119.765 Y109.158 E1.3495
G1 X110.842 Y100.235 E1.3920
G1 X110.700 Y100.235 E1.3925
G1 X119.765 Y109.300 E1.4357
G1 X119.765 Y109.441 E1.4362
G1 X110.559 Y100.235 E1.4800
G1 X110.417 Y100.235 E1.4805
G1 X119.765 Y109.583 E1.5250
G1 X119.765 Y109.724 E1.5255
G1 X110.276 Y100.235 E1.5707
G1 X110.135 Y100.235 E1.5711
G1 X119.765 Y109.865 E1.6170
G1 X119.765 Y110.007 E1.6175
G1 X109.993 Y100.235 E1.6640
G1 X109.852 Y100.235 E1.6645
G1 X119.765 Y110.148 E1.7117
G1 X119.765 Y110.290 E1.7122
G1 X109.710 Y100.235 E1.7601
G1 X109.569 Y100.235 E1.7605
G1 X119.765 Y110.431 E1.8091
G1 X119.765 Y110.573 E1.8096
G1 X109.427 Y100.235 E1.8588
G1 X109.286 Y100.235 E1.8593
G1 X119.765 Y110.714 E1.9092
G1 X119.765 Y110.855 E1.9097
G1 X109.145 Y100.235 E1.9603
G1 X109.003 Y100.235 E1.9607
G1 X119.765 Y110.997 E2.0120
G1 X119.765 Y111.138 E2.0125
G1 X108.862 Y100.235 E2.0644
G1 X108.720 Y100.235 E2.0649
G1 X119.765 Y111.280 E2.1175
G1 X119.765 Y111.421 E2.1179
G1 X108.579 Y100.235 E2.1712
G1 X108.437 Y100.235 E2.1717
G1 X119.765 Y111.563 E2.2256
G1 X119.765 Y111.704 E2.2261
G1 X108.296 Y100.235 E2.2807
G1 X108.155 Y100.235 E2.2812
G1 X119.765 Y111.845 E2.3365
G1 X119.765 Y111.987 E2.3370
G1 X108.013 Y100.235 E2.3929
G1 X107.872 Y100.235 E2.3934
G1 X119.765 Y112.128 E2.4501
G1 X119.765 Y112.270 E2.4505
G1 X107.730 Y100.235 E2.5079
G1 X107.589 Y100.235 E2.5083
G1 X119.765 Y112.411 E2.5663
G1 X119.765 Y112.552 E2.5668
G1 X107.448 Y100.235 E2.6255
G1 X107.306 Y100.235 E2.6259
G1 X119.765 Y112.694 E2.6853
G1 X119.765 Y112.835 E2.6857
G1 X107.165 Y100.235 E2.7458
G1 X107.023 Y100.235 E2.7462
G1 X119.765 Y112.977 E2.8069
G1 X119.765 Y113.118 E2.8074
G1 X106.882 Y100.235 E2.8687
G1 X106.740 Y100.235 E2.8692
G1 X119.765 Y113.260 E2.9313
G1 X119.765 Y113.401 E2.9317
G1 X106.599 Y100.235 E2.9944
G1 X106.458 Y100.235 E2.9949
G1 X119.765 Y113.542 E3.0583
G1 X119.765 Y113.684 E3.0588
G1 X106.316 Y100.235 E3.1228
G1 X106.175 Y100.235 E3.1233
G1 X119.765 Y113.825 E3.1880
G1 X119.765 Y113.967 E3.1885
G1 X106.033 Y100.235 E3.2539
G1 X105.892 Y100.235 E3.2544
G1 X119.765 Y114.108 E3.3204
G1 X119.765 Y114.250 E3.3209
G1 X105.750 Y100.235 E3.3877
G1 X105.609 Y100.235 E3.3881
G1 X119.765 Y114.391 E3.4555
G1 X119.765 Y114.532 E3.4560
G1 X105.468 Y100.235 E3.5241
G1 X105.326 Y100.235 E3.5246
G1 X119.765 Y114.674 E3.5934
G1 X119.765 Y114.815 E3.5938
G1 X105.185 Y100.235 E3.6633
G1 X105.043 Y100.235 E3.6637
G1 X119.765 Y114.957 E3.7339
G1 X119.765 Y115.098 E3.7343
G1 X104.902 Y100.235 E3.8051
G1 X104.760 Y100.235 E3.8056
G1 X119.765 Y115.240 E3.8771
G1 X119.765 Y115.381 E3.8775
G1 X104.619 Y100.235 E3.9497
G1 X104.478 Y100.235 E3.9501
G1 X119.765 Y115.522 E4.0229
G1 X119.765 Y115.664 E4.0234
G1 X104.336 Y100.235 E4.0969
G1 X104.195 Y100.235 E4.0974
G1 X119.765 Y115.805 E4.1715
G1 X119.765 Y115.947 E4.1720
G1 X104.053 Y100.235 E4.2468
G1 X103.912 Y100.235 E4.2473
G1 X119.765 Y116.088 E4.3228
G1 X119.765 Y116.229 E4.3233
G1 X103.771 Y100.235 E4.3995
G1 X103.629 Y100.235 E4.3999
G1 X119.765 Y116.371 E4.4768
G1 X119.765 Y116.512 E4.4773
G1 X103.488 Y100.235 E4.5548
G1 X103.346 Y100.235 E4.5553
G1 X119.765 Y116.654 E4.6334
G1 X119.765 Y116.795 E4.6339
G1 X103.205 Y100.235 E4.7128
G1 X103.063 Y100.235 E4.7133
G1 X119.765 Y116.937 E4.7928
G1 X119.765 Y117.078 E4.7933
G1 X102.922 Y100.235 E4.8735
G1 X102.781 Y100.235 E4.8740
G1 X119.765 Y117.219 E4.9549
G1 X119.765 Y117.361 E4.9553
G1 X102.639 Y100.235 E5.0369
G1 X102.498 Y100.235 E5.0374
G1 X119.765 Y117.502 E5.1196
G1 X119.765 Y117.644 E5.1201
G1 X102.356 Y100.235 E5.2030
G1 X102.215 Y100.235 E5.2035
G1 X119.765 Y117.785 E5.2871
G1 X119.765 Y117.927 E5.2875
G1 X102.073 Y100.235 E5.3718
G1 X101.932 Y100.235 E5.3723
G1 X119.765 Y118.068 E5.4572
G1 X119.765 Y118.209 E5.4577
G1 X101.791 Y100.235 E5.5433
G1 X101.649 Y100.235 E5.5437
G1 X119.765 Y118.351 E5.6300
G1 X119.765 Y118.492 E5.6305
G1 X101.508 Y100.235 E5.7175
G1 X101.366 Y100.235 E5.7179
G1 X119.765 Y118.634 E5.8056
G1 X119.765 Y118.775 E5.8060
G1 X101.225 Y100.235 E5.8943
G1 X101.084 Y100.235 E5.8948
G1 X119.765 Y118.916 E5.9838
G1 X119.765 Y119.058 E5.9842
G1 X100.942 Y100.235 E6.0739
G1 X100.801 Y100.235 E6.0744
G1 X119.765 Y119.199 E6.1647
G1 X119.765 Y119.341 E6.1652
G1 X100.659 Y100.235 E6.2562
G1 X100.518 Y100.235 E6.2566
G1 X119.765 Y119.482 E6.3483
G1 X119.765 Y119.624 E6.3488
G1 X100.376 Y100.235 E6.4411
G1 X100.235 Y100.235 E6.4416
G1 X119.765 Y119.765 E6.5346
G1 X119.624 Y119.765 E6.5351
G1 X100.235 Y100.376 E6.6274
G1 X100.235 Y100.518 E6.6279
G1 X119.482 Y119.765 E6.7195
G1 X119.341 Y119.765 E6.7200
G1 X100.235 Y100.659 E6.8110
G1 X100.235 Y100.801 E6.8115
G1 X119.199 Y119.765 E6.9018
G1 X119.058 Y119.765 E6.9023
G1 X100.235 Y100.942 E6.9919
G1 X100.235 Y101.084 E6.9924
G1 X118.916 Y119.765 E7.0814
G1 X118.775 Y119.765 E7.0819
G1 X100.235 Y101.225 E7.1701
G1 X100.235 Y101.366 E7.1706
G1 X118.634 Y119.765 E7.2582
G1 X118.492 Y119.765 E7.2587
G1 X100.235 Y101.508 E7.3457
G1 X100.235 Y101.649 E7.3462
G1 X118.351 Y119.765 E7.4324
G1 X118.209 Y119.765 E7.4329
G1 X100.235 Y101.791 E7.5185
G1 X100.235 Y101.932 E7.5190
G1 X118.068 Y119.765 E7.6039
G1 X117.927 Y119.765 E7.6044
G1 X100.235 Y102.073 E7.6886
G1 X100.235 Y102.215 E7.6891
G1 X117.785 Y119.765 E7.7727
G1 X117.644 Y119.765 E7.7732
G1 X100.235 Y102.356 E7.8561
G1 X100.235 Y102.498 E7.8566
G1 X117.502 Y119.765 E7.9388
G1 X117.361 Y119.765 E7.9393
G1 X100.235 Y102.639 E8.0208
