; G-Code generated by Simplify3D(R) Version 4.1.2
; May 15, 2020 at 1:41:53 PM
; Settings Summary
;   processName,Calibration Cube
;   applyToModels,xyzCalibration_cube
;   profileName,Anet A8 (PETG) (modified)
;   profileVersion,2020-05-14 22:37:00
;   baseProfile,Anet A8 (modified)
;   printMaterial,PLA
;   printQuality,Fast
;   printExtruders,
;   extruderName,Primary Extruder
;   extruderToolheadNumber,0
;   extruderDiameter,0.4
;   extruderAutoWidth,1
;   extruderWidth,0.48
;   extrusionMultiplier,0.9
;   extruderUseRetract,1
;   extruderRetractionDistance,2.5
;   extruderExtraRestartDistance,0
;   extruderRetractionZLift,0
;   extruderRetractionSpeed,1800
;   extruderUseCoasting,0
;   extruderCoastingDistance,0.2
;   extruderUseWipe,0
;   extruderWipeDistance,5
;   primaryExtruder,0
;   layerHeight,0.2
;   topSolidLayers,3
;   bottomSolidLayers,3
;   perimeterOutlines,2
;   printPerimetersInsideOut,1
;   startPointOption,2
;   startPointOriginX,0
;   startPointOriginY,0
;   sequentialIslands,0
;   spiralVaseMode,0
;   firstLayerHeightPercentage,90
;   firstLayerWidthPercentage,100
;   firstLayerUnderspeed,0.5
;   useRaft,0
;   raftExtruder,0
;   raftTopLayers,3
;   raftBaseLayers,2
;   raftOffset,3
;   raftSeparationDistance,0.14
;   raftTopInfill,100
;   aboveRaftSpeedMultiplier,0.3
;   useSkirt,1
;   skirtExtruder,0
;   skirtLayers,1
;   skirtOutlines,5
;   skirtOffset,4
;   usePrimePillar,0
;   primePillarExtruder,999
;   primePillarWidth,12
;   primePillarLocation,7
;   primePillarSpeedMultiplier,1
;   useOozeShield,0
;   oozeShieldExtruder,999
;   oozeShieldOffset,2
;   oozeShieldOutlines,1
;   oozeShieldSidewallShape,1
;   oozeShieldSidewallAngle,30
;   oozeShieldSpeedMultiplier,1
;   infillExtruder,0
;   internalInfillPattern,Rectilinear
;   externalInfillPattern,Rectilinear
;   infillPercentage,30
;   outlineOverlapPercentage,15
;   infillExtrusionWidthPercentage,100
;   minInfillLength,5
;   infillLayerInterval,1
;   internalInfillAngles,45,-45
;   overlapInternalInfillAngles,0
;   externalInfillAngles,45,-45
;   generateSupport,0
;   supportExtruder,0
;   supportInfillPercentage,25
;   supportExtraInflation,0
;   supportBaseLayers,0
;   denseSupportExtruder,0
;   denseSupportLayers,0
;   denseSupportInfillPercentage,70
;   supportLayerInterval,1
;   supportHorizontalPartOffset,0.3
;   supportUpperSeparationLayers,1
;   supportLowerSeparationLayers,1
;   supportType,0
;   supportGridSpacing,4
;   maxOverhangAngle,45
;   supportAngles,0
;   temperatureName,Primary Extruder,Heated Bed
;   temperatureNumber,0,0
;   temperatureSetpointCount,1,1
;   temperatureSetpointLayers,1,1
;   temperatureSetpointTemperatures,245,70
;   temperatureStabilizeAtStartup,1,1
;   temperatureHeatedBed,0,1
;   fanLayers,1,2,4
;   fanSpeeds,0,50,100
;   blipFanToFullPower,0
;   adjustSpeedForCooling,1
;   minSpeedLayerTime,15
;   minCoolingSpeedSlowdown,20
;   increaseFanForCooling,0
;   minFanLayerTime,45
;   maxCoolingFanSpeed,100
;   increaseFanForBridging,0
;   bridgingFanSpeed,100
;   use5D,1
;   relativeEdistances,0
;   allowEaxisZeroing,1
;   independentExtruderAxes,0
;   includeM10123,0
;   stickySupport,1
;   applyToolheadOffsets,0
;   gcodeXoffset,0
;   gcodeYoffset,0
;   gcodeZoffset,0
;   overrideMachineDefinition,1
;   machineTypeOverride,0
;   strokeXoverride,220
;   strokeYoverride,220
;   strokeZoverride,240
;   originOffsetXoverride,0
;   originOffsetYoverride,0
;   originOffsetZoverride,0
;   homeXdirOverride,-1
;   homeYdirOverride,-1
;   homeZdirOverride,-1
;   flipXoverride,1
;   flipYoverride,-1
;   flipZoverride,1
;   toolheadOffsets,0,0|0,0|0,0|0,0|0,0|0,0
;   overrideFirmwareConfiguration,1
;   firmwareTypeOverride,RepRap (Marlin/Repetier/Sprinter)
;   GPXconfigOverride,r2
;   baudRateOverride,115200
;   overridePrinterModels,1
;   printerModelsOverride
;   startingGcode,G28 ; home all axes,G1 X0 Y20 Z0.2 F3000 ; get ready to prime,G92 E0 ; reset extrusion distance,G1 X200 E20 F600 ; prime nozzle
;   layerChangeGcode,
;   retractionGcode,
;   toolChangeGcode,
;   endingGcode,M104 S0 ; turn off extruder,M140 S0 ; turn off bed,G1 X0 Y200 F1000 ; prepare for part removal,M84 ; disable motors
;   exportFileFormat,gcode
;   celebration,0
;   celebrationSong,Random Song
;   postProcessing,
;   defaultSpeed,3600
;   outlineUnderspeed,0.5
;   solidInfillUnderspeed,0.8
;   supportUnderspeed,0.8
;   rapidXYspeed,4800
;   rapidZspeed,1000
;   minBridgingArea,50
;   bridgingExtraInflation,0
;   bridgingExtrusionMultiplier,1
;   bridgingSpeedMultiplier,1
;   useFixedBridgingAngle,0
;   fixedBridgingAngle,0
;   applyBridgingToPerimeters,0
;   filamentDiameters,1.75|1.75|1.75|1.75|1.75|1.75
;   filamentPricesPerKg,46|46|46|46|46|46
;   filamentDensities,1.25|1.25|1.25|1.25|1.25|1.25
;   useMinPrintHeight,0
;   minPrintHeight,0
;   useMaxPrintHeight,0
;   maxPrintHeight,0
;   useDiaphragm,0
;   diaphragmLayerInterval,20
;   robustSlicing,1
;   mergeAllIntoSolid,0
;   onlyRetractWhenCrossingOutline,1
;   retractBetweenLayers,1
;   useRetractionMinTravel,0
;   retractionMinTravel,3
;   retractWhileWiping,0
;   onlyWipeOutlines,1
;   avoidCrossingOutline,0
;   maxMovementDetourFactor,3
;   toolChangeRetractionDistance,12
;   toolChangeExtraRestartDistance,-0.5
;   toolChangeRetractionSpeed,600
;   externalThinWallType,0
;   internalThinWallType,2
;   thinWallAllowedOverlapPercentage,10
;   singleExtrusionMinLength,1
;   singleExtrusionMinPrintingWidthPercentage,50
;   singleExtrusionMaxPrintingWidthPercentage,200
;   singleExtrusionEndpointExtension,0.2
;   horizontalSizeCompensation,0
G90
M82
M106 S0
M140 S70
M190 S70
M104 S245 T0
M109 S245 T0
G28 ; home all axes
G1 X0 Y20 Z0.2 F3000 ; get ready to prime
G92 E0 ; reset extrusion distance
G1 X200 E20 F600 ; prime nozzle
; process Calibration Cube
; layer 1, Z = 0.180
T0
G92 E0.0000
G1 E-2.5000 F1800
; feature skirt
; tool H0.180 W0.480
G1 Z0.180 F1000
G1 X93.840 Y97.448 F4800
G1 E0.0000 F1800
G92 E0.0000
G1 X97.448 Y93.840 E0.1650 F1800
G1 X122.552 Y93.840 E0.9765
G1 X126.160 Y97.448 E1.1415
G1 X126.160 Y122.552 E1.9531
G1 X122.552 Y126.160 E2.1180
G1 X97.448 Y126.160 E2.9296
G1 X93.840 Y122.552 E3.0946
G1 X93.840 Y97.448 E3.9061
G92 E0.0000
G1 E-2.5000 F1800
G1 X94.320 Y97.647 F4800
G1 E0.0000 F1800
G92 E0.0000
G1 X97.647 Y94.320 E0.1521 F1800
G1 X122.353 Y94.320 E0.9508
G1 X125.680 Y97.647 E1.1029
G1 X125.680 Y122.353 E1.9016
G1 X122.353 Y125.680 E2.0538
G1 X97.647 Y125.680 E2.8525
G1 X94.320 Y122.353 E3.0046
G1 X94.320 Y97.647 E3.8033
G92 E0.0000
G1 E-2.5000 F1800
G1 X94.800 Y97.846 F4800
G1 E0.0000 F1800
G92 E0.0000
G1 X97.846 Y94.800 E0.1393 F1800
G1 X122.154 Y94.800 E0.9251
G1 X125.200 Y97.846 E1.0644
G1 X125.200 Y122.154 E1.8502
G1 X122.154 Y125.200 E1.9895
G1 X97.846 Y125.200 E2.7753
G1 X94.800 Y122.154 E2.9146
G1 X94.800 Y97.846 E3.7004
G92 E0.0000
G1 E-2.5000 F1800
G1 X95.280 Y98.045 F4800
G1 E0.0000 F1800
G92 E0.0000
G1 X98.045 Y95.280 E0.1264 F1800
G1 X121.955 Y95.280 E0.8994
G1 X124.720 Y98.045 E1.0258
G1 X124.720 Y121.955 E1.7988
G1 X121.955 Y124.720 E1.9252
G1 X98.045 Y124.720 E2.6982
G1 X95.280 Y121.955 E2.8246
G1 X95.280 Y98.045 E3.5976
G92 E0.0000
G1 E-2.5000 F1800
G1 X95.760 Y98.244 F4800
G1 E0.0000 F1800
G92 E0.0000
G1 X98.244 Y95.760 E0.1136 F1800
G1 X121.756 Y95.760 E0.8737
G1 X124.240 Y98.244 E0.9872
G1 X124.240 Y121.756 E1.7474
G1 X121.756 Y124.240 E1.8609
G1 X98.244 Y124.240 E2.6211
G1 X95.760 Y121.756 E2.7346
G1 X95.760 Y98.244 E3.4948
G92 E0.0000
G1 E-2.5000 F1800
; feature inner perimeter
G1 X100.720 Y100.720 F4800
G1 E0.0000 F1800
G92 E0.0000
G1 X119.280 Y100.720 E0.6000 F1350
G1 X119.280 Y119.280 E1.2000
G1 X100.720 Y119.280 E1.8001
G1 X100.720 Y100.720 E2.4001
; feature outer perimeter
G1 X100.240 Y100.240 F4800
G92 E0.0000
G1 X119.760 Y100.240 E0.6311 F900
G1 X119.760 Y119.760 E1.2621
G1 X100.240 Y119.760 E1.8932
G1 X100.240 Y100.240 E2.5242
; feature solid layer
G1 X118.777 Y101.128 F4800
G92 E0.0000
G1 X118.872 Y101.223 E0.0043 F1440
G1 X118.872 Y101.901 E0.0263
G1 X118.099 Y101.128 E0.0616
G1 X117.420 Y101.128 E0.0836
G1 X118.872 Y102.580 E0.1500
G1 X118.872 Y103.259 E0.1719
G1 X116.741 Y101.128 E0.2694
G1 X116.062 Y101.128 E0.2913
G1 X118.872 Y103.938 E0.4198
G1 X118.872 Y104.617 E0.4417
G1 X115.383 Y101.128 E0.6012
G1 X114.704 Y101.128 E0.6232
G1 X118.872 Y105.296 E0.8137
G1 X118.872 Y105.974 E0.8356
G1 X114.026 Y101.128 E1.0572
G1 X113.347 Y101.128 E1.0792
G1 X118.872 Y106.653 E1.3318
G1 X118.872 Y107.332 E1.3537
G1 X112.668 Y101.128 E1.6374
G1 X111.989 Y101.128 E1.6593
G1 X118.872 Y108.011 E1.9740
G1 X118.872 Y108.690 E1.9959
G1 X111.310 Y101.128 E2.3417
G1 X110.632 Y101.128 E2.3636
G1 X118.872 Y109.368 E2.7404
G1 X118.872 Y110.047 E2.7623
G1 X109.953 Y101.128 E3.1701
G1 X109.274 Y101.128 E3.1920
G1 X118.872 Y110.726 E3.6309
G1 X118.872 Y111.405 E3.6528
G1 X108.595 Y101.128 E4.1227
G1 X107.916 Y101.128 E4.1446
G1 X118.872 Y112.084 E4.6455
G1 X118.872 Y112.763 E4.6675
G1 X107.237 Y101.128 E5.1994
G1 X106.559 Y101.128 E5.2213
G1 X118.872 Y113.441 E5.7843
G1 X118.872 Y114.120 E5.8062
G1 X105.880 Y101.128 E6.4003
G1 X105.201 Y101.128 E6.4222
G1 X118.872 Y114.799 E7.0472
G1 X118.872 Y115.478 E7.0692
G1 X104.522 Y101.128 E7.7253
G1 X103.843 Y101.128 E7.7472
G1 X118.872 Y116.157 E8.4343
G1 X118.872 Y116.836 E8.4563
G1 X103.164 Y101.128 E9.1744
G1 X102.486 Y101.128 E9.1964
G1 X118.872 Y117.514 E9.9455
G1 X118.872 Y118.193 E9.9675
G1 X101.807 Y101.128 E10.7477
G1 X101.128 Y101.128 E10.7696
G1 X118.872 Y118.872 E11.5809
G1 X118.193 Y118.872 E11.6028
G1 X101.128 Y101.807 E12.3831
G1 X101.128 Y102.486 E12.4050
G1 X117.514 Y118.872 E13.1542
G1 X116.836 Y118.872 E13.1761
G1 X101.128 Y103.164 E13.8943
G1 X101.128 Y103.843 E13.9162
G1 X116.157 Y118.872 E14.6033
G1 X115.478 Y118.872 E14.6253
G1 X101.128 Y104.522 E15.2814
G1 X101.128 Y105.201 E15.3033
G1 X114.799 Y118.872 E15.9283
G1 X114.120 Y118.872 E15.9503
G1 X101.128 Y105.880 E16.5443
G1 X101.128 Y106.559 E16.5662
G1 X113.441 Y118.872 E17.1292
G1 X112.763 Y118.872 E17.1512
G1 X101.128 Y107.237 E17.6831
G1 X101.128 Y107.916 E17.7050
G1 X112.084 Y118.872 E18.2059
G1 X111.405 Y118.872 E18.2279
G1 X101.128 Y108.595 E18.6977
G1 X101.128 Y109.274 E18.7197
G1 X110.726 Y118.872 E19.1585
G1 X110.047 Y118.872 E19.1805
G1 X101.128 Y109.953 E19.5882
G1 X101.128 Y110.632 E19.6102
G1 X109.368 Y118.872 E19.9869
G1 X108.690 Y118.872 E20.0089
G1 X101.128 Y111.310 E20.3546
G1 X101.128 Y111.989 E20.3766
G1 X108.011 Y118.872 E20.6912
G1 X107.332 Y118.872 E20.7132
G1 X101.128 Y112.668 E20.9968
G1 X101.128 Y113.347 E21.0188
G1 X106.653 Y118.872 E21.2714
G1 X105.974 Y118.872 E21.2933
G1 X101.128 Y114.026 E21.5149
G1 X101.128 Y114.704 E21.5369
G1 X105.296 Y118.872 E21.7274
G1 X104.617 Y118.872 E21.7493
G1 X101.128 Y115.383 E21.9089
G1 X101.128 Y116.062 E21.9308
G1 X103.938 Y118.872 E22.0593
G1 X103.259 Y118.872 E22.0812
G1 X101.128 Y116.741 E22.1786
G1 X101.128 Y117.420 E22.2006
G1 X102.580 Y118.872 E22.2670
G1 X101.901 Y118.872 E22.2889
G1 X101.128 Y118.099 E22.3243
G1 X101.128 Y118.777 E22.3462
G1 X101.223 Y118.872 E22.3506
G92 E0.0000
G1 E-2.5000 F1800
; layer 2, Z = 0.380
M106 S128
; feature inner perimeter
; tool H0.200 W0.480
G1 Z0.380 F1000
G1 X100.720 Y119.280 F4800
G1 E0.0000 F1800
G92 E0.0000
G1 X100.720 Y100.720 E0.6667 F2700
G1 X119.280 Y100.720 E1.3334
G1 X119.280 Y119.280 E2.0001
G1 X100.720 Y119.280 E2.6668
; feature outer perimeter
G1 X100.240 Y119.760 F4800
G92 E0.0000
G1 X100.240 Y100.240 E0.7012 F1800
G1 X119.760 Y100.240 E1.4024
G1 X119.760 Y119.760 E2.1035
G1 X100.240 Y119.760 E2.8047
; feature solid layer
G1 X101.128 Y101.223 F4800
G92 E0.0000
G1 X101.223 Y101.128 E0.0048 F2880
G1 X101.901 Y101.128 E0.0292
G1 X101.128 Y101.901 E0.0685
G1 X101.128 Y102.580 E0.0929
G1 X102.580 Y101.128 E0.1666
G1 X103.259 Y101.128 E0.1910
G1 X101.128 Y103.259 E0.2993
G1 X101.128 Y103.938 E0.3237
G1 X103.938 Y101.128 E0.4664
G1 X104.617 Y101.128 E0.4908
G1 X101.128 Y104.617 E0.6680
G1 X101.128 Y105.296 E0.6924
G1 X105.296 Y101.128 E0.9041
G1 X105.974 Y101.128 E0.9285
G1 X101.128 Y105.974 E1.1747
G1 X101.128 Y106.653 E1.1991
G1 X106.653 Y101.128 E1.4798
G1 X107.332 Y101.128 E1.5042
G1 X101.128 Y107.332 E1.8193
G1 X101.128 Y108.011 E1.8437
G1 X108.011 Y101.128 E2.1934
G1 X108.690 Y101.128 E2.2177
G1 X101.128 Y108.690 E2.6019
G1 X101.128 Y109.369 E2.6263
G1 X109.369 Y101.128 E3.0449
G1 X110.047 Y101.128 E3.0693
G1 X101.128 Y110.047 E3.5224
G1 X101.128 Y110.726 E3.5467
G1 X110.726 Y101.128 E4.0343
G1 X111.405 Y101.128 E4.0587
G1 X101.128 Y111.405 E4.5808
G1 X101.128 Y112.084 E4.6052
G1 X112.084 Y101.128 E5.1617
G1 X112.763 Y101.128 E5.1861
G1 X101.128 Y112.763 E5.7771
G1 X101.128 Y113.441 E5.8015
G1 X113.441 Y101.128 E6.4270
G1 X114.120 Y101.128 E6.4514
G1 X101.128 Y114.120 E7.1114
G1 X101.128 Y114.799 E7.1358
G1 X114.799 Y101.128 E7.8303
G1 X115.478 Y101.128 E7.8547
G1 X101.128 Y115.478 E8.5837
G1 X101.128 Y116.157 E8.6081
G1 X116.157 Y101.128 E9.3715
G1 X116.836 Y101.128 E9.3959
G1 X101.128 Y116.836 E10.1938
G1 X101.128 Y117.514 E10.2182
G1 X117.514 Y101.128 E11.0507
G1 X118.193 Y101.128 E11.0750
G1 X101.128 Y118.193 E11.9419
G1 X101.128 Y118.872 E11.9663
G1 X118.872 Y101.128 E12.8677
G1 X118.872 Y101.807 E12.8921
G1 X101.807 Y118.872 E13.7590
G1 X102.486 Y118.872 E13.7834
G1 X118.872 Y102.486 E14.6158
G1 X118.872 Y103.165 E14.6402
G1 X103.165 Y118.872 E15.4381
G1 X103.843 Y118.872 E15.4625
G1 X118.872 Y103.843 E16.2260
G1 X118.872 Y104.522 E16.2504
G1 X104.522 Y118.872 E16.9793
G1 X105.201 Y118.872 E17.0037
G1 X118.872 Y105.201 E17.6982
G1 X118.872 Y105.880 E17.7226
G1 X105.880 Y118.872 E18.3826
G1 X106.559 Y118.872 E18.4070
G1 X118.872 Y106.559 E19.0325
G1 X118.872 Y107.237 E19.0569
G1 X107.237 Y118.872 E19.6479
G1 X107.916 Y118.872 E19.6723
G1 X118.872 Y107.916 E20.2288
G1 X118.872 Y108.595 E20.2532
G1 X108.595 Y118.872 E20.7753
G1 X109.274 Y118.872 E20.7997
G1 X118.872 Y109.274 E21.2873
G1 X118.872 Y109.953 E21.3116
G1 X109.953 Y118.872 E21.7647
G1 X110.632 Y118.872 E21.7891
G1 X118.872 Y110.632 E22.2077
G1 X118.872 Y111.310 E22.2321
G1 X111.310 Y118.872 E22.6163
G1 X111.989 Y118.872 E22.6406
G1 X118.872 Y111.989 E22.9903
G1 X118.872 Y112.668 E23.0147
G1 X112.668 Y118.872 E23.3298
G1 X113.347 Y118.872 E23.3542
G1 X118.872 Y113.347 E23.6349
G1 X118.872 Y114.026 E23.6593
G1 X114.026 Y118.872 E23.9055
G1 X114.704 Y118.872 E23.9299
G1 X118.872 Y114.704 E24.1416
G1 X118.872 Y115.383 E24.1660
G1 X115.383 Y118.872 E24.3432
G1 X116.062 Y118.872 E24.3676
G1 X118.872 Y116.062 E24.5103
G1 X118.872 Y116.741 E24.5347
G1 X116.741 Y118.872 E24.6429
G1 X117.420 Y118.872 E24.6673
G1 X118.872 Y117.420 E24.7411
G1 X118.872 Y118.099 E24.7655
G1 X118.099 Y118.872 E24.8048
G1 X118.777 Y118.872 E24.8292
G1 X118.872 Y118.777 E24.8340
G92 E0.0000
G1 E-2.5000 F1800
; layer 3, Z = 0.580
; feature inner perimeter
G1 Z0.580 F1000
G1 X119.280 Y119.280 F4800
G1 E0.0000 F1800
G92 E0.0000
G1 X100.720 Y119.280 E0.6667 F2700
G1 X100.720 Y100.720 E1.3334
G1 X119.280 Y100.720 E2.0001
G1 X119.280 Y119.280 E2.6668
; feature outer perimeter
G1 X119.760 Y119.760 F4800
G92 E0.0000
G1 X100.240 Y119.760 E0.7012 F1800
G1 X100.240 Y100.240 E1.4024
G1 X119.760 Y100.240 E2.1035
G1 X119.760 Y119.760 E2.8047
; feature solid layer
G1 X101.223 Y118.872 F4800
G92 E0.0000
G1 X101.128 Y118.777 E0.0048 F2880
G1 X101.128 Y118.099 E0.0292
G1 X101.901 Y118.872 E0.0685
G1 X102.580 Y118.872 E0.0929
G1 X101.128 Y117.420 E0.1666
G1 X101.128 Y116.741 E0.1910
G1 X103.259 Y118.872 E0.2993
G1 X103.938 Y118.872 E0.3237
G1 X101.128 Y116.062 E0.4664
G1 X101.128 Y115.383 E0.4908
G1 X104.617 Y118.872 E0.6680
G1 X105.296 Y118.872 E0.6924
G1 X101.128 Y114.704 E0.9041
G1 X101.128 Y114.026 E0.9285
G1 X105.974 Y118.872 E1.1747
G1 X106.653 Y118.872 E1.1991
G1 X101.128 Y113.347 E1.4798
G1 X101.128 Y112.668 E1.5041
G1 X107.332 Y118.872 E1.8193
G1 X108.011 Y118.872 E1.8437
G1 X101.128 Y111.989 E2.1933
G1 X101.128 Y111.310 E2.2177
G1 X108.690 Y118.872 E2.6019
G1 X109.368 Y118.872 E2.6262
G1 X101.128 Y110.632 E3.0449
G1 X101.128 Y109.953 E3.0692
