; G-Code generated by Simplify3D(R) Version 4.1.2
; May 12, 2020 at 12:40:27 AM
; Settings Summary
;   processName,Calibration Cube
;   applyToModels,xyzCalibration_cube
;   profileName,Anet A8 (modified)
;   profileVersion,2016-11-25 08:00:00
;   baseProfile,
;   printMaterial,PLA
;   printQuality,Fast
;   printExtruders,
;   extruderName,Primary Extruder
;   extruderToolheadNumber,0
;   extruderDiameter,0.4
;   extruderAutoWidth,0
;   extruderWidth,0.2
;   extrusionMultiplier,0.9
;   extruderUseRetract,1
;   extruderRetractionDistance,2.5
;   extruderExtraRestartDistance,0
;   extruderRetractionZLift,0
;   extruderRetractionSpeed,1800
;   extruderUseCoasting,0
;   extruderCoastingDistance,0.2
;   extruderUseWipe,0
;   extruderWipeDistance,5
;   primaryExtruder,0
;   layerHeight,0.2
;   topSolidLayers,3
;   bottomSolidLayers,3
;   perimeterOutlines,2
;   printPerimetersInsideOut,1
;   startPointOption,2
;   startPointOriginX,0
;   startPointOriginY,0
;   sequentialIslands,0
;   spiralVaseMode,0
;   firstLayerHeightPercentage,90
;   firstLayerWidthPercentage,100
;   firstLayerUnderspeed,0.5
;   useRaft,0
;   raftExtruder,0
;   raftTopLayers,3
;   raftBaseLayers,2
;   raftOffset,3
;   raftSeparationDistance,0.14
;   raftTopInfill,100
;   aboveRaftSpeedMultiplier,0.3
;   useSkirt,1
;   skirtExtruder,0
;   skirtLayers,1
;   skirtOutlines,5
;   skirtOffset,4
;   usePrimePillar,0
;   primePillarExtruder,999
;   primePillarWidth,12
;   primePillarLocation,7
;   primePillarSpeedMultiplier,1
;   useOozeShield,0
;   oozeShieldExtruder,999
;   oozeShieldOffset,2
;   oozeShieldOutlines,1
;   oozeShieldSidewallShape,1
;   oozeShieldSidewallAngle,30
;   oozeShieldSpeedMultiplier,1
;   infillExtruder,0
;   internalInfillPattern,Rectilinear
;   externalInfillPattern,Rectilinear
;   infillPercentage,30
;   outlineOverlapPercentage,15
;   infillExtrusionWidthPercentage,100
;   minInfillLength,5
;   infillLayerInterval,1
;   internalInfillAngles,45,-45
;   overlapInternalInfillAngles,0
;   externalInfillAngles,45,-45
;   generateSupport,0
;   supportExtruder,0
;   supportInfillPercentage,25
;   supportExtraInflation,0
;   supportBaseLayers,0
;   denseSupportExtruder,0
;   denseSupportLayers,0
;   denseSupportInfillPercentage,70
;   supportLayerInterval,1
;   supportHorizontalPartOffset,0.3
;   supportUpperSeparationLayers,1
;   supportLowerSeparationLayers,1
;   supportType,0
;   supportGridSpacing,4
;   maxOverhangAngle,45
;   supportAngles,0
;   temperatureName,Primary Extruder,Heated Bed
;   temperatureNumber,0,0
;   temperatureSetpointCount,1,1
;   temperatureSetpointLayers,1,1
;   temperatureSetpointTemperatures,200,60
;   temperatureStabilizeAtStartup,1,1
;   temperatureHeatedBed,0,1
;   fanLayers,1,2,4
;   fanSpeeds,0,50,100
;   blipFanToFullPower,0
;   adjustSpeedForCooling,1
;   minSpeedLayerTime,15
;   minCoolingSpeedSlowdown,20
;   increaseFanForCooling,0
;   minFanLayerTime,45
;   maxCoolingFanSpeed,100
;   increaseFanForBridging,0
;   bridgingFanSpeed,100
;   use5D,1
;   relativeEdistances,0
;   allowEaxisZeroing,1
;   independentExtruderAxes,0
;   includeM10123,0
;   stickySupport,1
;   applyToolheadOffsets,0
;   gcodeXoffset,0
;   gcodeYoffset,0
;   gcodeZoffset,0
;   overrideMachineDefinition,1
;   machineTypeOverride,0
;   strokeXoverride,220
;   strokeYoverride,220
;   strokeZoverride,240
;   originOffsetXoverride,0
;   originOffsetYoverride,0
;   originOffsetZoverride,0
;   homeXdirOverride,-1
;   homeYdirOverride,-1
;   homeZdirOverride,-1
;   flipXoverride,1
;   flipYoverride,-1
;   flipZoverride,1
;   toolheadOffsets,0,0|0,0|0,0|0,0|0,0|0,0
;   overrideFirmwareConfiguration,1
;   firmwareTypeOverride,RepRap (Marlin/Repetier/Sprinter)
;   GPXconfigOverride,r2
;   baudRateOverride,115200
;   overridePrinterModels,1
;   printerModelsOverride
;   startingGcode,G28 ; home all axes,G1 X0 Y20 Z0.2 F3000 ; get ready to prime,G92 E0 ; reset extrusion distance,G1 X200 E20 F600 ; prime nozzle
;   layerChangeGcode,
;   retractionGcode,
;   toolChangeGcode,
;   endingGcode,M104 S0 ; turn off extruder,M140 S0 ; turn off bed,G1 X0 Y200 F1000 ; prepare for part removal,M84 ; disable motors
;   exportFileFormat,gcode
;   celebration,0
;   celebrationSong,Random Song
;   postProcessing,
;   defaultSpeed,3600
;   outlineUnderspeed,0.5
;   solidInfillUnderspeed,0.8
;   supportUnderspeed,0.8
;   rapidXYspeed,4800
;   rapidZspeed,1000
;   minBridgingArea,50
;   bridgingExtraInflation,0
;   bridgingExtrusionMultiplier,1
;   bridgingSpeedMultiplier,1
;   useFixedBridgingAngle,0
;   fixedBridgingAngle,0
;   applyBridgingToPerimeters,0
;   filamentDiameters,1.75|1.75|1.75|1.75|1.75|1.75
;   filamentPricesPerKg,46|46|46|46|46|46
;   filamentDensities,1.25|1.25|1.25|1.25|1.25|1.25
;   useMinPrintHeight,0
;   minPrintHeight,0
;   useMaxPrintHeight,0
;   maxPrintHeight,0
;   useDiaphragm,0
;   diaphragmLayerInterval,20
;   robustSlicing,1
;   mergeAllIntoSolid,0
;   onlyRetractWhenCrossingOutline,1
;   retractBetweenLayers,1
;   useRetractionMinTravel,0
;   retractionMinTravel,3
;   retractWhileWiping,0
;   onlyWipeOutlines,1
;   avoidCrossingOutline,0
;   maxMovementDetourFactor,3
;   toolChangeRetractionDistance,12
;   toolChangeExtraRestartDistance,-0.5
;   toolChangeRetractionSpeed,600
;   externalThinWallType,0
;   internalThinWallType,2
;   thinWallAllowedOverlapPercentage,10
;   singleExtrusionMinLength,1
;   singleExtrusionMinPrintingWidthPercentage,50
;   singleExtrusionMaxPrintingWidthPercentage,200
;   singleExtrusionEndpointExtension,0.2
;   horizontalSizeCompensation,0
G90
M82
M106 S0
M140 S60
M190 S60
M104 S200 T0
M109 S200 T0
G28 ; home all axes
G1 X0 Y20 Z0.2 F3000 ; get ready to prime
G92 E0 ; reset extrusion distance
G1 X200 E20 F600 ; prime nozzle
; process Calibration Cube
; layer 1, Z = 0.180
T0
G92 E0.0000
G1 E-2.5000 F1800
; feature skirt
; tool H0.180 W0.200
G1 Z0.180 F1000
G1 X95.100 Y97.970 F4800
G1 E0.0000 F1800
G92 E0.0000
G1 X97.970 Y95.100 E0.0547 F1800
G1 X122.030 Y95.100 E0.3788
G1 X124.900 Y97.970 E0.4334
G1 X124.900 Y122.030 E0.7575
G1 X122.030 Y124.900 E0.8122
G1 X97.970 Y124.900 E1.1363
G1 X95.100 Y122.030 E1.1910
G1 X95.100 Y97.970 E1.5151
G92 E0.0000
G1 E-2.5000 F1800
G1 X95.300 Y98.053 F4800
G1 E0.0000 F1800
G92 E0.0000
G1 X98.053 Y95.300 E0.0524 F1800
G1 X121.947 Y95.300 E0.3743
G1 X124.700 Y98.053 E0.4268
G1 X124.700 Y121.947 E0.7486
G1 X121.947 Y124.700 E0.8011
G1 X98.053 Y124.700 E1.1229
G1 X95.300 Y121.947 E1.1754
G1 X95.300 Y98.053 E1.4972
G92 E0.0000
G1 E-2.5000 F1800
G1 X95.500 Y98.136 F4800
G1 E0.0000 F1800
G92 E0.0000
G1 X98.136 Y95.500 E0.0502 F1800
G1 X121.864 Y95.500 E0.3698
G1 X124.500 Y98.136 E0.4201
G1 X124.500 Y121.864 E0.7397
G1 X121.864 Y124.500 E0.7899
G1 X98.136 Y124.500 E1.1095
G1 X95.500 Y121.864 E1.1597
G1 X95.500 Y98.136 E1.4794
G92 E0.0000
G1 E-2.5000 F1800
G1 X95.700 Y98.219 F4800
G1 E0.0000 F1800
G92 E0.0000
G1 X98.219 Y95.700 E0.0480 F1800
G1 X121.781 Y95.700 E0.3654
G1 X124.300 Y98.219 E0.4134
G1 X124.300 Y121.781 E0.7308
G1 X121.781 Y124.300 E0.7787
G1 X98.219 Y124.300 E1.0961
G1 X95.700 Y121.781 E1.1441
G1 X95.700 Y98.219 E1.4615
G92 E0.0000
G1 E-2.5000 F1800
G1 X95.900 Y98.302 F4800
G1 E0.0000 F1800
G92 E0.0000
G1 X98.302 Y95.900 E0.0458 F1800
G1 X121.698 Y95.900 E0.3609
G1 X124.100 Y98.302 E0.4067
G1 X124.100 Y121.698 E0.7218
G1 X121.698 Y124.100 E0.7676
G1 X98.302 Y124.100 E1.0827
G1 X95.900 Y121.698 E1.1285
G1 X95.900 Y98.302 E1.4437
G92 E0.0000
G1 E-2.5000 F1800
; feature inner perimeter
G1 X100.300 Y100.300 F4800
G1 E0.0000 F1800
G92 E0.0000
G1 X119.700 Y100.300 E0.2613 F1350
G1 X119.700 Y119.700 E0.5226
G1 X100.300 Y119.700 E0.7840
G1 X100.300 Y100.300 E1.0453
; feature outer perimeter
G1 X100.100 Y100.100 F4800
G92 E0.0000
G1 X119.900 Y100.100 E0.2667 F900
G1 X119.900 Y119.900 E0.5334
G1 X100.100 Y119.900 E0.8001
G1 X100.100 Y100.100 E1.0669
; feature solid layer
G1 X119.420 Y100.470 F4800
G92 E0.0000
G1 X119.530 Y100.580 E0.0021 F1440
G1 X119.530 Y100.862 E0.0059
G1 X119.138 Y100.470 E0.0134
G1 X118.855 Y100.470 E0.0172
G1 X119.530 Y101.145 E0.0300
G1 X119.530 Y101.428 E0.0339
G1 X118.572 Y100.470 E0.0521
G1 X118.289 Y100.470 E0.0559
G1 X119.530 Y101.711 E0.0796
G1 X119.530 Y101.994 E0.0834
G1 X118.006 Y100.470 E0.1124
G1 X117.723 Y100.470 E0.1162
G1 X119.530 Y102.277 E0.1506
G1 X119.530 Y102.559 E0.1544
G1 X117.441 Y100.470 E0.1942
G1 X117.158 Y100.470 E0.1980
G1 X119.530 Y102.842 E0.2432
G1 X119.530 Y103.125 E0.2470
G1 X116.875 Y100.470 E0.2976
G1 X116.592 Y100.470 E0.3014
G1 X119.530 Y103.408 E0.3574
G1 X119.530 Y103.691 E0.3612
G1 X116.309 Y100.470 E0.4226
G1 X116.026 Y100.470 E0.4264
G1 X119.530 Y103.974 E0.4931
G1 X119.530 Y104.256 E0.4969
G1 X115.744 Y100.470 E0.5691
G1 X115.461 Y100.470 E0.5729
G1 X119.530 Y104.539 E0.6504
G1 X119.530 Y104.822 E0.6542
G1 X115.178 Y100.470 E0.7371
G1 X114.895 Y100.470 E0.7409
G1 X119.530 Y105.105 E0.8292
G1 X119.530 Y105.388 E0.8330
G1 X114.612 Y100.470 E0.9267
G1 X114.329 Y100.470 E0.9305
G1 X119.530 Y105.671 E1.0296
G1 X119.530 Y105.954 E1.0334
G1 X114.046 Y100.470 E1.1379
G1 X113.764 Y100.470 E1.1417
G1 X119.530 Y106.236 E1.2515
G1 X119.530 Y106.519 E1.2553
G1 X113.481 Y100.470 E1.3706
G1 X113.198 Y100.470 E1.3744
G1 X119.530 Y106.802 E1.4950
G1 X119.530 Y107.085 E1.4988
G1 X112.915 Y100.470 E1.6248
G1 X112.632 Y100.470 E1.6286
G1 X119.530 Y107.368 E1.7600
G1 X119.530 Y107.651 E1.7639
G1 X112.349 Y100.470 E1.9006
G1 X112.067 Y100.470 E1.9045
G1 X119.530 Y107.933 E2.0466
G1 X119.530 Y108.216 E2.0504
G1 X111.784 Y100.470 E2.1980
G1 X111.501 Y100.470 E2.2018
G1 X119.530 Y108.499 E2.3548
G1 X119.530 Y108.782 E2.3586
G1 X111.218 Y100.470 E2.5169
G1 X110.935 Y100.470 E2.5207
G1 X119.530 Y109.065 E2.6845
G1 X119.530 Y109.348 E2.6883
G1 X110.652 Y100.470 E2.8574
G1 X110.370 Y100.470 E2.8612
G1 X119.530 Y109.630 E3.0357
G1 X119.530 Y109.913 E3.0395
G1 X110.087 Y100.470 E3.2194
G1 X109.804 Y100.470 E3.2232
G1 X119.530 Y110.196 E3.4085
G1 X119.530 Y110.479 E3.4123
G1 X109.521 Y100.470 E3.6030
G1 X109.238 Y100.470 E3.6068
G1 X119.530 Y110.762 E3.8029
G1 X119.530 Y111.045 E3.8067
G1 X108.955 Y100.470 E4.0081
G1 X108.672 Y100.470 E4.0119
G1 X119.530 Y111.328 E4.2188
G1 X119.530 Y111.610 E4.2226
G1 X108.390 Y100.470 E4.4348
G1 X108.107 Y100.470 E4.4386
G1 X119.530 Y111.893 E4.6562
G1 X119.530 Y112.176 E4.6600
G1 X107.824 Y100.470 E4.8830
G1 X107.541 Y100.470 E4.8868
G1 X119.530 Y112.459 E5.1152
G1 X119.530 Y112.742 E5.1190
G1 X107.258 Y100.470 E5.3528
G1 X106.975 Y100.470 E5.3566
G1 X119.530 Y113.025 E5.5958
G1 X119.530 Y113.307 E5.5996
G1 X106.693 Y100.470 E5.8442
G1 X106.410 Y100.470 E5.8480
G1 X119.530 Y113.590 E6.0979
G1 X119.530 Y113.873 E6.1017
G1 X106.127 Y100.470 E6.3570
G1 X105.844 Y100.470 E6.3609
G1 X119.530 Y114.156 E6.6216
G1 X119.530 Y114.439 E6.6254
G1 X105.561 Y100.470 E6.8915
G1 X105.278 Y100.470 E6.8953
G1 X119.530 Y114.722 E7.1668
G1 X119.530 Y115.005 E7.1706
G1 X104.995 Y100.470 E7.4475
G1 X104.713 Y100.470 E7.4513
G1 X119.530 Y115.287 E7.7336
G1 X119.530 Y115.570 E7.7374
G1 X104.430 Y100.470 E8.0250
G1 X104.147 Y100.470 E8.0288
G1 X119.530 Y115.853 E8.3219
G1 X119.530 Y116.136 E8.3257
G1 X103.864 Y100.470 E8.6241
G1 X103.581 Y100.470 E8.6279
G1 X119.530 Y116.419 E8.9318
G1 X119.530 Y116.702 E8.9356
G1 X103.298 Y100.470 E9.2448
G1 X103.016 Y100.470 E9.2486
G1 X119.530 Y116.984 E9.5632
G1 X119.530 Y117.267 E9.5670
G1 X102.733 Y100.470 E9.8870
G1 X102.450 Y100.470 E9.8908
G1 X119.530 Y117.550 E10.2162
G1 X119.530 Y117.833 E10.2200
G1 X102.167 Y100.470 E10.5507
G1 X101.884 Y100.470 E10.5546
G1 X119.530 Y118.116 E10.8907
G1 X119.530 Y118.399 E10.8945
G1 X101.601 Y100.470 E11.2361
G1 X101.319 Y100.470 E11.2399
G1 X119.530 Y118.681 E11.5868
G1 X119.530 Y118.964 E11.5906
G1 X101.036 Y100.470 E11.9429
G1 X100.753 Y100.470 E11.9467
G1 X119.530 Y119.247 E12.3044
G1 X119.530 Y119.530 E12.3082
G1 X100.470 Y100.470 E12.6713
G1 X100.470 Y100.753 E12.6751
G1 X119.247 Y119.530 E13.0329
G1 X118.964 Y119.530 E13.0367
G1 X100.470 Y101.036 E13.3890
G1 X100.470 Y101.319 E13.3928
G1 X118.681 Y119.530 E13.7397
G1 X118.399 Y119.530 E13.7435
G1 X100.470 Y101.601 E14.0851
G1 X100.470 Y101.884 E14.0889
G1 X118.116 Y119.530 E14.4250
G1 X117.833 Y119.530 E14.4288
G1 X100.470 Y102.167 E14.7596
G1 X100.470 Y102.450 E14.7634
G1 X117.550 Y119.530 E15.0888
G1 X117.267 Y119.530 E15.0926
G1 X100.470 Y102.733 E15.4126
G1 X100.470 Y103.016 E15.4164
G1 X116.984 Y119.530 E15.7310
G1 X116.702 Y119.530 E15.7348
G1 X100.470 Y103.298 E16.0440
G1 X100.470 Y103.581 E16.0478
G1 X116.419 Y119.530 E16.3516
G1 X116.136 Y119.530 E16.3555
G1 X100.470 Y103.864 E16.6539
G1 X100.470 Y104.147 E16.6577
G1 X115.853 Y119.530 E16.9507
G1 X115.570 Y119.530 E16.9546
G1 X100.470 Y104.430 E17.2422
G1 X100.470 Y104.713 E17.2460
G1 X115.287 Y119.530 E17.5283
G1 X115.005 Y119.530 E17.5321
G1 X100.470 Y104.995 E17.8090
G1 X100.470 Y105.278 E17.8128
G1 X114.722 Y119.530 E18.0843
G1 X114.439 Y119.530 E18.0881
G1 X100.470 Y105.561 E18.3542
G1 X100.470 Y105.844 E18.3580
G1 X114.156 Y119.530 E18.6187
G1 X113.873 Y119.530 E18.6225
G1 X100.470 Y106.127 E18.8779
G1 X100.470 Y106.410 E18.8817
G1 X113.590 Y119.530 E19.1316
G1 X113.307 Y119.530 E19.1354
G1 X100.470 Y106.693 E19.3800
G1 X100.470 Y106.975 E19.3838
G1 X113.025 Y119.530 E19.6230
G1 X112.742 Y119.530 E19.6268
G1 X100.470 Y107.258 E19.8606
G1 X100.470 Y107.541 E19.8644
G1 X112.459 Y119.530 E20.0928
G1 X112.176 Y119.530 E20.0966
G1 X100.470 Y107.824 E20.3196
G1 X100.470 Y108.107 E20.3234
G1 X111.893 Y119.530 E20.5410
G1 X111.610 Y119.530 E20.5448
G1 X100.470 Y108.390 E20.7570
G1 X100.470 Y108.672 E20.7608
G1 X111.328 Y119.530 E20.9677
G1 X111.045 Y119.530 E20.9715
G1 X100.470 Y108.955 E21.1729
G1 X100.470 Y109.238 E21.1767
G1 X110.762 Y119.530 E21.3728
G1 X110.479 Y119.530 E21.3766
G1 X100.470 Y109.521 E21.5673
G1 X100.470 Y109.804 E21.5711
G1 X110.196 Y119.530 E21.7564
G1 X109.913 Y119.530 E21.7602
G1 X100.470 Y110.087 E21.9401
G1 X100.470 Y110.369 E21.9439
G1 X109.631 Y119.530 E22.1184
G1 X109.348 Y119.530 E22.1222
G1 X100.470 Y110.652 E22.2913
G1 X100.470 Y110.935 E22.2951
G1 X109.065 Y119.530 E22.4589
G1 X108.782 Y119.530 E22.4627
G1 X100.470 Y111.218 E22.6210
G1 X100.470 Y111.501 E22.6248
G1 X108.499 Y119.530 E22.7778
G1 X108.216 Y119.530 E22.7816
G1 X100.470 Y111.784 E22.9292
G1 X100.470 Y112.067 E22.9330
G1 X107.933 Y119.530 E23.0751
G1 X107.651 Y119.530 E23.0790
G1 X100.470 Y112.349 E23.2157
G1 X100.470 Y112.632 E23.2196
G1 X107.368 Y119.530 E23.3510
G1 X107.085 Y119.530 E23.3548
G1 X100.470 Y112.915 E23.4808
G1 X100.470 Y113.198 E23.4846
G1 X106.802 Y119.530 E23.6052
G1 X106.519 Y119.530 E23.6090
G1 X100.470 Y113.481 E23.7243
G1 X100.470 Y113.764 E23.7281
G1 X106.236 Y119.530 E23.8379
G1 X105.954 Y119.530 E23.8417
G1 X100.470 Y114.046 E23.9462
G1 X100.470 Y114.329 E23.9500
G1 X105.671 Y119.530 E24.0491
G1 X105.388 Y119.530 E24.0529
G1 X100.470 Y114.612 E24.1466
G1 X100.470 Y114.895 E24.1504
G1 X105.105 Y119.530 E24.2387
G1 X104.822 Y119.530 E24.2425
G1 X100.470 Y115.178 E24.3254
G1 X100.470 Y115.461 E24.3292
G1 X104.539 Y119.530 E24.4067
G1 X104.257 Y119.530 E24.4105
G1 X100.470 Y115.743 E24.4827
G1 X100.470 Y116.026 E24.4865
G1 X103.974 Y119.530 E24.5532
G1 X103.691 Y119.530 E24.5570
G1 X100.470 Y116.309 E24.6184
G1 X100.470 Y116.592 E24.6222
G1 X103.408 Y119.530 E24.6782
G1 X103.125 Y119.530 E24.6820
G1 X100.470 Y116.875 E24.7326
G1 X100.470 Y117.158 E24.7364
G1 X102.842 Y119.530 E24.7816
G1 X102.559 Y119.530 E24.7854
G1 X100.470 Y117.441 E24.8252
G1 X100.470 Y117.723 E24.8290
G1 X102.277 Y119.530 E24.8634
G1 X101.994 Y119.530 E24.8672
G1 X100.470 Y118.006 E24.8962
G1 X100.470 Y118.289 E24.9001
G1 X101.711 Y119.530 E24.9237
G1 X101.428 Y119.530 E24.9275
G1 X100.470 Y118.572 E24.9458
G1 X100.470 Y118.855 E24.9496
G1 X101.145 Y119.530 E24.9624
G1 X100.862 Y119.530 E24.9662
G1 X100.470 Y119.138 E24.9737
G1 X100.470 Y119.420 E24.9775
G1 X100.580 Y119.530 E24.9796
G92 E0.0000
G1 E-2.5000 F1800
; layer 2, Z = 0.380
M106 S128
; feature inner perimeter
; tool H0.200 W0.200
G1 Z0.380 F1000
