; G-Code generated by Simplify3D(R) Version 4.1.2
; May 24, 2020 at 7:03:04 PM
; Settings Summary
;   processName,Calibration Cube
;   applyToModels,3DBenchy
;   profileName,Anet A8 (modified)
;   profileVersion,2020-05-17 12:50:12
;   baseProfile,
;   printMaterial,PETG
;   printQuality,Medium
;   printExtruders,
;   extruderName,Primary Extruder
;   extruderToolheadNumber,0
;   extruderDiameter,0.4
;   extruderAutoWidth,1
;   extruderWidth,0.48
;   extrusionMultiplier,0.9
;   extruderUseRetract,1
;   extruderRetractionDistance,2
;   extruderExtraRestartDistance,-0.5
;   extruderRetractionZLift,0
;   extruderRetractionSpeed,1800
;   extruderUseCoasting,1
;   extruderCoastingDistance,0.2
;   extruderUseWipe,0
;   extruderWipeDistance,5
;   primaryExtruder,0
;   layerHeight,0.2
;   topSolidLayers,3
;   bottomSolidLayers,3
;   perimeterOutlines,2
;   printPerimetersInsideOut,1
;   startPointOption,2
;   startPointOriginX,0
;   startPointOriginY,0
;   sequentialIslands,0
;   spiralVaseMode,0
;   firstLayerHeightPercentage,90
;   firstLayerWidthPercentage,100
;   firstLayerUnderspeed,0.5
;   useRaft,0
;   raftExtruder,0
;   raftTopLayers,3
;   raftBaseLayers,2
;   raftOffset,3
;   raftSeparationDistance,0.14
;   raftTopInfill,100
;   aboveRaftSpeedMultiplier,0.3
;   useSkirt,1
;   skirtExtruder,0
;   skirtLayers,1
;   skirtOutlines,3
;   skirtOffset,5
;   usePrimePillar,0
;   primePillarExtruder,999
;   primePillarWidth,12
;   primePillarLocation,7
;   primePillarSpeedMultiplier,1
;   useOozeShield,0
;   oozeShieldExtruder,999
;   oozeShieldOffset,2
;   oozeShieldOutlines,1
;   oozeShieldSidewallShape,1
;   oozeShieldSidewallAngle,30
;   oozeShieldSpeedMultiplier,1
;   infillExtruder,0
;   internalInfillPattern,Rectilinear
;   externalInfillPattern,Rectilinear
;   infillPercentage,20
;   outlineOverlapPercentage,15
;   infillExtrusionWidthPercentage,100
;   minInfillLength,5
;   infillLayerInterval,1
;   internalInfillAngles,45,-45
;   overlapInternalInfillAngles,0
;   externalInfillAngles,45,-45
;   generateSupport,0
;   supportExtruder,0
;   supportInfillPercentage,30
;   supportExtraInflation,0
;   supportBaseLayers,0
;   denseSupportExtruder,0
;   denseSupportLayers,0
;   denseSupportInfillPercentage,70
;   supportLayerInterval,1
;   supportHorizontalPartOffset,0.3
;   supportUpperSeparationLayers,1
;   supportLowerSeparationLayers,1
;   supportType,0
;   supportGridSpacing,4
;   maxOverhangAngle,45
;   supportAngles,0
;   temperatureName,Primary Extruder,Heated Bed
;   temperatureNumber,0,0
;   temperatureSetpointCount,1,1
;   temperatureSetpointLayers,1,1
;   temperatureSetpointTemperatures,230,70
;   temperatureStabilizeAtStartup,1,1
;   temperatureHeatedBed,0,1
;   fanLayers,1,2
;   fanSpeeds,0,100
;   blipFanToFullPower,0
;   adjustSpeedForCooling,1
;   minSpeedLayerTime,15
;   minCoolingSpeedSlowdown,20
;   increaseFanForCooling,0
;   minFanLayerTime,45
;   maxCoolingFanSpeed,100
;   increaseFanForBridging,0
;   bridgingFanSpeed,100
;   use5D,1
;   relativeEdistances,0
;   allowEaxisZeroing,1
;   independentExtruderAxes,0
;   includeM10123,0
;   stickySupport,1
;   applyToolheadOffsets,0
;   gcodeXoffset,0
;   gcodeYoffset,0
;   gcodeZoffset,0
;   overrideMachineDefinition,1
;   machineTypeOverride,0
;   strokeXoverride,220
;   strokeYoverride,220
;   strokeZoverride,240
;   originOffsetXoverride,0
;   originOffsetYoverride,0
;   originOffsetZoverride,0
;   homeXdirOverride,-1
;   homeYdirOverride,-1
;   homeZdirOverride,-1
;   flipXoverride,1
;   flipYoverride,-1
;   flipZoverride,1
;   toolheadOffsets,0,0|0,0|0,0|0,0|0,0|0,0
;   overrideFirmwareConfiguration,1
;   firmwareTypeOverride,RepRap (Marlin/Repetier/Sprinter)
;   GPXconfigOverride,r2
;   baudRateOverride,115200
;   overridePrinterModels,1
;   printerModelsOverride
;   startingGcode,M107 ; fan off,G28 ; home all axes,G29 ; run auto bed leveling,M500 ; store level values in EEPROM,G1 X0 Y20 Z0.2 F3000 ; get ready to prime on lower end,; G1 X0 Y190 Z0.2 F3000 ; get ready to prime on high end,G92 E0 ; reset extrusion distance,G1 X200 E10 F600 ; prime nozzle
;   layerChangeGcode,
;   retractionGcode,
;   toolChangeGcode,
;   endingGcode,M104 S0 ; turn off extruder,M140 S0 ; turn off bed,G91 ; use relative coordinates for jogging,G1 Z20 F1000 ; raise Z by 20mm at 1000 mm/min,G90 ; switch back to absolute coordinates,G1 X0 Y200 F1000 ; prepare for part removal,M84 ; disable motors,M107 ; turn off fan
;   exportFileFormat,gcode
;   celebration,0
;   celebrationSong,Random Song
;   postProcessing,
;   defaultSpeed,3200
;   outlineUnderspeed,0.55
;   solidInfillUnderspeed,0.8
;   supportUnderspeed,0.8
;   rapidXYspeed,4800
;   rapidZspeed,1000
;   minBridgingArea,50
;   bridgingExtraInflation,0
;   bridgingExtrusionMultiplier,1
;   bridgingSpeedMultiplier,1
;   useFixedBridgingAngle,0
;   fixedBridgingAngle,0
;   applyBridgingToPerimeters,0
;   filamentDiameters,1.75|1.75|1.75|1.75|1.75|1.75
;   filamentPricesPerKg,23.99|46|46|46|46|46
;   filamentDensities,1.25|1.25|1.25|1.25|1.25|1.25
;   useMinPrintHeight,0
;   minPrintHeight,0
;   useMaxPrintHeight,0
;   maxPrintHeight,0
;   useDiaphragm,0
;   diaphragmLayerInterval,20
;   robustSlicing,1
;   mergeAllIntoSolid,0
;   onlyRetractWhenCrossingOutline,1
;   retractBetweenLayers,1
;   useRetractionMinTravel,0
;   retractionMinTravel,3
;   retractWhileWiping,0
;   onlyWipeOutlines,1
;   avoidCrossingOutline,0
;   maxMovementDetourFactor,3
;   toolChangeRetractionDistance,12
;   toolChangeExtraRestartDistance,-0.5
;   toolChangeRetractionSpeed,600
;   externalThinWallType,0
;   internalThinWallType,2
;   thinWallAllowedOverlapPercentage,10
;   singleExtrusionMinLength,1
;   singleExtrusionMinPrintingWidthPercentage,50
;   singleExtrusionMaxPrintingWidthPercentage,200
;   singleExtrusionEndpointExtension,0.2
;   horizontalSizeCompensation,0
G90
M82
M106 S0
M140 S70
M190 S70
M104 S230 T0
M109 S230 T0
M107 ; fan off
G28 ; home all axes
G29 ; run auto bed leveling
M500 ; store level values in EEPROM
G1 X0 Y20 Z0.2 F3000 ; get ready to prime on lower end
; G1 X0 Y190 Z0.2 F3000 ; get ready to prime on high end
G92 E0 ; reset extrusion distance
G1 X200 E10 F600 ; prime nozzle
; process Calibration Cube
; layer 1, Z = 0.180
T0
G92 E0.0000
G1 E-2.0000 F1800
; feature skirt
; tool H0.180 W0.480
G1 Z0.180 F1000
G1 X80.409 Y99.306 F4800
G1 E-0.5000 F1800
G92 E0.0000
G1 X81.374 Y98.530 E0.0400 F1600
G1 X82.026 Y98.126 E0.0648
G1 X83.039 Y97.660 E0.1009
G1 X83.748 Y97.432 E0.1249
G1 X84.804 Y97.228 E0.1597
G1 X85.204 Y97.178 E0.1728
G1 X108.834 Y95.744 E0.9381
G1 X108.923 Y95.740 E0.9410
G1 X109.914 Y95.708 E0.9730
G1 X110.120 Y95.708 E0.9797
G1 X111.468 Y95.755 E1.0233
G1 X111.694 Y95.771 E1.0306
G1 X112.919 Y95.904 E1.0704
G1 X113.120 Y95.932 E1.0770
G1 X114.241 Y96.129 E1.1138
G1 X114.440 Y96.170 E1.1204
G1 X115.622 Y96.459 E1.1597
G1 X115.816 Y96.512 E1.1662
G1 X116.934 Y96.863 E1.2041
G1 X117.119 Y96.928 E1.2104
G1 X118.131 Y97.317 E1.2455
G1 X118.321 Y97.397 E1.2522
G1 X119.479 Y97.934 E1.2934
G1 X119.659 Y98.025 E1.2999
G1 X120.602 Y98.539 E1.3347
G1 X120.778 Y98.642 E1.3413
G1 X121.859 Y99.326 E1.3826
G1 X122.028 Y99.442 E1.3892
G1 X122.943 Y100.109 E1.4258
G1 X123.114 Y100.244 E1.4329
G1 X124.142 Y101.111 E1.4764
G1 X124.297 Y101.250 E1.4831
G1 X125.064 Y101.991 E1.5176
G1 X125.210 Y102.142 E1.5244
G1 X126.125 Y103.154 E1.5685
G1 X126.253 Y103.306 E1.5749
G1 X126.847 Y104.053 E1.6057
G1 X126.973 Y104.223 E1.6126
G1 X127.828 Y105.464 E1.6613
G1 X127.973 Y105.695 E1.6701
G1 X128.624 Y106.846 E1.7129
G1 X128.945 Y107.664 E1.7413
G1 X129.215 Y108.803 E1.7791
G1 X129.298 Y109.491 E1.8015
G1 X129.306 Y110.377 E1.8302
G1 X129.232 Y111.082 E1.8531
G1 X128.994 Y112.152 E1.8885
G1 X128.775 Y112.793 E1.9104
G1 X128.462 Y113.464 E1.9344
G1 X128.270 Y113.814 E1.9473
G1 X127.415 Y115.158 E1.9988
G1 X127.306 Y115.319 E2.0051
G1 X126.882 Y115.901 E2.0283
G1 X126.757 Y116.063 E2.0350
G1 X125.679 Y117.355 E2.0894
G1 X125.507 Y117.545 E2.0976
G1 X124.639 Y118.427 E2.1376
G1 X124.499 Y118.561 E2.1439
G1 X123.714 Y119.265 E2.1780
G1 X123.565 Y119.390 E2.1843
G1 X122.652 Y120.111 E2.2219
G1 X122.497 Y120.225 E2.2281
G1 X121.614 Y120.838 E2.2629
G1 X121.457 Y120.939 E2.2689
G1 X120.553 Y121.489 E2.3031
G1 X120.399 Y121.576 E2.3088
G1 X119.458 Y122.077 E2.3433
G1 X119.297 Y122.156 E2.3491
G1 X118.396 Y122.570 E2.3811
G1 X118.225 Y122.643 E2.3872
G1 X117.142 Y123.064 E2.4247
G1 X116.964 Y123.127 E2.4308
G1 X116.011 Y123.433 E2.4632
G1 X115.843 Y123.481 E2.4688
G1 X114.864 Y123.735 E2.5015
G1 X114.702 Y123.772 E2.5069
G1 X113.740 Y123.967 E2.5387
G1 X113.568 Y123.997 E2.5443
G1 X112.583 Y124.140 E2.5765
G1 X112.414 Y124.159 E2.5820
G1 X111.424 Y124.248 E2.6141
G1 X111.253 Y124.258 E2.6196
G1 X110.272 Y124.291 E2.6514
G1 X110.097 Y124.292 E2.6570
G1 X109.116 Y124.270 E2.6887
G1 X108.998 Y124.265 E2.6926
G1 X85.296 Y122.828 E3.4602
G1 X85.100 Y122.810 E3.4666
G1 X84.502 Y122.735 E3.4861
G1 X83.991 Y122.627 E3.5030
G1 X83.123 Y122.365 E3.5323
G1 X82.601 Y122.155 E3.5505
G1 X81.906 Y121.799 E3.5757
G1 X81.506 Y121.554 E3.5909
G1 X80.899 Y121.116 E3.6151
G1 X80.496 Y120.769 E3.6322
G1 X79.917 Y120.176 E3.6591
G1 X79.584 Y119.773 E3.6760
G1 X79.149 Y119.145 E3.7007
G1 X78.910 Y118.738 E3.7159
G1 X78.583 Y118.067 E3.7400
G1 X78.392 Y117.570 E3.7573
G1 X78.131 Y116.671 E3.7875
G1 X78.022 Y116.093 E3.8065
G1 X77.946 Y115.270 E3.8332
G1 X77.932 Y114.984 E3.8425
G1 X77.936 Y104.855 E4.1700
G1 X77.958 Y104.481 E4.1821
G1 X78.045 Y103.768 E4.2053
G1 X78.146 Y103.276 E4.2215
G1 X78.393 Y102.426 E4.2502
G1 X78.584 Y101.932 E4.2673
G1 X78.932 Y101.217 E4.2930
G1 X79.230 Y100.727 E4.3115
G1 X79.862 Y99.875 E4.3458
G1 X80.409 Y99.306 E4.3713
G92 E0.0000
G1 E-2.0000 F1800
G1 X80.734 Y99.661 F4800
G1 E-0.5000 F1800
G92 E0.0000
G1 X81.651 Y98.922 E0.0381 F1600
G1 X82.253 Y98.550 E0.0610
G1 X83.213 Y98.108 E0.0951
G1 X83.867 Y97.898 E0.1173
G1 X84.879 Y97.703 E0.1506
G1 X85.249 Y97.656 E0.1627
G1 X108.860 Y96.223 E0.9274
G1 X108.942 Y96.219 E0.9301
G1 X109.921 Y96.188 E0.9617
G1 X110.112 Y96.188 E0.9679
G1 X111.442 Y96.234 E1.0109
G1 X111.651 Y96.249 E1.0177
G1 X112.859 Y96.380 E1.0570
G1 X113.045 Y96.406 E1.0631
G1 X114.150 Y96.600 E1.0993
G1 X114.334 Y96.638 E1.1054
G1 X115.501 Y96.923 E1.1442
G1 X115.680 Y96.973 E1.1502
G1 X116.783 Y97.319 E1.1876
G1 X116.954 Y97.378 E1.1935
G1 X117.951 Y97.762 E1.2280
G1 X118.126 Y97.836 E1.2342
G1 X119.270 Y98.366 E1.2749
G1 X119.436 Y98.450 E1.2809
G1 X120.366 Y98.956 E1.3152
G1 X120.528 Y99.052 E1.3212
G1 X121.595 Y99.728 E1.3621
G1 X121.752 Y99.834 E1.3682
G1 X122.653 Y100.492 E1.4043
G1 X122.811 Y100.616 E1.4108
G1 X123.827 Y101.473 E1.4537
G1 X123.969 Y101.601 E1.4599
G1 X124.724 Y102.331 E1.4939
G1 X124.859 Y102.470 E1.5001
G1 X125.764 Y103.471 E1.5437
G1 X125.882 Y103.610 E1.5497
G1 X126.466 Y104.345 E1.5800
G1 X126.582 Y104.502 E1.5863
G1 X127.427 Y105.728 E1.6344
G1 X127.560 Y105.941 E1.6426
G1 X128.190 Y107.053 E1.6839
G1 X128.486 Y107.807 E1.7101
G1 X128.742 Y108.887 E1.7460
G1 X128.819 Y109.522 E1.7666
G1 X128.826 Y110.354 E1.7935
G1 X128.758 Y111.004 E1.8147
G1 X128.531 Y112.022 E1.8484
G1 X128.329 Y112.614 E1.8686
G1 X128.033 Y113.247 E1.8912
G1 X127.856 Y113.569 E1.9031
G1 X127.014 Y114.895 E1.9538
G1 X126.913 Y115.043 E1.9596
G1 X126.499 Y115.612 E1.9824
G1 X126.383 Y115.761 E1.9885
G1 X125.317 Y117.040 E2.0423
G1 X125.158 Y117.215 E2.0500
G1 X124.302 Y118.085 E2.0894
G1 X124.173 Y118.208 E2.0952
G1 X123.399 Y118.902 E2.1288
G1 X123.262 Y119.018 E2.1346
G1 X122.360 Y119.729 E2.1717
G1 X122.218 Y119.835 E2.1775
G1 X121.347 Y120.439 E2.2117
G1 X121.202 Y120.533 E2.2173
G1 X120.310 Y121.075 E2.2511
G1 X120.167 Y121.156 E2.2564
G1 X119.238 Y121.650 E2.2904
G1 X119.091 Y121.723 E2.2957
G1 X118.202 Y122.131 E2.3273
G1 X118.044 Y122.199 E2.3329
G1 X116.974 Y122.614 E2.3700
G1 X116.811 Y122.672 E2.3756
G1 X115.871 Y122.973 E2.4075
G1 X115.716 Y123.018 E2.4127
G1 X114.750 Y123.269 E2.4450
G1 X114.601 Y123.303 E2.4499
G1 X113.651 Y123.495 E2.4812
G1 X113.492 Y123.523 E2.4864
G1 X112.520 Y123.664 E2.5182
G1 X112.365 Y123.682 E2.5233
G1 X111.388 Y123.769 E2.5550
G1 X111.230 Y123.779 E2.5601
G1 X110.262 Y123.811 E2.5914
G1 X110.101 Y123.812 E2.5966
G1 X109.132 Y123.790 E2.6280
G1 X109.023 Y123.786 E2.6315
G1 X85.333 Y122.349 E3.3987
G1 X85.152 Y122.332 E3.4046
G1 X84.581 Y122.261 E3.4232
G1 X84.110 Y122.161 E3.4388
G1 X83.282 Y121.912 E3.4667
G1 X82.801 Y121.718 E3.4835
G1 X82.142 Y121.380 E3.5075
G1 X81.772 Y121.154 E3.5215
G1 X81.197 Y120.739 E3.5444
G1 X80.825 Y120.419 E3.5603
G1 X80.274 Y119.855 E3.5857
G1 X79.967 Y119.483 E3.6013
G1 X79.553 Y118.886 E3.6248
G1 X79.334 Y118.511 E3.6389
G1 X79.024 Y117.875 E3.6617
G1 X78.847 Y117.416 E3.6776
G1 X78.599 Y116.560 E3.7065
G1 X78.498 Y116.026 E3.7240
G1 X78.425 Y115.237 E3.7496
G1 X78.412 Y114.973 E3.7582
G1 X78.416 Y104.869 E4.0848
G1 X78.437 Y104.524 E4.0960
G1 X78.519 Y103.845 E4.1181
G1 X78.612 Y103.391 E4.1331
G1 X78.848 Y102.579 E4.1604
G1 X79.024 Y102.124 E4.1762
G1 X79.354 Y101.447 E4.2006
G1 X79.629 Y100.995 E4.2177
G1 X80.229 Y100.186 E4.2502
G1 X80.734 Y99.661 E4.2738
G92 E0.0000
G1 E-2.0000 F1800
G1 X81.059 Y100.015 F4800
G1 E-0.5000 F1800
G92 E0.0000
G1 X81.929 Y99.315 E0.0361 F1600
G1 X82.481 Y98.973 E0.0571
G1 X83.387 Y98.557 E0.0893
G1 X83.986 Y98.364 E0.1097
G1 X84.955 Y98.177 E0.1416
G1 X85.294 Y98.134 E0.1526
G1 X108.886 Y96.702 E0.9167
G1 X108.961 Y96.699 E0.9192
G1 X109.929 Y96.668 E0.9505
G1 X110.103 Y96.668 E0.9561
G1 X111.417 Y96.714 E0.9986
G1 X111.608 Y96.727 E1.0048
G1 X112.800 Y96.856 E1.0435
G1 X112.970 Y96.880 E1.0491
G1 X114.059 Y97.071 E1.0849
G1 X114.228 Y97.107 E1.0904
G1 X115.380 Y97.388 E1.1288
G1 X115.544 Y97.433 E1.1343
G1 X116.632 Y97.775 E1.1711
G1 X116.789 Y97.829 E1.1765
G1 X117.771 Y98.207 E1.2105
G1 X117.932 Y98.275 E1.2162
G1 X119.061 Y98.799 E1.2564
G1 X119.213 Y98.875 E1.2619
G1 X120.129 Y99.374 E1.2956
G1 X120.278 Y99.461 E1.3012
G1 X121.332 Y100.129 E1.3415
G1 X121.475 Y100.226 E1.3471
G1 X122.363 Y100.875 E1.3827
G1 X122.508 Y100.988 E1.3886
G1 X123.511 Y101.835 E1.4311
G1 X123.641 Y101.952 E1.4367
G1 X124.385 Y102.671 E1.4702
G1 X124.509 Y102.798 E1.4759
G1 X125.403 Y103.787 E1.5190
G1 X125.511 Y103.915 E1.5244
G1 X126.085 Y104.637 E1.5543
G1 X126.191 Y104.781 E1.5600
G1 X127.026 Y105.991 E1.6076
G1 X127.148 Y106.186 E1.6150
G1 X127.756 Y107.260 E1.6549
G1 X128.027 Y107.951 E1.6789
G1 X128.268 Y108.972 E1.7128
G1 X128.339 Y109.553 E1.7317
G1 X128.346 Y110.331 E1.7569
G1 X128.283 Y110.927 E1.7762
G1 X128.068 Y111.892 E1.8082
G1 X127.884 Y112.434 E1.8267
G1 X127.605 Y113.029 E1.8480
G1 X127.443 Y113.325 E1.8589
G1 X126.613 Y114.631 E1.9089
G1 X126.520 Y114.767 E1.9142
G1 X126.115 Y115.324 E1.9365
G1 X126.009 Y115.460 E1.9421
G1 X124.954 Y116.726 E1.9953
G1 X124.809 Y116.886 E2.0023
G1 X123.966 Y117.743 E2.0412
G1 X123.847 Y117.856 E2.0465
G1 X123.084 Y118.540 E2.0796
G1 X122.959 Y118.646 E2.0849
G1 X122.069 Y119.348 E2.1216
G1 X121.938 Y119.445 E2.1268
G1 X121.079 Y120.040 E2.1606
G1 X120.947 Y120.126 E2.1657
G1 X120.066 Y120.661 E2.1990
G1 X119.936 Y120.735 E2.2039
G1 X119.019 Y121.223 E2.2374
G1 X118.884 Y121.290 E2.2423
G1 X118.008 Y121.692 E2.2735
G1 X117.863 Y121.754 E2.2786
G1 X116.807 Y122.164 E2.3152
G1 X116.657 Y122.217 E2.3203
G1 X115.731 Y122.514 E2.3518
G1 X115.589 Y122.555 E2.3566
G1 X114.636 Y122.802 E2.3884
G1 X114.499 Y122.834 E2.3929
G1 X113.562 Y123.024 E2.4238
G1 X113.417 Y123.049 E2.4286
G1 X112.458 Y123.188 E2.4599
G1 X112.316 Y123.204 E2.4646
G1 X111.352 Y123.290 E2.4958
G1 X111.207 Y123.299 E2.5005
G1 X110.253 Y123.331 E2.5314
G1 X110.105 Y123.332 E2.5362
G1 X109.147 Y123.311 E2.5672
G1 X109.047 Y123.307 E2.5704
G1 X85.370 Y121.870 E3.3373
G1 X85.204 Y121.855 E3.3427
G1 X84.661 Y121.787 E3.3603
G1 X84.229 Y121.696 E3.3746
G1 X83.441 Y121.459 E3.4012
G1 X83.000 Y121.281 E3.4166
G1 X82.377 Y120.961 E3.4392
G1 X82.038 Y120.754 E3.4521
G1 X81.494 Y120.361 E3.4737
G1 X81.154 Y120.068 E3.4883
G1 X80.631 Y119.534 E3.5124
G1 X80.350 Y119.193 E3.5267
G1 X79.958 Y118.628 E3.5489
